; cncctl CAD/CAM — grblHAL G-code
; tool dia 10 mm, depth 2 mm, stepdown 1.5 mm
G21
G90
G17
G94
G0 Z5.000
; --- shape 1: rect / Pocket (clear inside) / depth 20 mm ---
G0 X19.000 Y12.000
G0 Z1.000
G1 Z-1.500 F100.0
G1 X131.000 Y12.000 F500.0
G1 X131.000 Y16.500 F500.0
G1 X19.000 Y16.500 F500.0
G1 X19.000 Y21.000 F500.0
G1 X131.000 Y21.000 F500.0
G1 X131.000 Y25.500 F500.0
G1 X19.000 Y25.500 F500.0
G1 X19.000 Y30.000 F500.0
G1 X131.000 Y30.000 F500.0
G0 Z1.000
G0 X19.000 Y12.000
G1 Z-3.000 F100.0
G1 X131.000 Y12.000 F500.0
G1 X131.000 Y16.500 F500.0
G1 X19.000 Y16.500 F500.0
G1 X19.000 Y21.000 F500.0
G1 X131.000 Y21.000 F500.0
G1 X131.000 Y25.500 F500.0
G1 X19.000 Y25.500 F500.0
G1 X19.000 Y30.000 F500.0
G1 X131.000 Y30.000 F500.0
G0 Z1.000
G0 X19.000 Y12.000
G1 Z-4.500 F100.0
G1 X131.000 Y12.000 F500.0
G1 X131.000 Y16.500 F500.0
G1 X19.000 Y16.500 F500.0
G1 X19.000 Y21.000 F500.0
G1 X131.000 Y21.000 F500.0
G1 X131.000 Y25.500 F500.0
G1 X19.000 Y25.500 F500.0
G1 X19.000 Y30.000 F500.0
G1 X131.000 Y30.000 F500.0
G0 Z1.000
G0 X19.000 Y12.000
G1 Z-6.000 F100.0
G1 X131.000 Y12.000 F500.0
G1 X131.000 Y16.500 F500.0
G1 X19.000 Y16.500 F500.0
G1 X19.000 Y21.000 F500.0
G1 X131.000 Y21.000 F500.0
G1 X131.000 Y25.500 F500.0
G1 X19.000 Y25.500 F500.0
G1 X19.000 Y30.000 F500.0
G1 X131.000 Y30.000 F500.0
G0 Z1.000
G0 X19.000 Y12.000
G1 Z-7.500 F100.0
G1 X131.000 Y12.000 F500.0
G1 X131.000 Y16.500 F500.0
G1 X19.000 Y16.500 F500.0
G1 X19.000 Y21.000 F500.0
G1 X131.000 Y21.000 F500.0
G1 X131.000 Y25.500 F500.0
G1 X19.000 Y25.500 F500.0
G1 X19.000 Y30.000 F500.0
G1 X131.000 Y30.000 F500.0
G0 Z1.000
G0 X19.000 Y12.000
G1 Z-9.000 F100.0
G1 X131.000 Y12.000 F500.0
G1 X131.000 Y16.500 F500.0
G1 X19.000 Y16.500 F500.0
G1 X19.000 Y21.000 F500.0
G1 X131.000 Y21.000 F500.0
G1 X131.000 Y25.500 F500.0
G1 X19.000 Y25.500 F500.0
G1 X19.000 Y30.000 F500.0
G1 X131.000 Y30.000 F500.0
G0 Z1.000
G0 X19.000 Y12.000
G1 Z-10.500 F100.0
G1 X131.000 Y12.000 F500.0
G1 X131.000 Y16.500 F500.0
G1 X19.000 Y16.500 F500.0
G1 X19.000 Y21.000 F500.0
G1 X131.000 Y21.000 F500.0
G1 X131.000 Y25.500 F500.0
G1 X19.000 Y25.500 F500.0
G1 X19.000 Y30.000 F500.0
G1 X131.000 Y30.000 F500.0
G0 Z1.000
G0 X19.000 Y12.000
G1 Z-12.000 F100.0
G1 X131.000 Y12.000 F500.0
G1 X131.000 Y16.500 F500.0
G1 X19.000 Y16.500 F500.0
G1 X19.000 Y21.000 F500.0
G1 X131.000 Y21.000 F500.0
G1 X131.000 Y25.500 F500.0
G1 X19.000 Y25.500 F500.0
G1 X19.000 Y30.000 F500.0
G1 X131.000 Y30.000 F500.0
G0 Z1.000
G0 X19.000 Y12.000
G1 Z-13.500 F100.0
G1 X131.000 Y12.000 F500.0
G1 X131.000 Y16.500 F500.0
G1 X19.000 Y16.500 F500.0
G1 X19.000 Y21.000 F500.0
G1 X131.000 Y21.000 F500.0
G1 X131.000 Y25.500 F500.0
G1 X19.000 Y25.500 F500.0
G1 X19.000 Y30.000 F500.0
G1 X131.000 Y30.000 F500.0
G0 Z1.000
G0 X19.000 Y12.000
G1 Z-15.000 F100.0
G1 X131.000 Y12.000 F500.0
G1 X131.000 Y16.500 F500.0
G1 X19.000 Y16.500 F500.0
G1 X19.000 Y21.000 F500.0
G1 X131.000 Y21.000 F500.0
G1 X131.000 Y25.500 F500.0
G1 X19.000 Y25.500 F500.0
G1 X19.000 Y30.000 F500.0
G1 X131.000 Y30.000 F500.0
G0 Z1.000
G0 X19.000 Y12.000
G1 Z-16.500 F100.0
G1 X131.000 Y12.000 F500.0
G1 X131.000 Y16.500 F500.0
G1 X19.000 Y16.500 F500.0
G1 X19.000 Y21.000 F500.0
G1 X131.000 Y21.000 F500.0
G1 X131.000 Y25.500 F500.0
G1 X19.000 Y25.500 F500.0
G1 X19.000 Y30.000 F500.0
G1 X131.000 Y30.000 F500.0
G0 Z1.000
G0 X19.000 Y12.000
G1 Z-18.000 F100.0
G1 X131.000 Y12.000 F500.0
G1 X131.000 Y16.500 F500.0
G1 X19.000 Y16.500 F500.0
G1 X19.000 Y21.000 F500.0
G1 X131.000 Y21.000 F500.0
G1 X131.000 Y25.500 F500.0
G1 X19.000 Y25.500 F500.0
G1 X19.000 Y30.000 F500.0
G1 X131.000 Y30.000 F500.0
G0 Z1.000
G0 X19.000 Y12.000
G1 Z-19.500 F100.0
G1 X131.000 Y12.000 F500.0
G1 X131.000 Y16.500 F500.0
G1 X19.000 Y16.500 F500.0
G1 X19.000 Y21.000 F500.0
G1 X131.000 Y21.000 F500.0
G1 X131.000 Y25.500 F500.0
G1 X19.000 Y25.500 F500.0
G1 X19.000 Y30.000 F500.0
G1 X131.000 Y30.000 F500.0
G0 Z1.000
G0 X19.000 Y12.000
G1 Z-20.000 F100.0
G1 X131.000 Y12.000 F500.0
G1 X131.000 Y16.500 F500.0
G1 X19.000 Y16.500 F500.0
G1 X19.000 Y21.000 F500.0
G1 X131.000 Y21.000 F500.0
G1 X131.000 Y25.500 F500.0
G1 X19.000 Y25.500 F500.0
G1 X19.000 Y30.000 F500.0
G1 X131.000 Y30.000 F500.0
G0 Z1.000
G0 X19.000 Y12.000
G0 Z5.000
G0 X19.000 Y12.000
G0 Z1.000
G1 Z-1.500 F100.0
G1 X131.000 Y12.000 F500.0
G1 X131.000 Y33.000 F500.0
G1 X19.000 Y33.000 F500.0
G1 X19.000 Y12.000 F500.0
G1 Z-3.000 F100.0
G1 X131.000 Y12.000 F500.0
G1 X131.000 Y33.000 F500.0
G1 X19.000 Y33.000 F500.0
G1 X19.000 Y12.000 F500.0
G1 Z-4.500 F100.0
G1 X131.000 Y12.000 F500.0
G1 X131.000 Y33.000 F500.0
G1 X19.000 Y33.000 F500.0
G1 X19.000 Y12.000 F500.0
G1 Z-6.000 F100.0
G1 X131.000 Y12.000 F500.0
G1 X131.000 Y33.000 F500.0
G1 X19.000 Y33.000 F500.0
G1 X19.000 Y12.000 F500.0
G1 Z-7.500 F100.0
G1 X131.000 Y12.000 F500.0
G1 X131.000 Y33.000 F500.0
G1 X19.000 Y33.000 F500.0
G1 X19.000 Y12.000 F500.0
G1 Z-9.000 F100.0
G1 X131.000 Y12.000 F500.0
G1 X131.000 Y33.000 F500.0
G1 X19.000 Y33.000 F500.0
G1 X19.000 Y12.000 F500.0
G1 Z-10.500 F100.0
G1 X131.000 Y12.000 F500.0
G1 X131.000 Y33.000 F500.0
G1 X19.000 Y33.000 F500.0
G1 X19.000 Y12.000 F500.0
G1 Z-12.000 F100.0
G1 X131.000 Y12.000 F500.0
G1 X131.000 Y33.000 F500.0
G1 X19.000 Y33.000 F500.0
G1 X19.000 Y12.000 F500.0
G1 Z-13.500 F100.0
G1 X131.000 Y12.000 F500.0
G1 X131.000 Y33.000 F500.0
G1 X19.000 Y33.000 F500.0
G1 X19.000 Y12.000 F500.0
G1 Z-15.000 F100.0
G1 X131.000 Y12.000 F500.0
G1 X131.000 Y33.000 F500.0
G1 X19.000 Y33.000 F500.0
G1 X19.000 Y12.000 F500.0
G1 Z-16.500 F100.0
G1 X131.000 Y12.000 F500.0
G1 X131.000 Y33.000 F500.0
G1 X19.000 Y33.000 F500.0
G1 X19.000 Y12.000 F500.0
G1 Z-18.000 F100.0
G1 X131.000 Y12.000 F500.0
G1 X131.000 Y33.000 F500.0
G1 X19.000 Y33.000 F500.0
G1 X19.000 Y12.000 F500.0
G1 Z-19.500 F100.0
G1 X131.000 Y12.000 F500.0
G1 X131.000 Y33.000 F500.0
G1 X19.000 Y33.000 F500.0
G1 X19.000 Y12.000 F500.0
G1 Z-20.000 F100.0
G1 X131.000 Y12.000 F500.0
G1 X131.000 Y33.000 F500.0
G1 X19.000 Y33.000 F500.0
G1 X19.000 Y12.000 F500.0
G0 Z5.000
M5
G0 Z5.000
G0 X0 Y0
M2
