; cncctl CAD/CAM — grblHAL G-code
; tool dia 10 mm, depth 2 mm, stepdown 0.5 mm
G21
G90
G17
G94
G0 Z5.000
; --- shape 1: circle / Pocket (clear inside) / depth 15 mm ---
G0 X33.190 Y21.610
G0 Z1.000
G1 Z-0.500 F100.0
G1 X33.188 Y21.810 F400.0
G1 X33.182 Y22.010 F400.0
G1 X33.172 Y22.210 F400.0
G1 X33.158 Y22.410 F400.0
G1 X33.140 Y22.609 F400.0
G1 X33.118 Y22.808 F400.0
G1 X33.092 Y23.006 F400.0
G1 X33.062 Y23.204 F400.0
G1 X33.028 Y23.401 F400.0
G1 X32.990 Y23.598 F400.0
G1 X32.949 Y23.793 F400.0
G1 X32.903 Y23.988 F400.0
G1 X32.854 Y24.182 F400.0
G1 X32.800 Y24.375 F400.0
G1 X32.743 Y24.567 F400.0
G1 X32.682 Y24.757 F400.0
G1 X32.617 Y24.946 F400.0
G1 X32.548 Y25.134 F400.0
G1 X32.476 Y25.321 F400.0
G1 X32.400 Y25.506 F400.0
G1 X32.320 Y25.690 F400.0
G1 X32.237 Y25.871 F400.0
G1 X32.149 Y26.052 F400.0
G1 X32.059 Y26.230 F400.0
G1 X31.965 Y26.406 F400.0
G1 X31.867 Y26.581 F400.0
G1 X31.766 Y26.754 F400.0
G1 X31.661 Y26.924 F400.0
G1 X31.553 Y27.093 F400.0
G1 X31.442 Y27.259 F400.0
G1 X31.327 Y27.423 F400.0
G1 X31.209 Y27.585 F400.0
G1 X31.088 Y27.744 F400.0
G1 X30.964 Y27.901 F400.0
G1 X30.836 Y28.055 F400.0
G1 X30.706 Y28.207 F400.0
G1 X30.572 Y28.356 F400.0
G1 X30.436 Y28.502 F400.0
G1 X30.296 Y28.646 F400.0
G1 X30.154 Y28.786 F400.0
G1 X30.009 Y28.924 F400.0
G1 X29.861 Y29.059 F400.0
G1 X29.711 Y29.191 F400.0
G1 X29.558 Y29.320 F400.0
G1 X29.403 Y29.446 F400.0
G1 X29.244 Y29.569 F400.0
G1 X29.084 Y29.688 F400.0
G1 X28.921 Y29.805 F400.0
G1 X28.756 Y29.918 F400.0
G1 X28.589 Y30.027 F400.0
G1 X28.419 Y30.134 F400.0
G1 X28.248 Y30.237 F400.0
G1 X28.074 Y30.336 F400.0
G1 X27.898 Y30.432 F400.0
G1 X27.721 Y30.525 F400.0
G1 X27.542 Y30.613 F400.0
G1 X27.361 Y30.699 F400.0
G1 X27.178 Y30.780 F400.0
G1 X26.994 Y30.858 F400.0
G1 X26.808 Y30.933 F400.0
G1 X26.621 Y31.003 F400.0
G1 X26.432 Y31.070 F400.0
G1 X26.242 Y31.133 F400.0
G1 X26.051 Y31.192 F400.0
G1 X25.859 Y31.247 F400.0
G1 X25.665 Y31.299 F400.0
G1 X25.471 Y31.346 F400.0
G1 X25.276 Y31.390 F400.0
G1 X25.080 Y31.430 F400.0
G1 X24.883 Y31.466 F400.0
G1 X24.685 Y31.498 F400.0
G1 X24.487 Y31.526 F400.0
G1 X24.288 Y31.549 F400.0
G1 X24.089 Y31.569 F400.0
G1 X23.890 Y31.585 F400.0
G1 X23.690 Y31.597 F400.0
G1 X23.490 Y31.605 F400.0
G1 X23.290 Y31.609 F400.0
G1 X23.090 Y31.609 F400.0
G1 X22.890 Y31.605 F400.0
G1 X22.690 Y31.597 F400.0
G1 X22.490 Y31.585 F400.0
G1 X22.291 Y31.569 F400.0
G1 X22.092 Y31.549 F400.0
G1 X21.893 Y31.526 F400.0
G1 X21.695 Y31.498 F400.0
G1 X21.497 Y31.466 F400.0
G1 X21.300 Y31.430 F400.0
G1 X21.104 Y31.390 F400.0
G1 X20.909 Y31.346 F400.0
G1 X20.715 Y31.299 F400.0
G1 X20.521 Y31.247 F400.0
G1 X20.329 Y31.192 F400.0
G1 X20.138 Y31.133 F400.0
G1 X19.948 Y31.070 F400.0
G1 X19.759 Y31.003 F400.0
G1 X19.572 Y30.933 F400.0
G1 X19.386 Y30.858 F400.0
G1 X19.202 Y30.780 F400.0
G1 X19.019 Y30.699 F400.0
G1 X18.838 Y30.613 F400.0
G1 X18.659 Y30.525 F400.0
G1 X18.482 Y30.432 F400.0
G1 X18.306 Y30.336 F400.0
G1 X18.132 Y30.237 F400.0
G1 X17.961 Y30.134 F400.0
G1 X17.791 Y30.027 F400.0
G1 X17.624 Y29.918 F400.0
G1 X17.459 Y29.805 F400.0
G1 X17.296 Y29.688 F400.0
G1 X17.136 Y29.569 F400.0
G1 X16.977 Y29.446 F400.0
G1 X16.822 Y29.320 F400.0
G1 X16.669 Y29.191 F400.0
G1 X16.519 Y29.059 F400.0
G1 X16.371 Y28.924 F400.0
G1 X16.226 Y28.786 F400.0
G1 X16.084 Y28.646 F400.0
G1 X15.944 Y28.502 F400.0
G1 X15.808 Y28.356 F400.0
G1 X15.674 Y28.207 F400.0
G1 X15.544 Y28.055 F400.0
G1 X15.416 Y27.901 F400.0
G1 X15.292 Y27.744 F400.0
G1 X15.171 Y27.585 F400.0
G1 X15.053 Y27.423 F400.0
G1 X14.938 Y27.259 F400.0
G1 X14.827 Y27.093 F400.0
G1 X14.719 Y26.924 F400.0
G1 X14.614 Y26.754 F400.0
G1 X14.513 Y26.581 F400.0
G1 X14.415 Y26.406 F400.0
G1 X14.321 Y26.230 F400.0
G1 X14.231 Y26.052 F400.0
G1 X14.143 Y25.871 F400.0
G1 X14.060 Y25.690 F400.0
G1 X13.980 Y25.506 F400.0
G1 X13.904 Y25.321 F400.0
G1 X13.832 Y25.134 F400.0
G1 X13.763 Y24.946 F400.0
G1 X13.698 Y24.757 F400.0
G1 X13.637 Y24.567 F400.0
G1 X13.580 Y24.375 F400.0
G1 X13.526 Y24.182 F400.0
G1 X13.477 Y23.988 F400.0
G1 X13.431 Y23.793 F400.0
G1 X13.390 Y23.598 F400.0
G1 X13.352 Y23.401 F400.0
G1 X13.318 Y23.204 F400.0
G1 X13.288 Y23.006 F400.0
G1 X13.262 Y22.808 F400.0
G1 X13.240 Y22.609 F400.0
G1 X13.222 Y22.410 F400.0
G1 X13.208 Y22.210 F400.0
G1 X13.198 Y22.010 F400.0
G1 X13.192 Y21.810 F400.0
G1 X13.190 Y21.610 F400.0
G1 X13.192 Y21.410 F400.0
G1 X13.198 Y21.210 F400.0
G1 X13.208 Y21.010 F400.0
G1 X13.222 Y20.810 F400.0
G1 X13.240 Y20.611 F400.0
G1 X13.262 Y20.412 F400.0
G1 X13.288 Y20.214 F400.0
G1 X13.318 Y20.016 F400.0
G1 X13.352 Y19.819 F400.0
G1 X13.390 Y19.622 F400.0
G1 X13.431 Y19.427 F400.0
G1 X13.477 Y19.232 F400.0
G1 X13.526 Y19.038 F400.0
G1 X13.580 Y18.845 F400.0
G1 X13.637 Y18.653 F400.0
G1 X13.698 Y18.463 F400.0
G1 X13.763 Y18.274 F400.0
G1 X13.832 Y18.086 F400.0
G1 X13.904 Y17.899 F400.0
G1 X13.980 Y17.714 F400.0
G1 X14.060 Y17.530 F400.0
G1 X14.143 Y17.349 F400.0
G1 X14.231 Y17.168 F400.0
G1 X14.321 Y16.990 F400.0
G1 X14.415 Y16.814 F400.0
G1 X14.513 Y16.639 F400.0
G1 X14.614 Y16.466 F400.0
G1 X14.719 Y16.296 F400.0
G1 X14.827 Y16.127 F400.0
G1 X14.938 Y15.961 F400.0
G1 X15.053 Y15.797 F400.0
G1 X15.171 Y15.635 F400.0
G1 X15.292 Y15.476 F400.0
G1 X15.416 Y15.319 F400.0
G1 X15.544 Y15.165 F400.0
G1 X15.674 Y15.013 F400.0
G1 X15.808 Y14.864 F400.0
G1 X15.944 Y14.718 F400.0
G1 X16.084 Y14.574 F400.0
G1 X16.226 Y14.434 F400.0
G1 X16.371 Y14.296 F400.0
G1 X16.519 Y14.161 F400.0
G1 X16.669 Y14.029 F400.0
G1 X16.822 Y13.900 F400.0
G1 X16.977 Y13.774 F400.0
G1 X17.136 Y13.651 F400.0
G1 X17.296 Y13.532 F400.0
G1 X17.459 Y13.415 F400.0
G1 X17.624 Y13.302 F400.0
G1 X17.791 Y13.193 F400.0
G1 X17.961 Y13.086 F400.0
G1 X18.132 Y12.983 F400.0
G1 X18.306 Y12.884 F400.0
G1 X18.482 Y12.788 F400.0
G1 X18.659 Y12.695 F400.0
G1 X18.838 Y12.607 F400.0
G1 X19.019 Y12.521 F400.0
G1 X19.202 Y12.440 F400.0
G1 X19.386 Y12.362 F400.0
G1 X19.572 Y12.287 F400.0
G1 X19.759 Y12.217 F400.0
G1 X19.948 Y12.150 F400.0
G1 X20.138 Y12.087 F400.0
G1 X20.329 Y12.028 F400.0
G1 X20.521 Y11.973 F400.0
G1 X20.715 Y11.921 F400.0
G1 X20.909 Y11.874 F400.0
G1 X21.104 Y11.830 F400.0
G1 X21.300 Y11.790 F400.0
G1 X21.497 Y11.754 F400.0
G1 X21.695 Y11.722 F400.0
G1 X21.893 Y11.694 F400.0
G1 X22.092 Y11.671 F400.0
G1 X22.291 Y11.651 F400.0
G1 X22.490 Y11.635 F400.0
G1 X22.690 Y11.623 F400.0
G1 X22.890 Y11.615 F400.0
G1 X23.090 Y11.611 F400.0
G1 X23.290 Y11.611 F400.0
G1 X23.490 Y11.615 F400.0
G1 X23.690 Y11.623 F400.0
G1 X23.890 Y11.635 F400.0
G1 X24.089 Y11.651 F400.0
G1 X24.288 Y11.671 F400.0
G1 X24.487 Y11.694 F400.0
G1 X24.685 Y11.722 F400.0
G1 X24.883 Y11.754 F400.0
G1 X25.080 Y11.790 F400.0
G1 X25.276 Y11.830 F400.0
G1 X25.471 Y11.874 F400.0
G1 X25.665 Y11.921 F400.0
G1 X25.859 Y11.973 F400.0
G1 X26.051 Y12.028 F400.0
G1 X26.242 Y12.087 F400.0
G1 X26.432 Y12.150 F400.0
G1 X26.621 Y12.217 F400.0
G1 X26.808 Y12.287 F400.0
G1 X26.994 Y12.362 F400.0
G1 X27.178 Y12.440 F400.0
G1 X27.361 Y12.521 F400.0
G1 X27.542 Y12.607 F400.0
G1 X27.721 Y12.695 F400.0
G1 X27.898 Y12.788 F400.0
G1 X28.074 Y12.884 F400.0
G1 X28.248 Y12.983 F400.0
G1 X28.419 Y13.086 F400.0
G1 X28.589 Y13.193 F400.0
G1 X28.756 Y13.302 F400.0
G1 X28.921 Y13.415 F400.0
G1 X29.084 Y13.532 F400.0
G1 X29.244 Y13.651 F400.0
G1 X29.403 Y13.774 F400.0
G1 X29.558 Y13.900 F400.0
G1 X29.711 Y14.029 F400.0
G1 X29.861 Y14.161 F400.0
G1 X30.009 Y14.296 F400.0
G1 X30.154 Y14.434 F400.0
G1 X30.296 Y14.574 F400.0
G1 X30.436 Y14.718 F400.0
G1 X30.572 Y14.864 F400.0
G1 X30.706 Y15.013 F400.0
G1 X30.836 Y15.165 F400.0
G1 X30.964 Y15.319 F400.0
G1 X31.088 Y15.476 F400.0
G1 X31.209 Y15.635 F400.0
G1 X31.327 Y15.797 F400.0
G1 X31.442 Y15.961 F400.0
G1 X31.553 Y16.127 F400.0
G1 X31.661 Y16.296 F400.0
G1 X31.766 Y16.466 F400.0
G1 X31.867 Y16.639 F400.0
G1 X31.965 Y16.814 F400.0
G1 X32.059 Y16.990 F400.0
G1 X32.149 Y17.168 F400.0
G1 X32.237 Y17.349 F400.0
G1 X32.320 Y17.530 F400.0
G1 X32.400 Y17.714 F400.0
G1 X32.476 Y17.899 F400.0
G1 X32.548 Y18.086 F400.0
G1 X32.617 Y18.274 F400.0
G1 X32.682 Y18.463 F400.0
G1 X32.743 Y18.653 F400.0
G1 X32.800 Y18.845 F400.0
G1 X32.854 Y19.038 F400.0
G1 X32.903 Y19.232 F400.0
G1 X32.949 Y19.427 F400.0
G1 X32.990 Y19.622 F400.0
G1 X33.028 Y19.819 F400.0
G1 X33.062 Y20.016 F400.0
G1 X33.092 Y20.214 F400.0
G1 X33.118 Y20.412 F400.0
G1 X33.140 Y20.611 F400.0
G1 X33.158 Y20.810 F400.0
G1 X33.172 Y21.010 F400.0
G1 X33.182 Y21.210 F400.0
G1 X33.188 Y21.410 F400.0
G1 X33.190 Y21.610 F400.0
G0 Z1.000
G0 X33.190 Y21.610
G1 Z-1.000 F100.0
G1 X33.188 Y21.810 F400.0
G1 X33.182 Y22.010 F400.0
G1 X33.172 Y22.210 F400.0
G1 X33.158 Y22.410 F400.0
G1 X33.140 Y22.609 F400.0
G1 X33.118 Y22.808 F400.0
G1 X33.092 Y23.006 F400.0
G1 X33.062 Y23.204 F400.0
G1 X33.028 Y23.401 F400.0
G1 X32.990 Y23.598 F400.0
G1 X32.949 Y23.793 F400.0
G1 X32.903 Y23.988 F400.0
G1 X32.854 Y24.182 F400.0
G1 X32.800 Y24.375 F400.0
G1 X32.743 Y24.567 F400.0
G1 X32.682 Y24.757 F400.0
G1 X32.617 Y24.946 F400.0
G1 X32.548 Y25.134 F400.0
G1 X32.476 Y25.321 F400.0
G1 X32.400 Y25.506 F400.0
G1 X32.320 Y25.690 F400.0
G1 X32.237 Y25.871 F400.0
G1 X32.149 Y26.052 F400.0
G1 X32.059 Y26.230 F400.0
G1 X31.965 Y26.406 F400.0
G1 X31.867 Y26.581 F400.0
G1 X31.766 Y26.754 F400.0
G1 X31.661 Y26.924 F400.0
G1 X31.553 Y27.093 F400.0
G1 X31.442 Y27.259 F400.0
G1 X31.327 Y27.423 F400.0
G1 X31.209 Y27.585 F400.0
G1 X31.088 Y27.744 F400.0
G1 X30.964 Y27.901 F400.0
G1 X30.836 Y28.055 F400.0
G1 X30.706 Y28.207 F400.0
G1 X30.572 Y28.356 F400.0
G1 X30.436 Y28.502 F400.0
G1 X30.296 Y28.646 F400.0
G1 X30.154 Y28.786 F400.0
G1 X30.009 Y28.924 F400.0
G1 X29.861 Y29.059 F400.0
G1 X29.711 Y29.191 F400.0
G1 X29.558 Y29.320 F400.0
G1 X29.403 Y29.446 F400.0
G1 X29.244 Y29.569 F400.0
G1 X29.084 Y29.688 F400.0
G1 X28.921 Y29.805 F400.0
G1 X28.756 Y29.918 F400.0
G1 X28.589 Y30.027 F400.0
G1 X28.419 Y30.134 F400.0
G1 X28.248 Y30.237 F400.0
G1 X28.074 Y30.336 F400.0
G1 X27.898 Y30.432 F400.0
G1 X27.721 Y30.525 F400.0
G1 X27.542 Y30.613 F400.0
G1 X27.361 Y30.699 F400.0
G1 X27.178 Y30.780 F400.0
G1 X26.994 Y30.858 F400.0
G1 X26.808 Y30.933 F400.0
G1 X26.621 Y31.003 F400.0
G1 X26.432 Y31.070 F400.0
G1 X26.242 Y31.133 F400.0
G1 X26.051 Y31.192 F400.0
G1 X25.859 Y31.247 F400.0
G1 X25.665 Y31.299 F400.0
G1 X25.471 Y31.346 F400.0
G1 X25.276 Y31.390 F400.0
G1 X25.080 Y31.430 F400.0
G1 X24.883 Y31.466 F400.0
G1 X24.685 Y31.498 F400.0
G1 X24.487 Y31.526 F400.0
G1 X24.288 Y31.549 F400.0
G1 X24.089 Y31.569 F400.0
G1 X23.890 Y31.585 F400.0
G1 X23.690 Y31.597 F400.0
G1 X23.490 Y31.605 F400.0
G1 X23.290 Y31.609 F400.0
G1 X23.090 Y31.609 F400.0
G1 X22.890 Y31.605 F400.0
G1 X22.690 Y31.597 F400.0
G1 X22.490 Y31.585 F400.0
G1 X22.291 Y31.569 F400.0
G1 X22.092 Y31.549 F400.0
G1 X21.893 Y31.526 F400.0
G1 X21.695 Y31.498 F400.0
G1 X21.497 Y31.466 F400.0
G1 X21.300 Y31.430 F400.0
G1 X21.104 Y31.390 F400.0
G1 X20.909 Y31.346 F400.0
G1 X20.715 Y31.299 F400.0
G1 X20.521 Y31.247 F400.0
G1 X20.329 Y31.192 F400.0
G1 X20.138 Y31.133 F400.0
G1 X19.948 Y31.070 F400.0
G1 X19.759 Y31.003 F400.0
G1 X19.572 Y30.933 F400.0
G1 X19.386 Y30.858 F400.0
G1 X19.202 Y30.780 F400.0
G1 X19.019 Y30.699 F400.0
G1 X18.838 Y30.613 F400.0
G1 X18.659 Y30.525 F400.0
G1 X18.482 Y30.432 F400.0
G1 X18.306 Y30.336 F400.0
G1 X18.132 Y30.237 F400.0
G1 X17.961 Y30.134 F400.0
G1 X17.791 Y30.027 F400.0
G1 X17.624 Y29.918 F400.0
G1 X17.459 Y29.805 F400.0
G1 X17.296 Y29.688 F400.0
G1 X17.136 Y29.569 F400.0
G1 X16.977 Y29.446 F400.0
G1 X16.822 Y29.320 F400.0
G1 X16.669 Y29.191 F400.0
G1 X16.519 Y29.059 F400.0
G1 X16.371 Y28.924 F400.0
G1 X16.226 Y28.786 F400.0
G1 X16.084 Y28.646 F400.0
G1 X15.944 Y28.502 F400.0
G1 X15.808 Y28.356 F400.0
G1 X15.674 Y28.207 F400.0
G1 X15.544 Y28.055 F400.0
G1 X15.416 Y27.901 F400.0
G1 X15.292 Y27.744 F400.0
G1 X15.171 Y27.585 F400.0
G1 X15.053 Y27.423 F400.0
G1 X14.938 Y27.259 F400.0
G1 X14.827 Y27.093 F400.0
G1 X14.719 Y26.924 F400.0
G1 X14.614 Y26.754 F400.0
G1 X14.513 Y26.581 F400.0
G1 X14.415 Y26.406 F400.0
G1 X14.321 Y26.230 F400.0
G1 X14.231 Y26.052 F400.0
G1 X14.143 Y25.871 F400.0
G1 X14.060 Y25.690 F400.0
G1 X13.980 Y25.506 F400.0
G1 X13.904 Y25.321 F400.0
G1 X13.832 Y25.134 F400.0
G1 X13.763 Y24.946 F400.0
G1 X13.698 Y24.757 F400.0
G1 X13.637 Y24.567 F400.0
G1 X13.580 Y24.375 F400.0
G1 X13.526 Y24.182 F400.0
G1 X13.477 Y23.988 F400.0
G1 X13.431 Y23.793 F400.0
G1 X13.390 Y23.598 F400.0
G1 X13.352 Y23.401 F400.0
G1 X13.318 Y23.204 F400.0
G1 X13.288 Y23.006 F400.0
G1 X13.262 Y22.808 F400.0
G1 X13.240 Y22.609 F400.0
G1 X13.222 Y22.410 F400.0
G1 X13.208 Y22.210 F400.0
G1 X13.198 Y22.010 F400.0
G1 X13.192 Y21.810 F400.0
G1 X13.190 Y21.610 F400.0
G1 X13.192 Y21.410 F400.0
G1 X13.198 Y21.210 F400.0
G1 X13.208 Y21.010 F400.0
G1 X13.222 Y20.810 F400.0
G1 X13.240 Y20.611 F400.0
G1 X13.262 Y20.412 F400.0
G1 X13.288 Y20.214 F400.0
G1 X13.318 Y20.016 F400.0
G1 X13.352 Y19.819 F400.0
G1 X13.390 Y19.622 F400.0
G1 X13.431 Y19.427 F400.0
G1 X13.477 Y19.232 F400.0
G1 X13.526 Y19.038 F400.0
G1 X13.580 Y18.845 F400.0
G1 X13.637 Y18.653 F400.0
G1 X13.698 Y18.463 F400.0
G1 X13.763 Y18.274 F400.0
G1 X13.832 Y18.086 F400.0
G1 X13.904 Y17.899 F400.0
G1 X13.980 Y17.714 F400.0
G1 X14.060 Y17.530 F400.0
G1 X14.143 Y17.349 F400.0
G1 X14.231 Y17.168 F400.0
G1 X14.321 Y16.990 F400.0
G1 X14.415 Y16.814 F400.0
G1 X14.513 Y16.639 F400.0
G1 X14.614 Y16.466 F400.0
G1 X14.719 Y16.296 F400.0
G1 X14.827 Y16.127 F400.0
G1 X14.938 Y15.961 F400.0
G1 X15.053 Y15.797 F400.0
G1 X15.171 Y15.635 F400.0
G1 X15.292 Y15.476 F400.0
G1 X15.416 Y15.319 F400.0
G1 X15.544 Y15.165 F400.0
G1 X15.674 Y15.013 F400.0
G1 X15.808 Y14.864 F400.0
G1 X15.944 Y14.718 F400.0
G1 X16.084 Y14.574 F400.0
G1 X16.226 Y14.434 F400.0
G1 X16.371 Y14.296 F400.0
G1 X16.519 Y14.161 F400.0
G1 X16.669 Y14.029 F400.0
G1 X16.822 Y13.900 F400.0
G1 X16.977 Y13.774 F400.0
G1 X17.136 Y13.651 F400.0
G1 X17.296 Y13.532 F400.0
G1 X17.459 Y13.415 F400.0
G1 X17.624 Y13.302 F400.0
G1 X17.791 Y13.193 F400.0
G1 X17.961 Y13.086 F400.0
G1 X18.132 Y12.983 F400.0
G1 X18.306 Y12.884 F400.0
G1 X18.482 Y12.788 F400.0
G1 X18.659 Y12.695 F400.0
G1 X18.838 Y12.607 F400.0
G1 X19.019 Y12.521 F400.0
G1 X19.202 Y12.440 F400.0
G1 X19.386 Y12.362 F400.0
G1 X19.572 Y12.287 F400.0
G1 X19.759 Y12.217 F400.0
G1 X19.948 Y12.150 F400.0
G1 X20.138 Y12.087 F400.0
G1 X20.329 Y12.028 F400.0
G1 X20.521 Y11.973 F400.0
G1 X20.715 Y11.921 F400.0
G1 X20.909 Y11.874 F400.0
G1 X21.104 Y11.830 F400.0
G1 X21.300 Y11.790 F400.0
G1 X21.497 Y11.754 F400.0
G1 X21.695 Y11.722 F400.0
G1 X21.893 Y11.694 F400.0
G1 X22.092 Y11.671 F400.0
G1 X22.291 Y11.651 F400.0
G1 X22.490 Y11.635 F400.0
G1 X22.690 Y11.623 F400.0
G1 X22.890 Y11.615 F400.0
G1 X23.090 Y11.611 F400.0
G1 X23.290 Y11.611 F400.0
G1 X23.490 Y11.615 F400.0
G1 X23.690 Y11.623 F400.0
G1 X23.890 Y11.635 F400.0
G1 X24.089 Y11.651 F400.0
G1 X24.288 Y11.671 F400.0
G1 X24.487 Y11.694 F400.0
G1 X24.685 Y11.722 F400.0
G1 X24.883 Y11.754 F400.0
G1 X25.080 Y11.790 F400.0
G1 X25.276 Y11.830 F400.0
G1 X25.471 Y11.874 F400.0
G1 X25.665 Y11.921 F400.0
G1 X25.859 Y11.973 F400.0
G1 X26.051 Y12.028 F400.0
G1 X26.242 Y12.087 F400.0
G1 X26.432 Y12.150 F400.0
G1 X26.621 Y12.217 F400.0
G1 X26.808 Y12.287 F400.0
G1 X26.994 Y12.362 F400.0
G1 X27.178 Y12.440 F400.0
G1 X27.361 Y12.521 F400.0
G1 X27.542 Y12.607 F400.0
G1 X27.721 Y12.695 F400.0
G1 X27.898 Y12.788 F400.0
G1 X28.074 Y12.884 F400.0
G1 X28.248 Y12.983 F400.0
G1 X28.419 Y13.086 F400.0
G1 X28.589 Y13.193 F400.0
G1 X28.756 Y13.302 F400.0
G1 X28.921 Y13.415 F400.0
G1 X29.084 Y13.532 F400.0
G1 X29.244 Y13.651 F400.0
G1 X29.403 Y13.774 F400.0
G1 X29.558 Y13.900 F400.0
G1 X29.711 Y14.029 F400.0
G1 X29.861 Y14.161 F400.0
G1 X30.009 Y14.296 F400.0
G1 X30.154 Y14.434 F400.0
G1 X30.296 Y14.574 F400.0
G1 X30.436 Y14.718 F400.0
G1 X30.572 Y14.864 F400.0
G1 X30.706 Y15.013 F400.0
G1 X30.836 Y15.165 F400.0
G1 X30.964 Y15.319 F400.0
G1 X31.088 Y15.476 F400.0
G1 X31.209 Y15.635 F400.0
G1 X31.327 Y15.797 F400.0
G1 X31.442 Y15.961 F400.0
G1 X31.553 Y16.127 F400.0
G1 X31.661 Y16.296 F400.0
G1 X31.766 Y16.466 F400.0
G1 X31.867 Y16.639 F400.0
G1 X31.965 Y16.814 F400.0
G1 X32.059 Y16.990 F400.0
G1 X32.149 Y17.168 F400.0
G1 X32.237 Y17.349 F400.0
G1 X32.320 Y17.530 F400.0
G1 X32.400 Y17.714 F400.0
G1 X32.476 Y17.899 F400.0
G1 X32.548 Y18.086 F400.0
G1 X32.617 Y18.274 F400.0
G1 X32.682 Y18.463 F400.0
G1 X32.743 Y18.653 F400.0
G1 X32.800 Y18.845 F400.0
G1 X32.854 Y19.038 F400.0
G1 X32.903 Y19.232 F400.0
G1 X32.949 Y19.427 F400.0
G1 X32.990 Y19.622 F400.0
G1 X33.028 Y19.819 F400.0
G1 X33.062 Y20.016 F400.0
G1 X33.092 Y20.214 F400.0
G1 X33.118 Y20.412 F400.0
G1 X33.140 Y20.611 F400.0
G1 X33.158 Y20.810 F400.0
G1 X33.172 Y21.010 F400.0
G1 X33.182 Y21.210 F400.0
G1 X33.188 Y21.410 F400.0
G1 X33.190 Y21.610 F400.0
G0 Z1.000
G0 X33.190 Y21.610
G1 Z-1.500 F100.0
G1 X33.188 Y21.810 F400.0
G1 X33.182 Y22.010 F400.0
G1 X33.172 Y22.210 F400.0
G1 X33.158 Y22.410 F400.0
G1 X33.140 Y22.609 F400.0
G1 X33.118 Y22.808 F400.0
G1 X33.092 Y23.006 F400.0
G1 X33.062 Y23.204 F400.0
G1 X33.028 Y23.401 F400.0
G1 X32.990 Y23.598 F400.0
G1 X32.949 Y23.793 F400.0
G1 X32.903 Y23.988 F400.0
G1 X32.854 Y24.182 F400.0
G1 X32.800 Y24.375 F400.0
G1 X32.743 Y24.567 F400.0
G1 X32.682 Y24.757 F400.0
G1 X32.617 Y24.946 F400.0
G1 X32.548 Y25.134 F400.0
G1 X32.476 Y25.321 F400.0
G1 X32.400 Y25.506 F400.0
G1 X32.320 Y25.690 F400.0
G1 X32.237 Y25.871 F400.0
G1 X32.149 Y26.052 F400.0
G1 X32.059 Y26.230 F400.0
G1 X31.965 Y26.406 F400.0
G1 X31.867 Y26.581 F400.0
G1 X31.766 Y26.754 F400.0
G1 X31.661 Y26.924 F400.0
G1 X31.553 Y27.093 F400.0
G1 X31.442 Y27.259 F400.0
G1 X31.327 Y27.423 F400.0
G1 X31.209 Y27.585 F400.0
G1 X31.088 Y27.744 F400.0
G1 X30.964 Y27.901 F400.0
G1 X30.836 Y28.055 F400.0
G1 X30.706 Y28.207 F400.0
G1 X30.572 Y28.356 F400.0
G1 X30.436 Y28.502 F400.0
G1 X30.296 Y28.646 F400.0
G1 X30.154 Y28.786 F400.0
G1 X30.009 Y28.924 F400.0
G1 X29.861 Y29.059 F400.0
G1 X29.711 Y29.191 F400.0
G1 X29.558 Y29.320 F400.0
G1 X29.403 Y29.446 F400.0
G1 X29.244 Y29.569 F400.0
G1 X29.084 Y29.688 F400.0
G1 X28.921 Y29.805 F400.0
G1 X28.756 Y29.918 F400.0
G1 X28.589 Y30.027 F400.0
G1 X28.419 Y30.134 F400.0
G1 X28.248 Y30.237 F400.0
G1 X28.074 Y30.336 F400.0
G1 X27.898 Y30.432 F400.0
G1 X27.721 Y30.525 F400.0
G1 X27.542 Y30.613 F400.0
G1 X27.361 Y30.699 F400.0
G1 X27.178 Y30.780 F400.0
G1 X26.994 Y30.858 F400.0
G1 X26.808 Y30.933 F400.0
G1 X26.621 Y31.003 F400.0
G1 X26.432 Y31.070 F400.0
G1 X26.242 Y31.133 F400.0
G1 X26.051 Y31.192 F400.0
G1 X25.859 Y31.247 F400.0
G1 X25.665 Y31.299 F400.0
G1 X25.471 Y31.346 F400.0
G1 X25.276 Y31.390 F400.0
G1 X25.080 Y31.430 F400.0
G1 X24.883 Y31.466 F400.0
G1 X24.685 Y31.498 F400.0
G1 X24.487 Y31.526 F400.0
G1 X24.288 Y31.549 F400.0
G1 X24.089 Y31.569 F400.0
G1 X23.890 Y31.585 F400.0
G1 X23.690 Y31.597 F400.0
G1 X23.490 Y31.605 F400.0
G1 X23.290 Y31.609 F400.0
G1 X23.090 Y31.609 F400.0
G1 X22.890 Y31.605 F400.0
G1 X22.690 Y31.597 F400.0
G1 X22.490 Y31.585 F400.0
G1 X22.291 Y31.569 F400.0
G1 X22.092 Y31.549 F400.0
G1 X21.893 Y31.526 F400.0
G1 X21.695 Y31.498 F400.0
G1 X21.497 Y31.466 F400.0
G1 X21.300 Y31.430 F400.0
G1 X21.104 Y31.390 F400.0
G1 X20.909 Y31.346 F400.0
G1 X20.715 Y31.299 F400.0
G1 X20.521 Y31.247 F400.0
G1 X20.329 Y31.192 F400.0
G1 X20.138 Y31.133 F400.0
G1 X19.948 Y31.070 F400.0
G1 X19.759 Y31.003 F400.0
G1 X19.572 Y30.933 F400.0
G1 X19.386 Y30.858 F400.0
G1 X19.202 Y30.780 F400.0
G1 X19.019 Y30.699 F400.0
G1 X18.838 Y30.613 F400.0
G1 X18.659 Y30.525 F400.0
G1 X18.482 Y30.432 F400.0
G1 X18.306 Y30.336 F400.0
G1 X18.132 Y30.237 F400.0
G1 X17.961 Y30.134 F400.0
G1 X17.791 Y30.027 F400.0
G1 X17.624 Y29.918 F400.0
G1 X17.459 Y29.805 F400.0
G1 X17.296 Y29.688 F400.0
G1 X17.136 Y29.569 F400.0
G1 X16.977 Y29.446 F400.0
G1 X16.822 Y29.320 F400.0
G1 X16.669 Y29.191 F400.0
G1 X16.519 Y29.059 F400.0
G1 X16.371 Y28.924 F400.0
G1 X16.226 Y28.786 F400.0
G1 X16.084 Y28.646 F400.0
G1 X15.944 Y28.502 F400.0
G1 X15.808 Y28.356 F400.0
G1 X15.674 Y28.207 F400.0
G1 X15.544 Y28.055 F400.0
G1 X15.416 Y27.901 F400.0
G1 X15.292 Y27.744 F400.0
G1 X15.171 Y27.585 F400.0
G1 X15.053 Y27.423 F400.0
G1 X14.938 Y27.259 F400.0
G1 X14.827 Y27.093 F400.0
G1 X14.719 Y26.924 F400.0
G1 X14.614 Y26.754 F400.0
G1 X14.513 Y26.581 F400.0
G1 X14.415 Y26.406 F400.0
G1 X14.321 Y26.230 F400.0
G1 X14.231 Y26.052 F400.0
G1 X14.143 Y25.871 F400.0
G1 X14.060 Y25.690 F400.0
G1 X13.980 Y25.506 F400.0
G1 X13.904 Y25.321 F400.0
G1 X13.832 Y25.134 F400.0
G1 X13.763 Y24.946 F400.0
G1 X13.698 Y24.757 F400.0
G1 X13.637 Y24.567 F400.0
G1 X13.580 Y24.375 F400.0
G1 X13.526 Y24.182 F400.0
G1 X13.477 Y23.988 F400.0
G1 X13.431 Y23.793 F400.0
G1 X13.390 Y23.598 F400.0
G1 X13.352 Y23.401 F400.0
G1 X13.318 Y23.204 F400.0
G1 X13.288 Y23.006 F400.0
G1 X13.262 Y22.808 F400.0
G1 X13.240 Y22.609 F400.0
G1 X13.222 Y22.410 F400.0
G1 X13.208 Y22.210 F400.0
G1 X13.198 Y22.010 F400.0
G1 X13.192 Y21.810 F400.0
G1 X13.190 Y21.610 F400.0
G1 X13.192 Y21.410 F400.0
G1 X13.198 Y21.210 F400.0
G1 X13.208 Y21.010 F400.0
G1 X13.222 Y20.810 F400.0
G1 X13.240 Y20.611 F400.0
G1 X13.262 Y20.412 F400.0
G1 X13.288 Y20.214 F400.0
G1 X13.318 Y20.016 F400.0
G1 X13.352 Y19.819 F400.0
G1 X13.390 Y19.622 F400.0
G1 X13.431 Y19.427 F400.0
G1 X13.477 Y19.232 F400.0
G1 X13.526 Y19.038 F400.0
G1 X13.580 Y18.845 F400.0
G1 X13.637 Y18.653 F400.0
G1 X13.698 Y18.463 F400.0
G1 X13.763 Y18.274 F400.0
G1 X13.832 Y18.086 F400.0
G1 X13.904 Y17.899 F400.0
G1 X13.980 Y17.714 F400.0
G1 X14.060 Y17.530 F400.0
G1 X14.143 Y17.349 F400.0
G1 X14.231 Y17.168 F400.0
G1 X14.321 Y16.990 F400.0
G1 X14.415 Y16.814 F400.0
G1 X14.513 Y16.639 F400.0
G1 X14.614 Y16.466 F400.0
G1 X14.719 Y16.296 F400.0
G1 X14.827 Y16.127 F400.0
G1 X14.938 Y15.961 F400.0
G1 X15.053 Y15.797 F400.0
G1 X15.171 Y15.635 F400.0
G1 X15.292 Y15.476 F400.0
G1 X15.416 Y15.319 F400.0
G1 X15.544 Y15.165 F400.0
G1 X15.674 Y15.013 F400.0
G1 X15.808 Y14.864 F400.0
G1 X15.944 Y14.718 F400.0
G1 X16.084 Y14.574 F400.0
G1 X16.226 Y14.434 F400.0
G1 X16.371 Y14.296 F400.0
G1 X16.519 Y14.161 F400.0
G1 X16.669 Y14.029 F400.0
G1 X16.822 Y13.900 F400.0
G1 X16.977 Y13.774 F400.0
G1 X17.136 Y13.651 F400.0
G1 X17.296 Y13.532 F400.0
G1 X17.459 Y13.415 F400.0
G1 X17.624 Y13.302 F400.0
G1 X17.791 Y13.193 F400.0
G1 X17.961 Y13.086 F400.0
G1 X18.132 Y12.983 F400.0
G1 X18.306 Y12.884 F400.0
G1 X18.482 Y12.788 F400.0
G1 X18.659 Y12.695 F400.0
G1 X18.838 Y12.607 F400.0
G1 X19.019 Y12.521 F400.0
G1 X19.202 Y12.440 F400.0
G1 X19.386 Y12.362 F400.0
G1 X19.572 Y12.287 F400.0
G1 X19.759 Y12.217 F400.0
G1 X19.948 Y12.150 F400.0
G1 X20.138 Y12.087 F400.0
G1 X20.329 Y12.028 F400.0
G1 X20.521 Y11.973 F400.0
G1 X20.715 Y11.921 F400.0
G1 X20.909 Y11.874 F400.0
G1 X21.104 Y11.830 F400.0
G1 X21.300 Y11.790 F400.0
G1 X21.497 Y11.754 F400.0
G1 X21.695 Y11.722 F400.0
G1 X21.893 Y11.694 F400.0
G1 X22.092 Y11.671 F400.0
G1 X22.291 Y11.651 F400.0
G1 X22.490 Y11.635 F400.0
G1 X22.690 Y11.623 F400.0
G1 X22.890 Y11.615 F400.0
G1 X23.090 Y11.611 F400.0
G1 X23.290 Y11.611 F400.0
G1 X23.490 Y11.615 F400.0
G1 X23.690 Y11.623 F400.0
G1 X23.890 Y11.635 F400.0
G1 X24.089 Y11.651 F400.0
G1 X24.288 Y11.671 F400.0
G1 X24.487 Y11.694 F400.0
G1 X24.685 Y11.722 F400.0
G1 X24.883 Y11.754 F400.0
G1 X25.080 Y11.790 F400.0
G1 X25.276 Y11.830 F400.0
G1 X25.471 Y11.874 F400.0
G1 X25.665 Y11.921 F400.0
G1 X25.859 Y11.973 F400.0
G1 X26.051 Y12.028 F400.0
G1 X26.242 Y12.087 F400.0
G1 X26.432 Y12.150 F400.0
G1 X26.621 Y12.217 F400.0
G1 X26.808 Y12.287 F400.0
G1 X26.994 Y12.362 F400.0
G1 X27.178 Y12.440 F400.0
G1 X27.361 Y12.521 F400.0
G1 X27.542 Y12.607 F400.0
G1 X27.721 Y12.695 F400.0
G1 X27.898 Y12.788 F400.0
G1 X28.074 Y12.884 F400.0
G1 X28.248 Y12.983 F400.0
G1 X28.419 Y13.086 F400.0
G1 X28.589 Y13.193 F400.0
G1 X28.756 Y13.302 F400.0
G1 X28.921 Y13.415 F400.0
G1 X29.084 Y13.532 F400.0
G1 X29.244 Y13.651 F400.0
G1 X29.403 Y13.774 F400.0
G1 X29.558 Y13.900 F400.0
G1 X29.711 Y14.029 F400.0
G1 X29.861 Y14.161 F400.0
G1 X30.009 Y14.296 F400.0
G1 X30.154 Y14.434 F400.0
G1 X30.296 Y14.574 F400.0
G1 X30.436 Y14.718 F400.0
G1 X30.572 Y14.864 F400.0
G1 X30.706 Y15.013 F400.0
G1 X30.836 Y15.165 F400.0
G1 X30.964 Y15.319 F400.0
G1 X31.088 Y15.476 F400.0
G1 X31.209 Y15.635 F400.0
G1 X31.327 Y15.797 F400.0
G1 X31.442 Y15.961 F400.0
G1 X31.553 Y16.127 F400.0
G1 X31.661 Y16.296 F400.0
G1 X31.766 Y16.466 F400.0
G1 X31.867 Y16.639 F400.0
G1 X31.965 Y16.814 F400.0
G1 X32.059 Y16.990 F400.0
G1 X32.149 Y17.168 F400.0
G1 X32.237 Y17.349 F400.0
G1 X32.320 Y17.530 F400.0
G1 X32.400 Y17.714 F400.0
G1 X32.476 Y17.899 F400.0
G1 X32.548 Y18.086 F400.0
G1 X32.617 Y18.274 F400.0
G1 X32.682 Y18.463 F400.0
G1 X32.743 Y18.653 F400.0
G1 X32.800 Y18.845 F400.0
G1 X32.854 Y19.038 F400.0
G1 X32.903 Y19.232 F400.0
G1 X32.949 Y19.427 F400.0
G1 X32.990 Y19.622 F400.0
G1 X33.028 Y19.819 F400.0
G1 X33.062 Y20.016 F400.0
G1 X33.092 Y20.214 F400.0
G1 X33.118 Y20.412 F400.0
G1 X33.140 Y20.611 F400.0
G1 X33.158 Y20.810 F400.0
G1 X33.172 Y21.010 F400.0
G1 X33.182 Y21.210 F400.0
G1 X33.188 Y21.410 F400.0
G1 X33.190 Y21.610 F400.0
G0 Z1.000
G0 X33.190 Y21.610
G1 Z-2.000 F100.0
G1 X33.188 Y21.810 F400.0
G1 X33.182 Y22.010 F400.0
G1 X33.172 Y22.210 F400.0
G1 X33.158 Y22.410 F400.0
G1 X33.140 Y22.609 F400.0
G1 X33.118 Y22.808 F400.0
G1 X33.092 Y23.006 F400.0
G1 X33.062 Y23.204 F400.0
G1 X33.028 Y23.401 F400.0
G1 X32.990 Y23.598 F400.0
G1 X32.949 Y23.793 F400.0
G1 X32.903 Y23.988 F400.0
G1 X32.854 Y24.182 F400.0
G1 X32.800 Y24.375 F400.0
G1 X32.743 Y24.567 F400.0
G1 X32.682 Y24.757 F400.0
G1 X32.617 Y24.946 F400.0
G1 X32.548 Y25.134 F400.0
G1 X32.476 Y25.321 F400.0
G1 X32.400 Y25.506 F400.0
G1 X32.320 Y25.690 F400.0
G1 X32.237 Y25.871 F400.0
G1 X32.149 Y26.052 F400.0
G1 X32.059 Y26.230 F400.0
G1 X31.965 Y26.406 F400.0
G1 X31.867 Y26.581 F400.0
G1 X31.766 Y26.754 F400.0
G1 X31.661 Y26.924 F400.0
G1 X31.553 Y27.093 F400.0
G1 X31.442 Y27.259 F400.0
G1 X31.327 Y27.423 F400.0
G1 X31.209 Y27.585 F400.0
G1 X31.088 Y27.744 F400.0
G1 X30.964 Y27.901 F400.0
G1 X30.836 Y28.055 F400.0
G1 X30.706 Y28.207 F400.0
G1 X30.572 Y28.356 F400.0
G1 X30.436 Y28.502 F400.0
G1 X30.296 Y28.646 F400.0
G1 X30.154 Y28.786 F400.0
G1 X30.009 Y28.924 F400.0
G1 X29.861 Y29.059 F400.0
G1 X29.711 Y29.191 F400.0
G1 X29.558 Y29.320 F400.0
G1 X29.403 Y29.446 F400.0
G1 X29.244 Y29.569 F400.0
G1 X29.084 Y29.688 F400.0
G1 X28.921 Y29.805 F400.0
G1 X28.756 Y29.918 F400.0
G1 X28.589 Y30.027 F400.0
G1 X28.419 Y30.134 F400.0
G1 X28.248 Y30.237 F400.0
G1 X28.074 Y30.336 F400.0
G1 X27.898 Y30.432 F400.0
G1 X27.721 Y30.525 F400.0
G1 X27.542 Y30.613 F400.0
G1 X27.361 Y30.699 F400.0
G1 X27.178 Y30.780 F400.0
G1 X26.994 Y30.858 F400.0
G1 X26.808 Y30.933 F400.0
G1 X26.621 Y31.003 F400.0
G1 X26.432 Y31.070 F400.0
G1 X26.242 Y31.133 F400.0
G1 X26.051 Y31.192 F400.0
G1 X25.859 Y31.247 F400.0
G1 X25.665 Y31.299 F400.0
G1 X25.471 Y31.346 F400.0
G1 X25.276 Y31.390 F400.0
G1 X25.080 Y31.430 F400.0
G1 X24.883 Y31.466 F400.0
G1 X24.685 Y31.498 F400.0
G1 X24.487 Y31.526 F400.0
G1 X24.288 Y31.549 F400.0
G1 X24.089 Y31.569 F400.0
G1 X23.890 Y31.585 F400.0
G1 X23.690 Y31.597 F400.0
G1 X23.490 Y31.605 F400.0
G1 X23.290 Y31.609 F400.0
G1 X23.090 Y31.609 F400.0
G1 X22.890 Y31.605 F400.0
G1 X22.690 Y31.597 F400.0
G1 X22.490 Y31.585 F400.0
G1 X22.291 Y31.569 F400.0
G1 X22.092 Y31.549 F400.0
G1 X21.893 Y31.526 F400.0
G1 X21.695 Y31.498 F400.0
G1 X21.497 Y31.466 F400.0
G1 X21.300 Y31.430 F400.0
G1 X21.104 Y31.390 F400.0
G1 X20.909 Y31.346 F400.0
G1 X20.715 Y31.299 F400.0
G1 X20.521 Y31.247 F400.0
G1 X20.329 Y31.192 F400.0
G1 X20.138 Y31.133 F400.0
G1 X19.948 Y31.070 F400.0
G1 X19.759 Y31.003 F400.0
G1 X19.572 Y30.933 F400.0
G1 X19.386 Y30.858 F400.0
G1 X19.202 Y30.780 F400.0
G1 X19.019 Y30.699 F400.0
G1 X18.838 Y30.613 F400.0
G1 X18.659 Y30.525 F400.0
G1 X18.482 Y30.432 F400.0
G1 X18.306 Y30.336 F400.0
G1 X18.132 Y30.237 F400.0
G1 X17.961 Y30.134 F400.0
G1 X17.791 Y30.027 F400.0
G1 X17.624 Y29.918 F400.0
G1 X17.459 Y29.805 F400.0
G1 X17.296 Y29.688 F400.0
G1 X17.136 Y29.569 F400.0
G1 X16.977 Y29.446 F400.0
G1 X16.822 Y29.320 F400.0
G1 X16.669 Y29.191 F400.0
G1 X16.519 Y29.059 F400.0
G1 X16.371 Y28.924 F400.0
G1 X16.226 Y28.786 F400.0
G1 X16.084 Y28.646 F400.0
G1 X15.944 Y28.502 F400.0
G1 X15.808 Y28.356 F400.0
G1 X15.674 Y28.207 F400.0
G1 X15.544 Y28.055 F400.0
G1 X15.416 Y27.901 F400.0
G1 X15.292 Y27.744 F400.0
G1 X15.171 Y27.585 F400.0
G1 X15.053 Y27.423 F400.0
G1 X14.938 Y27.259 F400.0
G1 X14.827 Y27.093 F400.0
G1 X14.719 Y26.924 F400.0
G1 X14.614 Y26.754 F400.0
G1 X14.513 Y26.581 F400.0
G1 X14.415 Y26.406 F400.0
G1 X14.321 Y26.230 F400.0
G1 X14.231 Y26.052 F400.0
G1 X14.143 Y25.871 F400.0
G1 X14.060 Y25.690 F400.0
G1 X13.980 Y25.506 F400.0
G1 X13.904 Y25.321 F400.0
G1 X13.832 Y25.134 F400.0
G1 X13.763 Y24.946 F400.0
G1 X13.698 Y24.757 F400.0
G1 X13.637 Y24.567 F400.0
G1 X13.580 Y24.375 F400.0
G1 X13.526 Y24.182 F400.0
G1 X13.477 Y23.988 F400.0
G1 X13.431 Y23.793 F400.0
G1 X13.390 Y23.598 F400.0
G1 X13.352 Y23.401 F400.0
G1 X13.318 Y23.204 F400.0
G1 X13.288 Y23.006 F400.0
G1 X13.262 Y22.808 F400.0
G1 X13.240 Y22.609 F400.0
G1 X13.222 Y22.410 F400.0
G1 X13.208 Y22.210 F400.0
G1 X13.198 Y22.010 F400.0
G1 X13.192 Y21.810 F400.0
G1 X13.190 Y21.610 F400.0
G1 X13.192 Y21.410 F400.0
G1 X13.198 Y21.210 F400.0
G1 X13.208 Y21.010 F400.0
G1 X13.222 Y20.810 F400.0
G1 X13.240 Y20.611 F400.0
G1 X13.262 Y20.412 F400.0
G1 X13.288 Y20.214 F400.0
G1 X13.318 Y20.016 F400.0
G1 X13.352 Y19.819 F400.0
G1 X13.390 Y19.622 F400.0
G1 X13.431 Y19.427 F400.0
G1 X13.477 Y19.232 F400.0
G1 X13.526 Y19.038 F400.0
G1 X13.580 Y18.845 F400.0
G1 X13.637 Y18.653 F400.0
G1 X13.698 Y18.463 F400.0
G1 X13.763 Y18.274 F400.0
G1 X13.832 Y18.086 F400.0
G1 X13.904 Y17.899 F400.0
G1 X13.980 Y17.714 F400.0
G1 X14.060 Y17.530 F400.0
G1 X14.143 Y17.349 F400.0
G1 X14.231 Y17.168 F400.0
G1 X14.321 Y16.990 F400.0
G1 X14.415 Y16.814 F400.0
G1 X14.513 Y16.639 F400.0
G1 X14.614 Y16.466 F400.0
G1 X14.719 Y16.296 F400.0
G1 X14.827 Y16.127 F400.0
G1 X14.938 Y15.961 F400.0
G1 X15.053 Y15.797 F400.0
G1 X15.171 Y15.635 F400.0
G1 X15.292 Y15.476 F400.0
G1 X15.416 Y15.319 F400.0
G1 X15.544 Y15.165 F400.0
G1 X15.674 Y15.013 F400.0
G1 X15.808 Y14.864 F400.0
G1 X15.944 Y14.718 F400.0
G1 X16.084 Y14.574 F400.0
G1 X16.226 Y14.434 F400.0
G1 X16.371 Y14.296 F400.0
G1 X16.519 Y14.161 F400.0
G1 X16.669 Y14.029 F400.0
G1 X16.822 Y13.900 F400.0
G1 X16.977 Y13.774 F400.0
G1 X17.136 Y13.651 F400.0
G1 X17.296 Y13.532 F400.0
G1 X17.459 Y13.415 F400.0
G1 X17.624 Y13.302 F400.0
G1 X17.791 Y13.193 F400.0
G1 X17.961 Y13.086 F400.0
G1 X18.132 Y12.983 F400.0
G1 X18.306 Y12.884 F400.0
G1 X18.482 Y12.788 F400.0
G1 X18.659 Y12.695 F400.0
G1 X18.838 Y12.607 F400.0
G1 X19.019 Y12.521 F400.0
G1 X19.202 Y12.440 F400.0
G1 X19.386 Y12.362 F400.0
G1 X19.572 Y12.287 F400.0
G1 X19.759 Y12.217 F400.0
G1 X19.948 Y12.150 F400.0
G1 X20.138 Y12.087 F400.0
G1 X20.329 Y12.028 F400.0
G1 X20.521 Y11.973 F400.0
G1 X20.715 Y11.921 F400.0
G1 X20.909 Y11.874 F400.0
G1 X21.104 Y11.830 F400.0
G1 X21.300 Y11.790 F400.0
G1 X21.497 Y11.754 F400.0
G1 X21.695 Y11.722 F400.0
G1 X21.893 Y11.694 F400.0
G1 X22.092 Y11.671 F400.0
G1 X22.291 Y11.651 F400.0
G1 X22.490 Y11.635 F400.0
G1 X22.690 Y11.623 F400.0
G1 X22.890 Y11.615 F400.0
G1 X23.090 Y11.611 F400.0
G1 X23.290 Y11.611 F400.0
G1 X23.490 Y11.615 F400.0
G1 X23.690 Y11.623 F400.0
G1 X23.890 Y11.635 F400.0
G1 X24.089 Y11.651 F400.0
G1 X24.288 Y11.671 F400.0
G1 X24.487 Y11.694 F400.0
G1 X24.685 Y11.722 F400.0
G1 X24.883 Y11.754 F400.0
G1 X25.080 Y11.790 F400.0
G1 X25.276 Y11.830 F400.0
G1 X25.471 Y11.874 F400.0
G1 X25.665 Y11.921 F400.0
G1 X25.859 Y11.973 F400.0
G1 X26.051 Y12.028 F400.0
G1 X26.242 Y12.087 F400.0
G1 X26.432 Y12.150 F400.0
G1 X26.621 Y12.217 F400.0
G1 X26.808 Y12.287 F400.0
G1 X26.994 Y12.362 F400.0
G1 X27.178 Y12.440 F400.0
G1 X27.361 Y12.521 F400.0
G1 X27.542 Y12.607 F400.0
G1 X27.721 Y12.695 F400.0
G1 X27.898 Y12.788 F400.0
G1 X28.074 Y12.884 F400.0
G1 X28.248 Y12.983 F400.0
G1 X28.419 Y13.086 F400.0
G1 X28.589 Y13.193 F400.0
G1 X28.756 Y13.302 F400.0
G1 X28.921 Y13.415 F400.0
G1 X29.084 Y13.532 F400.0
G1 X29.244 Y13.651 F400.0
G1 X29.403 Y13.774 F400.0
G1 X29.558 Y13.900 F400.0
G1 X29.711 Y14.029 F400.0
G1 X29.861 Y14.161 F400.0
G1 X30.009 Y14.296 F400.0
G1 X30.154 Y14.434 F400.0
G1 X30.296 Y14.574 F400.0
G1 X30.436 Y14.718 F400.0
G1 X30.572 Y14.864 F400.0
G1 X30.706 Y15.013 F400.0
G1 X30.836 Y15.165 F400.0
G1 X30.964 Y15.319 F400.0
G1 X31.088 Y15.476 F400.0
G1 X31.209 Y15.635 F400.0
G1 X31.327 Y15.797 F400.0
G1 X31.442 Y15.961 F400.0
G1 X31.553 Y16.127 F400.0
G1 X31.661 Y16.296 F400.0
G1 X31.766 Y16.466 F400.0
G1 X31.867 Y16.639 F400.0
G1 X31.965 Y16.814 F400.0
G1 X32.059 Y16.990 F400.0
G1 X32.149 Y17.168 F400.0
G1 X32.237 Y17.349 F400.0
G1 X32.320 Y17.530 F400.0
G1 X32.400 Y17.714 F400.0
G1 X32.476 Y17.899 F400.0
G1 X32.548 Y18.086 F400.0
G1 X32.617 Y18.274 F400.0
G1 X32.682 Y18.463 F400.0
G1 X32.743 Y18.653 F400.0
G1 X32.800 Y18.845 F400.0
G1 X32.854 Y19.038 F400.0
G1 X32.903 Y19.232 F400.0
G1 X32.949 Y19.427 F400.0
G1 X32.990 Y19.622 F400.0
G1 X33.028 Y19.819 F400.0
G1 X33.062 Y20.016 F400.0
G1 X33.092 Y20.214 F400.0
G1 X33.118 Y20.412 F400.0
G1 X33.140 Y20.611 F400.0
G1 X33.158 Y20.810 F400.0
G1 X33.172 Y21.010 F400.0
G1 X33.182 Y21.210 F400.0
G1 X33.188 Y21.410 F400.0
G1 X33.190 Y21.610 F400.0
G0 Z1.000
G0 X33.190 Y21.610
G1 Z-2.500 F100.0
G1 X33.188 Y21.810 F400.0
G1 X33.182 Y22.010 F400.0
G1 X33.172 Y22.210 F400.0
G1 X33.158 Y22.410 F400.0
G1 X33.140 Y22.609 F400.0
G1 X33.118 Y22.808 F400.0
G1 X33.092 Y23.006 F400.0
G1 X33.062 Y23.204 F400.0
G1 X33.028 Y23.401 F400.0
G1 X32.990 Y23.598 F400.0
G1 X32.949 Y23.793 F400.0
G1 X32.903 Y23.988 F400.0
G1 X32.854 Y24.182 F400.0
G1 X32.800 Y24.375 F400.0
G1 X32.743 Y24.567 F400.0
G1 X32.682 Y24.757 F400.0
G1 X32.617 Y24.946 F400.0
G1 X32.548 Y25.134 F400.0
G1 X32.476 Y25.321 F400.0
G1 X32.400 Y25.506 F400.0
G1 X32.320 Y25.690 F400.0
G1 X32.237 Y25.871 F400.0
G1 X32.149 Y26.052 F400.0
G1 X32.059 Y26.230 F400.0
G1 X31.965 Y26.406 F400.0
G1 X31.867 Y26.581 F400.0
G1 X31.766 Y26.754 F400.0
G1 X31.661 Y26.924 F400.0
G1 X31.553 Y27.093 F400.0
G1 X31.442 Y27.259 F400.0
G1 X31.327 Y27.423 F400.0
G1 X31.209 Y27.585 F400.0
G1 X31.088 Y27.744 F400.0
G1 X30.964 Y27.901 F400.0
G1 X30.836 Y28.055 F400.0
G1 X30.706 Y28.207 F400.0
G1 X30.572 Y28.356 F400.0
G1 X30.436 Y28.502 F400.0
G1 X30.296 Y28.646 F400.0
G1 X30.154 Y28.786 F400.0
G1 X30.009 Y28.924 F400.0
G1 X29.861 Y29.059 F400.0
G1 X29.711 Y29.191 F400.0
G1 X29.558 Y29.320 F400.0
G1 X29.403 Y29.446 F400.0
G1 X29.244 Y29.569 F400.0
G1 X29.084 Y29.688 F400.0
G1 X28.921 Y29.805 F400.0
G1 X28.756 Y29.918 F400.0
G1 X28.589 Y30.027 F400.0
G1 X28.419 Y30.134 F400.0
G1 X28.248 Y30.237 F400.0
G1 X28.074 Y30.336 F400.0
G1 X27.898 Y30.432 F400.0
G1 X27.721 Y30.525 F400.0
G1 X27.542 Y30.613 F400.0
G1 X27.361 Y30.699 F400.0
G1 X27.178 Y30.780 F400.0
G1 X26.994 Y30.858 F400.0
G1 X26.808 Y30.933 F400.0
G1 X26.621 Y31.003 F400.0
G1 X26.432 Y31.070 F400.0
G1 X26.242 Y31.133 F400.0
G1 X26.051 Y31.192 F400.0
G1 X25.859 Y31.247 F400.0
G1 X25.665 Y31.299 F400.0
G1 X25.471 Y31.346 F400.0
G1 X25.276 Y31.390 F400.0
G1 X25.080 Y31.430 F400.0
G1 X24.883 Y31.466 F400.0
G1 X24.685 Y31.498 F400.0
G1 X24.487 Y31.526 F400.0
G1 X24.288 Y31.549 F400.0
G1 X24.089 Y31.569 F400.0
G1 X23.890 Y31.585 F400.0
G1 X23.690 Y31.597 F400.0
G1 X23.490 Y31.605 F400.0
G1 X23.290 Y31.609 F400.0
G1 X23.090 Y31.609 F400.0
G1 X22.890 Y31.605 F400.0
G1 X22.690 Y31.597 F400.0
G1 X22.490 Y31.585 F400.0
G1 X22.291 Y31.569 F400.0
G1 X22.092 Y31.549 F400.0
G1 X21.893 Y31.526 F400.0
G1 X21.695 Y31.498 F400.0
G1 X21.497 Y31.466 F400.0
G1 X21.300 Y31.430 F400.0
G1 X21.104 Y31.390 F400.0
G1 X20.909 Y31.346 F400.0
G1 X20.715 Y31.299 F400.0
G1 X20.521 Y31.247 F400.0
G1 X20.329 Y31.192 F400.0
G1 X20.138 Y31.133 F400.0
G1 X19.948 Y31.070 F400.0
G1 X19.759 Y31.003 F400.0
G1 X19.572 Y30.933 F400.0
G1 X19.386 Y30.858 F400.0
G1 X19.202 Y30.780 F400.0
G1 X19.019 Y30.699 F400.0
G1 X18.838 Y30.613 F400.0
G1 X18.659 Y30.525 F400.0
G1 X18.482 Y30.432 F400.0
G1 X18.306 Y30.336 F400.0
G1 X18.132 Y30.237 F400.0
G1 X17.961 Y30.134 F400.0
G1 X17.791 Y30.027 F400.0
G1 X17.624 Y29.918 F400.0
G1 X17.459 Y29.805 F400.0
G1 X17.296 Y29.688 F400.0
G1 X17.136 Y29.569 F400.0
G1 X16.977 Y29.446 F400.0
G1 X16.822 Y29.320 F400.0
G1 X16.669 Y29.191 F400.0
G1 X16.519 Y29.059 F400.0
G1 X16.371 Y28.924 F400.0
G1 X16.226 Y28.786 F400.0
G1 X16.084 Y28.646 F400.0
G1 X15.944 Y28.502 F400.0
G1 X15.808 Y28.356 F400.0
G1 X15.674 Y28.207 F400.0
G1 X15.544 Y28.055 F400.0
G1 X15.416 Y27.901 F400.0
G1 X15.292 Y27.744 F400.0
G1 X15.171 Y27.585 F400.0
G1 X15.053 Y27.423 F400.0
G1 X14.938 Y27.259 F400.0
G1 X14.827 Y27.093 F400.0
G1 X14.719 Y26.924 F400.0
G1 X14.614 Y26.754 F400.0
G1 X14.513 Y26.581 F400.0
G1 X14.415 Y26.406 F400.0
G1 X14.321 Y26.230 F400.0
G1 X14.231 Y26.052 F400.0
G1 X14.143 Y25.871 F400.0
G1 X14.060 Y25.690 F400.0
G1 X13.980 Y25.506 F400.0
G1 X13.904 Y25.321 F400.0
G1 X13.832 Y25.134 F400.0
G1 X13.763 Y24.946 F400.0
G1 X13.698 Y24.757 F400.0
G1 X13.637 Y24.567 F400.0
G1 X13.580 Y24.375 F400.0
G1 X13.526 Y24.182 F400.0
G1 X13.477 Y23.988 F400.0
G1 X13.431 Y23.793 F400.0
G1 X13.390 Y23.598 F400.0
G1 X13.352 Y23.401 F400.0
G1 X13.318 Y23.204 F400.0
G1 X13.288 Y23.006 F400.0
G1 X13.262 Y22.808 F400.0
G1 X13.240 Y22.609 F400.0
G1 X13.222 Y22.410 F400.0
G1 X13.208 Y22.210 F400.0
G1 X13.198 Y22.010 F400.0
G1 X13.192 Y21.810 F400.0
G1 X13.190 Y21.610 F400.0
G1 X13.192 Y21.410 F400.0
G1 X13.198 Y21.210 F400.0
G1 X13.208 Y21.010 F400.0
G1 X13.222 Y20.810 F400.0
G1 X13.240 Y20.611 F400.0
G1 X13.262 Y20.412 F400.0
G1 X13.288 Y20.214 F400.0
G1 X13.318 Y20.016 F400.0
G1 X13.352 Y19.819 F400.0
G1 X13.390 Y19.622 F400.0
G1 X13.431 Y19.427 F400.0
G1 X13.477 Y19.232 F400.0
G1 X13.526 Y19.038 F400.0
G1 X13.580 Y18.845 F400.0
G1 X13.637 Y18.653 F400.0
G1 X13.698 Y18.463 F400.0
G1 X13.763 Y18.274 F400.0
G1 X13.832 Y18.086 F400.0
G1 X13.904 Y17.899 F400.0
G1 X13.980 Y17.714 F400.0
G1 X14.060 Y17.530 F400.0
G1 X14.143 Y17.349 F400.0
G1 X14.231 Y17.168 F400.0
G1 X14.321 Y16.990 F400.0
G1 X14.415 Y16.814 F400.0
G1 X14.513 Y16.639 F400.0
G1 X14.614 Y16.466 F400.0
G1 X14.719 Y16.296 F400.0
G1 X14.827 Y16.127 F400.0
G1 X14.938 Y15.961 F400.0
G1 X15.053 Y15.797 F400.0
G1 X15.171 Y15.635 F400.0
G1 X15.292 Y15.476 F400.0
G1 X15.416 Y15.319 F400.0
G1 X15.544 Y15.165 F400.0
G1 X15.674 Y15.013 F400.0
G1 X15.808 Y14.864 F400.0
G1 X15.944 Y14.718 F400.0
G1 X16.084 Y14.574 F400.0
G1 X16.226 Y14.434 F400.0
G1 X16.371 Y14.296 F400.0
G1 X16.519 Y14.161 F400.0
G1 X16.669 Y14.029 F400.0
G1 X16.822 Y13.900 F400.0
G1 X16.977 Y13.774 F400.0
G1 X17.136 Y13.651 F400.0
G1 X17.296 Y13.532 F400.0
G1 X17.459 Y13.415 F400.0
G1 X17.624 Y13.302 F400.0
G1 X17.791 Y13.193 F400.0
G1 X17.961 Y13.086 F400.0
G1 X18.132 Y12.983 F400.0
G1 X18.306 Y12.884 F400.0
G1 X18.482 Y12.788 F400.0
G1 X18.659 Y12.695 F400.0
G1 X18.838 Y12.607 F400.0
G1 X19.019 Y12.521 F400.0
G1 X19.202 Y12.440 F400.0
G1 X19.386 Y12.362 F400.0
G1 X19.572 Y12.287 F400.0
G1 X19.759 Y12.217 F400.0
G1 X19.948 Y12.150 F400.0
G1 X20.138 Y12.087 F400.0
G1 X20.329 Y12.028 F400.0
G1 X20.521 Y11.973 F400.0
G1 X20.715 Y11.921 F400.0
G1 X20.909 Y11.874 F400.0
G1 X21.104 Y11.830 F400.0
G1 X21.300 Y11.790 F400.0
G1 X21.497 Y11.754 F400.0
G1 X21.695 Y11.722 F400.0
G1 X21.893 Y11.694 F400.0
G1 X22.092 Y11.671 F400.0
G1 X22.291 Y11.651 F400.0
G1 X22.490 Y11.635 F400.0
G1 X22.690 Y11.623 F400.0
G1 X22.890 Y11.615 F400.0
G1 X23.090 Y11.611 F400.0
G1 X23.290 Y11.611 F400.0
G1 X23.490 Y11.615 F400.0
G1 X23.690 Y11.623 F400.0
G1 X23.890 Y11.635 F400.0
G1 X24.089 Y11.651 F400.0
G1 X24.288 Y11.671 F400.0
G1 X24.487 Y11.694 F400.0
G1 X24.685 Y11.722 F400.0
G1 X24.883 Y11.754 F400.0
G1 X25.080 Y11.790 F400.0
G1 X25.276 Y11.830 F400.0
G1 X25.471 Y11.874 F400.0
G1 X25.665 Y11.921 F400.0
G1 X25.859 Y11.973 F400.0
G1 X26.051 Y12.028 F400.0
G1 X26.242 Y12.087 F400.0
G1 X26.432 Y12.150 F400.0
G1 X26.621 Y12.217 F400.0
G1 X26.808 Y12.287 F400.0
G1 X26.994 Y12.362 F400.0
G1 X27.178 Y12.440 F400.0
G1 X27.361 Y12.521 F400.0
G1 X27.542 Y12.607 F400.0
G1 X27.721 Y12.695 F400.0
G1 X27.898 Y12.788 F400.0
G1 X28.074 Y12.884 F400.0
G1 X28.248 Y12.983 F400.0
G1 X28.419 Y13.086 F400.0
G1 X28.589 Y13.193 F400.0
G1 X28.756 Y13.302 F400.0
G1 X28.921 Y13.415 F400.0
G1 X29.084 Y13.532 F400.0
G1 X29.244 Y13.651 F400.0
G1 X29.403 Y13.774 F400.0
G1 X29.558 Y13.900 F400.0
G1 X29.711 Y14.029 F400.0
G1 X29.861 Y14.161 F400.0
G1 X30.009 Y14.296 F400.0
G1 X30.154 Y14.434 F400.0
G1 X30.296 Y14.574 F400.0
G1 X30.436 Y14.718 F400.0
G1 X30.572 Y14.864 F400.0
G1 X30.706 Y15.013 F400.0
G1 X30.836 Y15.165 F400.0
G1 X30.964 Y15.319 F400.0
G1 X31.088 Y15.476 F400.0
G1 X31.209 Y15.635 F400.0
G1 X31.327 Y15.797 F400.0
G1 X31.442 Y15.961 F400.0
G1 X31.553 Y16.127 F400.0
G1 X31.661 Y16.296 F400.0
G1 X31.766 Y16.466 F400.0
G1 X31.867 Y16.639 F400.0
G1 X31.965 Y16.814 F400.0
G1 X32.059 Y16.990 F400.0
G1 X32.149 Y17.168 F400.0
G1 X32.237 Y17.349 F400.0
G1 X32.320 Y17.530 F400.0
G1 X32.400 Y17.714 F400.0
G1 X32.476 Y17.899 F400.0
G1 X32.548 Y18.086 F400.0
G1 X32.617 Y18.274 F400.0
G1 X32.682 Y18.463 F400.0
G1 X32.743 Y18.653 F400.0
G1 X32.800 Y18.845 F400.0
G1 X32.854 Y19.038 F400.0
G1 X32.903 Y19.232 F400.0
G1 X32.949 Y19.427 F400.0
G1 X32.990 Y19.622 F400.0
G1 X33.028 Y19.819 F400.0
G1 X33.062 Y20.016 F400.0
G1 X33.092 Y20.214 F400.0
G1 X33.118 Y20.412 F400.0
G1 X33.140 Y20.611 F400.0
G1 X33.158 Y20.810 F400.0
G1 X33.172 Y21.010 F400.0
G1 X33.182 Y21.210 F400.0
G1 X33.188 Y21.410 F400.0
G1 X33.190 Y21.610 F400.0
G0 Z1.000
G0 X33.190 Y21.610
G1 Z-3.000 F100.0
G1 X33.188 Y21.810 F400.0
G1 X33.182 Y22.010 F400.0
G1 X33.172 Y22.210 F400.0
G1 X33.158 Y22.410 F400.0
G1 X33.140 Y22.609 F400.0
G1 X33.118 Y22.808 F400.0
G1 X33.092 Y23.006 F400.0
G1 X33.062 Y23.204 F400.0
G1 X33.028 Y23.401 F400.0
G1 X32.990 Y23.598 F400.0
G1 X32.949 Y23.793 F400.0
G1 X32.903 Y23.988 F400.0
G1 X32.854 Y24.182 F400.0
G1 X32.800 Y24.375 F400.0
G1 X32.743 Y24.567 F400.0
G1 X32.682 Y24.757 F400.0
G1 X32.617 Y24.946 F400.0
G1 X32.548 Y25.134 F400.0
G1 X32.476 Y25.321 F400.0
G1 X32.400 Y25.506 F400.0
G1 X32.320 Y25.690 F400.0
G1 X32.237 Y25.871 F400.0
G1 X32.149 Y26.052 F400.0
G1 X32.059 Y26.230 F400.0
G1 X31.965 Y26.406 F400.0
G1 X31.867 Y26.581 F400.0
G1 X31.766 Y26.754 F400.0
G1 X31.661 Y26.924 F400.0
G1 X31.553 Y27.093 F400.0
G1 X31.442 Y27.259 F400.0
G1 X31.327 Y27.423 F400.0
G1 X31.209 Y27.585 F400.0
G1 X31.088 Y27.744 F400.0
G1 X30.964 Y27.901 F400.0
G1 X30.836 Y28.055 F400.0
G1 X30.706 Y28.207 F400.0
G1 X30.572 Y28.356 F400.0
G1 X30.436 Y28.502 F400.0
G1 X30.296 Y28.646 F400.0
G1 X30.154 Y28.786 F400.0
G1 X30.009 Y28.924 F400.0
G1 X29.861 Y29.059 F400.0
G1 X29.711 Y29.191 F400.0
G1 X29.558 Y29.320 F400.0
G1 X29.403 Y29.446 F400.0
G1 X29.244 Y29.569 F400.0
G1 X29.084 Y29.688 F400.0
G1 X28.921 Y29.805 F400.0
G1 X28.756 Y29.918 F400.0
G1 X28.589 Y30.027 F400.0
G1 X28.419 Y30.134 F400.0
G1 X28.248 Y30.237 F400.0
G1 X28.074 Y30.336 F400.0
G1 X27.898 Y30.432 F400.0
G1 X27.721 Y30.525 F400.0
G1 X27.542 Y30.613 F400.0
G1 X27.361 Y30.699 F400.0
G1 X27.178 Y30.780 F400.0
G1 X26.994 Y30.858 F400.0
G1 X26.808 Y30.933 F400.0
G1 X26.621 Y31.003 F400.0
G1 X26.432 Y31.070 F400.0
G1 X26.242 Y31.133 F400.0
G1 X26.051 Y31.192 F400.0
G1 X25.859 Y31.247 F400.0
G1 X25.665 Y31.299 F400.0
G1 X25.471 Y31.346 F400.0
G1 X25.276 Y31.390 F400.0
G1 X25.080 Y31.430 F400.0
G1 X24.883 Y31.466 F400.0
G1 X24.685 Y31.498 F400.0
G1 X24.487 Y31.526 F400.0
G1 X24.288 Y31.549 F400.0
G1 X24.089 Y31.569 F400.0
G1 X23.890 Y31.585 F400.0
G1 X23.690 Y31.597 F400.0
G1 X23.490 Y31.605 F400.0
G1 X23.290 Y31.609 F400.0
G1 X23.090 Y31.609 F400.0
G1 X22.890 Y31.605 F400.0
G1 X22.690 Y31.597 F400.0
G1 X22.490 Y31.585 F400.0
G1 X22.291 Y31.569 F400.0
G1 X22.092 Y31.549 F400.0
G1 X21.893 Y31.526 F400.0
G1 X21.695 Y31.498 F400.0
G1 X21.497 Y31.466 F400.0
G1 X21.300 Y31.430 F400.0
G1 X21.104 Y31.390 F400.0
G1 X20.909 Y31.346 F400.0
G1 X20.715 Y31.299 F400.0
G1 X20.521 Y31.247 F400.0
G1 X20.329 Y31.192 F400.0
G1 X20.138 Y31.133 F400.0
G1 X19.948 Y31.070 F400.0
G1 X19.759 Y31.003 F400.0
G1 X19.572 Y30.933 F400.0
G1 X19.386 Y30.858 F400.0
G1 X19.202 Y30.780 F400.0
G1 X19.019 Y30.699 F400.0
G1 X18.838 Y30.613 F400.0
G1 X18.659 Y30.525 F400.0
G1 X18.482 Y30.432 F400.0
G1 X18.306 Y30.336 F400.0
G1 X18.132 Y30.237 F400.0
G1 X17.961 Y30.134 F400.0
G1 X17.791 Y30.027 F400.0
G1 X17.624 Y29.918 F400.0
G1 X17.459 Y29.805 F400.0
G1 X17.296 Y29.688 F400.0
G1 X17.136 Y29.569 F400.0
G1 X16.977 Y29.446 F400.0
G1 X16.822 Y29.320 F400.0
G1 X16.669 Y29.191 F400.0
G1 X16.519 Y29.059 F400.0
G1 X16.371 Y28.924 F400.0
G1 X16.226 Y28.786 F400.0
G1 X16.084 Y28.646 F400.0
G1 X15.944 Y28.502 F400.0
G1 X15.808 Y28.356 F400.0
G1 X15.674 Y28.207 F400.0
G1 X15.544 Y28.055 F400.0
G1 X15.416 Y27.901 F400.0
G1 X15.292 Y27.744 F400.0
G1 X15.171 Y27.585 F400.0
G1 X15.053 Y27.423 F400.0
G1 X14.938 Y27.259 F400.0
G1 X14.827 Y27.093 F400.0
G1 X14.719 Y26.924 F400.0
G1 X14.614 Y26.754 F400.0
G1 X14.513 Y26.581 F400.0
G1 X14.415 Y26.406 F400.0
G1 X14.321 Y26.230 F400.0
G1 X14.231 Y26.052 F400.0
G1 X14.143 Y25.871 F400.0
G1 X14.060 Y25.690 F400.0
G1 X13.980 Y25.506 F400.0
G1 X13.904 Y25.321 F400.0
G1 X13.832 Y25.134 F400.0
G1 X13.763 Y24.946 F400.0
G1 X13.698 Y24.757 F400.0
G1 X13.637 Y24.567 F400.0
G1 X13.580 Y24.375 F400.0
G1 X13.526 Y24.182 F400.0
G1 X13.477 Y23.988 F400.0
G1 X13.431 Y23.793 F400.0
G1 X13.390 Y23.598 F400.0
G1 X13.352 Y23.401 F400.0
G1 X13.318 Y23.204 F400.0
G1 X13.288 Y23.006 F400.0
G1 X13.262 Y22.808 F400.0
G1 X13.240 Y22.609 F400.0
G1 X13.222 Y22.410 F400.0
G1 X13.208 Y22.210 F400.0
G1 X13.198 Y22.010 F400.0
G1 X13.192 Y21.810 F400.0
G1 X13.190 Y21.610 F400.0
G1 X13.192 Y21.410 F400.0
G1 X13.198 Y21.210 F400.0
G1 X13.208 Y21.010 F400.0
G1 X13.222 Y20.810 F400.0
G1 X13.240 Y20.611 F400.0
G1 X13.262 Y20.412 F400.0
G1 X13.288 Y20.214 F400.0
G1 X13.318 Y20.016 F400.0
G1 X13.352 Y19.819 F400.0
G1 X13.390 Y19.622 F400.0
G1 X13.431 Y19.427 F400.0
G1 X13.477 Y19.232 F400.0
G1 X13.526 Y19.038 F400.0
G1 X13.580 Y18.845 F400.0
G1 X13.637 Y18.653 F400.0
G1 X13.698 Y18.463 F400.0
G1 X13.763 Y18.274 F400.0
G1 X13.832 Y18.086 F400.0
G1 X13.904 Y17.899 F400.0
G1 X13.980 Y17.714 F400.0
G1 X14.060 Y17.530 F400.0
G1 X14.143 Y17.349 F400.0
G1 X14.231 Y17.168 F400.0
G1 X14.321 Y16.990 F400.0
G1 X14.415 Y16.814 F400.0
G1 X14.513 Y16.639 F400.0
G1 X14.614 Y16.466 F400.0
G1 X14.719 Y16.296 F400.0
G1 X14.827 Y16.127 F400.0
G1 X14.938 Y15.961 F400.0
G1 X15.053 Y15.797 F400.0
G1 X15.171 Y15.635 F400.0
G1 X15.292 Y15.476 F400.0
G1 X15.416 Y15.319 F400.0
G1 X15.544 Y15.165 F400.0
G1 X15.674 Y15.013 F400.0
G1 X15.808 Y14.864 F400.0
G1 X15.944 Y14.718 F400.0
G1 X16.084 Y14.574 F400.0
G1 X16.226 Y14.434 F400.0
G1 X16.371 Y14.296 F400.0
G1 X16.519 Y14.161 F400.0
G1 X16.669 Y14.029 F400.0
G1 X16.822 Y13.900 F400.0
G1 X16.977 Y13.774 F400.0
G1 X17.136 Y13.651 F400.0
G1 X17.296 Y13.532 F400.0
G1 X17.459 Y13.415 F400.0
G1 X17.624 Y13.302 F400.0
G1 X17.791 Y13.193 F400.0
G1 X17.961 Y13.086 F400.0
G1 X18.132 Y12.983 F400.0
G1 X18.306 Y12.884 F400.0
G1 X18.482 Y12.788 F400.0
G1 X18.659 Y12.695 F400.0
G1 X18.838 Y12.607 F400.0
G1 X19.019 Y12.521 F400.0
G1 X19.202 Y12.440 F400.0
G1 X19.386 Y12.362 F400.0
G1 X19.572 Y12.287 F400.0
G1 X19.759 Y12.217 F400.0
G1 X19.948 Y12.150 F400.0
G1 X20.138 Y12.087 F400.0
G1 X20.329 Y12.028 F400.0
G1 X20.521 Y11.973 F400.0
G1 X20.715 Y11.921 F400.0
G1 X20.909 Y11.874 F400.0
G1 X21.104 Y11.830 F400.0
G1 X21.300 Y11.790 F400.0
G1 X21.497 Y11.754 F400.0
G1 X21.695 Y11.722 F400.0
G1 X21.893 Y11.694 F400.0
G1 X22.092 Y11.671 F400.0
G1 X22.291 Y11.651 F400.0
G1 X22.490 Y11.635 F400.0
G1 X22.690 Y11.623 F400.0
G1 X22.890 Y11.615 F400.0
G1 X23.090 Y11.611 F400.0
G1 X23.290 Y11.611 F400.0
G1 X23.490 Y11.615 F400.0
G1 X23.690 Y11.623 F400.0
G1 X23.890 Y11.635 F400.0
G1 X24.089 Y11.651 F400.0
G1 X24.288 Y11.671 F400.0
G1 X24.487 Y11.694 F400.0
G1 X24.685 Y11.722 F400.0
G1 X24.883 Y11.754 F400.0
G1 X25.080 Y11.790 F400.0
G1 X25.276 Y11.830 F400.0
G1 X25.471 Y11.874 F400.0
G1 X25.665 Y11.921 F400.0
G1 X25.859 Y11.973 F400.0
G1 X26.051 Y12.028 F400.0
G1 X26.242 Y12.087 F400.0
G1 X26.432 Y12.150 F400.0
G1 X26.621 Y12.217 F400.0
G1 X26.808 Y12.287 F400.0
G1 X26.994 Y12.362 F400.0
G1 X27.178 Y12.440 F400.0
G1 X27.361 Y12.521 F400.0
G1 X27.542 Y12.607 F400.0
G1 X27.721 Y12.695 F400.0
G1 X27.898 Y12.788 F400.0
G1 X28.074 Y12.884 F400.0
G1 X28.248 Y12.983 F400.0
G1 X28.419 Y13.086 F400.0
G1 X28.589 Y13.193 F400.0
G1 X28.756 Y13.302 F400.0
G1 X28.921 Y13.415 F400.0
G1 X29.084 Y13.532 F400.0
G1 X29.244 Y13.651 F400.0
G1 X29.403 Y13.774 F400.0
G1 X29.558 Y13.900 F400.0
G1 X29.711 Y14.029 F400.0
G1 X29.861 Y14.161 F400.0
G1 X30.009 Y14.296 F400.0
G1 X30.154 Y14.434 F400.0
G1 X30.296 Y14.574 F400.0
G1 X30.436 Y14.718 F400.0
G1 X30.572 Y14.864 F400.0
G1 X30.706 Y15.013 F400.0
G1 X30.836 Y15.165 F400.0
G1 X30.964 Y15.319 F400.0
G1 X31.088 Y15.476 F400.0
G1 X31.209 Y15.635 F400.0
G1 X31.327 Y15.797 F400.0
G1 X31.442 Y15.961 F400.0
G1 X31.553 Y16.127 F400.0
G1 X31.661 Y16.296 F400.0
G1 X31.766 Y16.466 F400.0
G1 X31.867 Y16.639 F400.0
G1 X31.965 Y16.814 F400.0
G1 X32.059 Y16.990 F400.0
G1 X32.149 Y17.168 F400.0
G1 X32.237 Y17.349 F400.0
G1 X32.320 Y17.530 F400.0
G1 X32.400 Y17.714 F400.0
G1 X32.476 Y17.899 F400.0
G1 X32.548 Y18.086 F400.0
G1 X32.617 Y18.274 F400.0
G1 X32.682 Y18.463 F400.0
G1 X32.743 Y18.653 F400.0
G1 X32.800 Y18.845 F400.0
G1 X32.854 Y19.038 F400.0
G1 X32.903 Y19.232 F400.0
G1 X32.949 Y19.427 F400.0
G1 X32.990 Y19.622 F400.0
G1 X33.028 Y19.819 F400.0
G1 X33.062 Y20.016 F400.0
G1 X33.092 Y20.214 F400.0
G1 X33.118 Y20.412 F400.0
G1 X33.140 Y20.611 F400.0
G1 X33.158 Y20.810 F400.0
G1 X33.172 Y21.010 F400.0
G1 X33.182 Y21.210 F400.0
G1 X33.188 Y21.410 F400.0
G1 X33.190 Y21.610 F400.0
G0 Z1.000
G0 X33.190 Y21.610
G1 Z-3.500 F100.0
G1 X33.188 Y21.810 F400.0
G1 X33.182 Y22.010 F400.0
G1 X33.172 Y22.210 F400.0
G1 X33.158 Y22.410 F400.0
G1 X33.140 Y22.609 F400.0
G1 X33.118 Y22.808 F400.0
G1 X33.092 Y23.006 F400.0
G1 X33.062 Y23.204 F400.0
G1 X33.028 Y23.401 F400.0
G1 X32.990 Y23.598 F400.0
G1 X32.949 Y23.793 F400.0
G1 X32.903 Y23.988 F400.0
G1 X32.854 Y24.182 F400.0
G1 X32.800 Y24.375 F400.0
G1 X32.743 Y24.567 F400.0
G1 X32.682 Y24.757 F400.0
G1 X32.617 Y24.946 F400.0
G1 X32.548 Y25.134 F400.0
G1 X32.476 Y25.321 F400.0
G1 X32.400 Y25.506 F400.0
G1 X32.320 Y25.690 F400.0
G1 X32.237 Y25.871 F400.0
G1 X32.149 Y26.052 F400.0
G1 X32.059 Y26.230 F400.0
G1 X31.965 Y26.406 F400.0
G1 X31.867 Y26.581 F400.0
G1 X31.766 Y26.754 F400.0
G1 X31.661 Y26.924 F400.0
G1 X31.553 Y27.093 F400.0
G1 X31.442 Y27.259 F400.0
G1 X31.327 Y27.423 F400.0
G1 X31.209 Y27.585 F400.0
G1 X31.088 Y27.744 F400.0
G1 X30.964 Y27.901 F400.0
G1 X30.836 Y28.055 F400.0
G1 X30.706 Y28.207 F400.0
G1 X30.572 Y28.356 F400.0
G1 X30.436 Y28.502 F400.0
G1 X30.296 Y28.646 F400.0
G1 X30.154 Y28.786 F400.0
G1 X30.009 Y28.924 F400.0
G1 X29.861 Y29.059 F400.0
G1 X29.711 Y29.191 F400.0
G1 X29.558 Y29.320 F400.0
G1 X29.403 Y29.446 F400.0
G1 X29.244 Y29.569 F400.0
G1 X29.084 Y29.688 F400.0
G1 X28.921 Y29.805 F400.0
G1 X28.756 Y29.918 F400.0
G1 X28.589 Y30.027 F400.0
G1 X28.419 Y30.134 F400.0
G1 X28.248 Y30.237 F400.0
G1 X28.074 Y30.336 F400.0
G1 X27.898 Y30.432 F400.0
G1 X27.721 Y30.525 F400.0
G1 X27.542 Y30.613 F400.0
G1 X27.361 Y30.699 F400.0
G1 X27.178 Y30.780 F400.0
G1 X26.994 Y30.858 F400.0
G1 X26.808 Y30.933 F400.0
G1 X26.621 Y31.003 F400.0
G1 X26.432 Y31.070 F400.0
G1 X26.242 Y31.133 F400.0
G1 X26.051 Y31.192 F400.0
G1 X25.859 Y31.247 F400.0
G1 X25.665 Y31.299 F400.0
G1 X25.471 Y31.346 F400.0
G1 X25.276 Y31.390 F400.0
G1 X25.080 Y31.430 F400.0
G1 X24.883 Y31.466 F400.0
G1 X24.685 Y31.498 F400.0
G1 X24.487 Y31.526 F400.0
G1 X24.288 Y31.549 F400.0
G1 X24.089 Y31.569 F400.0
G1 X23.890 Y31.585 F400.0
G1 X23.690 Y31.597 F400.0
G1 X23.490 Y31.605 F400.0
G1 X23.290 Y31.609 F400.0
G1 X23.090 Y31.609 F400.0
G1 X22.890 Y31.605 F400.0
G1 X22.690 Y31.597 F400.0
G1 X22.490 Y31.585 F400.0
G1 X22.291 Y31.569 F400.0
G1 X22.092 Y31.549 F400.0
G1 X21.893 Y31.526 F400.0
G1 X21.695 Y31.498 F400.0
G1 X21.497 Y31.466 F400.0
G1 X21.300 Y31.430 F400.0
G1 X21.104 Y31.390 F400.0
G1 X20.909 Y31.346 F400.0
G1 X20.715 Y31.299 F400.0
G1 X20.521 Y31.247 F400.0
G1 X20.329 Y31.192 F400.0
G1 X20.138 Y31.133 F400.0
G1 X19.948 Y31.070 F400.0
G1 X19.759 Y31.003 F400.0
G1 X19.572 Y30.933 F400.0
G1 X19.386 Y30.858 F400.0
G1 X19.202 Y30.780 F400.0
G1 X19.019 Y30.699 F400.0
G1 X18.838 Y30.613 F400.0
G1 X18.659 Y30.525 F400.0
G1 X18.482 Y30.432 F400.0
G1 X18.306 Y30.336 F400.0
G1 X18.132 Y30.237 F400.0
G1 X17.961 Y30.134 F400.0
G1 X17.791 Y30.027 F400.0
G1 X17.624 Y29.918 F400.0
G1 X17.459 Y29.805 F400.0
G1 X17.296 Y29.688 F400.0
G1 X17.136 Y29.569 F400.0
G1 X16.977 Y29.446 F400.0
G1 X16.822 Y29.320 F400.0
G1 X16.669 Y29.191 F400.0
G1 X16.519 Y29.059 F400.0
G1 X16.371 Y28.924 F400.0
G1 X16.226 Y28.786 F400.0
G1 X16.084 Y28.646 F400.0
G1 X15.944 Y28.502 F400.0
G1 X15.808 Y28.356 F400.0
G1 X15.674 Y28.207 F400.0
G1 X15.544 Y28.055 F400.0
G1 X15.416 Y27.901 F400.0
G1 X15.292 Y27.744 F400.0
G1 X15.171 Y27.585 F400.0
G1 X15.053 Y27.423 F400.0
G1 X14.938 Y27.259 F400.0
G1 X14.827 Y27.093 F400.0
G1 X14.719 Y26.924 F400.0
G1 X14.614 Y26.754 F400.0
G1 X14.513 Y26.581 F400.0
G1 X14.415 Y26.406 F400.0
G1 X14.321 Y26.230 F400.0
G1 X14.231 Y26.052 F400.0
G1 X14.143 Y25.871 F400.0
G1 X14.060 Y25.690 F400.0
G1 X13.980 Y25.506 F400.0
G1 X13.904 Y25.321 F400.0
G1 X13.832 Y25.134 F400.0
G1 X13.763 Y24.946 F400.0
G1 X13.698 Y24.757 F400.0
G1 X13.637 Y24.567 F400.0
G1 X13.580 Y24.375 F400.0
G1 X13.526 Y24.182 F400.0
G1 X13.477 Y23.988 F400.0
G1 X13.431 Y23.793 F400.0
G1 X13.390 Y23.598 F400.0
G1 X13.352 Y23.401 F400.0
G1 X13.318 Y23.204 F400.0
G1 X13.288 Y23.006 F400.0
G1 X13.262 Y22.808 F400.0
G1 X13.240 Y22.609 F400.0
G1 X13.222 Y22.410 F400.0
G1 X13.208 Y22.210 F400.0
G1 X13.198 Y22.010 F400.0
G1 X13.192 Y21.810 F400.0
G1 X13.190 Y21.610 F400.0
G1 X13.192 Y21.410 F400.0
G1 X13.198 Y21.210 F400.0
G1 X13.208 Y21.010 F400.0
G1 X13.222 Y20.810 F400.0
G1 X13.240 Y20.611 F400.0
G1 X13.262 Y20.412 F400.0
G1 X13.288 Y20.214 F400.0
G1 X13.318 Y20.016 F400.0
G1 X13.352 Y19.819 F400.0
G1 X13.390 Y19.622 F400.0
G1 X13.431 Y19.427 F400.0
G1 X13.477 Y19.232 F400.0
G1 X13.526 Y19.038 F400.0
G1 X13.580 Y18.845 F400.0
G1 X13.637 Y18.653 F400.0
G1 X13.698 Y18.463 F400.0
G1 X13.763 Y18.274 F400.0
G1 X13.832 Y18.086 F400.0
G1 X13.904 Y17.899 F400.0
G1 X13.980 Y17.714 F400.0
G1 X14.060 Y17.530 F400.0
G1 X14.143 Y17.349 F400.0
G1 X14.231 Y17.168 F400.0
G1 X14.321 Y16.990 F400.0
G1 X14.415 Y16.814 F400.0
G1 X14.513 Y16.639 F400.0
G1 X14.614 Y16.466 F400.0
G1 X14.719 Y16.296 F400.0
G1 X14.827 Y16.127 F400.0
G1 X14.938 Y15.961 F400.0
G1 X15.053 Y15.797 F400.0
G1 X15.171 Y15.635 F400.0
G1 X15.292 Y15.476 F400.0
G1 X15.416 Y15.319 F400.0
G1 X15.544 Y15.165 F400.0
G1 X15.674 Y15.013 F400.0
G1 X15.808 Y14.864 F400.0
G1 X15.944 Y14.718 F400.0
G1 X16.084 Y14.574 F400.0
G1 X16.226 Y14.434 F400.0
G1 X16.371 Y14.296 F400.0
G1 X16.519 Y14.161 F400.0
G1 X16.669 Y14.029 F400.0
G1 X16.822 Y13.900 F400.0
G1 X16.977 Y13.774 F400.0
G1 X17.136 Y13.651 F400.0
G1 X17.296 Y13.532 F400.0
G1 X17.459 Y13.415 F400.0
G1 X17.624 Y13.302 F400.0
G1 X17.791 Y13.193 F400.0
G1 X17.961 Y13.086 F400.0
G1 X18.132 Y12.983 F400.0
G1 X18.306 Y12.884 F400.0
G1 X18.482 Y12.788 F400.0
G1 X18.659 Y12.695 F400.0
G1 X18.838 Y12.607 F400.0
G1 X19.019 Y12.521 F400.0
G1 X19.202 Y12.440 F400.0
G1 X19.386 Y12.362 F400.0
G1 X19.572 Y12.287 F400.0
G1 X19.759 Y12.217 F400.0
G1 X19.948 Y12.150 F400.0
G1 X20.138 Y12.087 F400.0
G1 X20.329 Y12.028 F400.0
G1 X20.521 Y11.973 F400.0
G1 X20.715 Y11.921 F400.0
G1 X20.909 Y11.874 F400.0
G1 X21.104 Y11.830 F400.0
G1 X21.300 Y11.790 F400.0
G1 X21.497 Y11.754 F400.0
G1 X21.695 Y11.722 F400.0
G1 X21.893 Y11.694 F400.0
G1 X22.092 Y11.671 F400.0
G1 X22.291 Y11.651 F400.0
G1 X22.490 Y11.635 F400.0
G1 X22.690 Y11.623 F400.0
G1 X22.890 Y11.615 F400.0
G1 X23.090 Y11.611 F400.0
G1 X23.290 Y11.611 F400.0
G1 X23.490 Y11.615 F400.0
G1 X23.690 Y11.623 F400.0
G1 X23.890 Y11.635 F400.0
G1 X24.089 Y11.651 F400.0
G1 X24.288 Y11.671 F400.0
G1 X24.487 Y11.694 F400.0
G1 X24.685 Y11.722 F400.0
G1 X24.883 Y11.754 F400.0
G1 X25.080 Y11.790 F400.0
G1 X25.276 Y11.830 F400.0
G1 X25.471 Y11.874 F400.0
G1 X25.665 Y11.921 F400.0
G1 X25.859 Y11.973 F400.0
G1 X26.051 Y12.028 F400.0
G1 X26.242 Y12.087 F400.0
G1 X26.432 Y12.150 F400.0
G1 X26.621 Y12.217 F400.0
G1 X26.808 Y12.287 F400.0
G1 X26.994 Y12.362 F400.0
G1 X27.178 Y12.440 F400.0
G1 X27.361 Y12.521 F400.0
G1 X27.542 Y12.607 F400.0
G1 X27.721 Y12.695 F400.0
G1 X27.898 Y12.788 F400.0
G1 X28.074 Y12.884 F400.0
G1 X28.248 Y12.983 F400.0
G1 X28.419 Y13.086 F400.0
G1 X28.589 Y13.193 F400.0
G1 X28.756 Y13.302 F400.0
G1 X28.921 Y13.415 F400.0
G1 X29.084 Y13.532 F400.0
G1 X29.244 Y13.651 F400.0
G1 X29.403 Y13.774 F400.0
G1 X29.558 Y13.900 F400.0
G1 X29.711 Y14.029 F400.0
G1 X29.861 Y14.161 F400.0
G1 X30.009 Y14.296 F400.0
G1 X30.154 Y14.434 F400.0
G1 X30.296 Y14.574 F400.0
G1 X30.436 Y14.718 F400.0
G1 X30.572 Y14.864 F400.0
G1 X30.706 Y15.013 F400.0
G1 X30.836 Y15.165 F400.0
G1 X30.964 Y15.319 F400.0
G1 X31.088 Y15.476 F400.0
G1 X31.209 Y15.635 F400.0
G1 X31.327 Y15.797 F400.0
G1 X31.442 Y15.961 F400.0
G1 X31.553 Y16.127 F400.0
G1 X31.661 Y16.296 F400.0
G1 X31.766 Y16.466 F400.0
G1 X31.867 Y16.639 F400.0
G1 X31.965 Y16.814 F400.0
G1 X32.059 Y16.990 F400.0
G1 X32.149 Y17.168 F400.0
G1 X32.237 Y17.349 F400.0
G1 X32.320 Y17.530 F400.0
G1 X32.400 Y17.714 F400.0
G1 X32.476 Y17.899 F400.0
G1 X32.548 Y18.086 F400.0
G1 X32.617 Y18.274 F400.0
G1 X32.682 Y18.463 F400.0
G1 X32.743 Y18.653 F400.0
G1 X32.800 Y18.845 F400.0
G1 X32.854 Y19.038 F400.0
G1 X32.903 Y19.232 F400.0
G1 X32.949 Y19.427 F400.0
G1 X32.990 Y19.622 F400.0
G1 X33.028 Y19.819 F400.0
G1 X33.062 Y20.016 F400.0
G1 X33.092 Y20.214 F400.0
G1 X33.118 Y20.412 F400.0
G1 X33.140 Y20.611 F400.0
G1 X33.158 Y20.810 F400.0
G1 X33.172 Y21.010 F400.0
G1 X33.182 Y21.210 F400.0
G1 X33.188 Y21.410 F400.0
G1 X33.190 Y21.610 F400.0
G0 Z1.000
G0 X33.190 Y21.610
G1 Z-4.000 F100.0
G1 X33.188 Y21.810 F400.0
G1 X33.182 Y22.010 F400.0
G1 X33.172 Y22.210 F400.0
G1 X33.158 Y22.410 F400.0
G1 X33.140 Y22.609 F400.0
G1 X33.118 Y22.808 F400.0
G1 X33.092 Y23.006 F400.0
G1 X33.062 Y23.204 F400.0
G1 X33.028 Y23.401 F400.0
G1 X32.990 Y23.598 F400.0
G1 X32.949 Y23.793 F400.0
G1 X32.903 Y23.988 F400.0
G1 X32.854 Y24.182 F400.0
G1 X32.800 Y24.375 F400.0
G1 X32.743 Y24.567 F400.0
G1 X32.682 Y24.757 F400.0
G1 X32.617 Y24.946 F400.0
G1 X32.548 Y25.134 F400.0
G1 X32.476 Y25.321 F400.0
G1 X32.400 Y25.506 F400.0
G1 X32.320 Y25.690 F400.0
G1 X32.237 Y25.871 F400.0
G1 X32.149 Y26.052 F400.0
G1 X32.059 Y26.230 F400.0
G1 X31.965 Y26.406 F400.0
G1 X31.867 Y26.581 F400.0
G1 X31.766 Y26.754 F400.0
G1 X31.661 Y26.924 F400.0
G1 X31.553 Y27.093 F400.0
G1 X31.442 Y27.259 F400.0
G1 X31.327 Y27.423 F400.0
G1 X31.209 Y27.585 F400.0
G1 X31.088 Y27.744 F400.0
G1 X30.964 Y27.901 F400.0
G1 X30.836 Y28.055 F400.0
G1 X30.706 Y28.207 F400.0
G1 X30.572 Y28.356 F400.0
G1 X30.436 Y28.502 F400.0
G1 X30.296 Y28.646 F400.0
G1 X30.154 Y28.786 F400.0
G1 X30.009 Y28.924 F400.0
G1 X29.861 Y29.059 F400.0
G1 X29.711 Y29.191 F400.0
G1 X29.558 Y29.320 F400.0
G1 X29.403 Y29.446 F400.0
G1 X29.244 Y29.569 F400.0
G1 X29.084 Y29.688 F400.0
G1 X28.921 Y29.805 F400.0
G1 X28.756 Y29.918 F400.0
G1 X28.589 Y30.027 F400.0
G1 X28.419 Y30.134 F400.0
G1 X28.248 Y30.237 F400.0
G1 X28.074 Y30.336 F400.0
G1 X27.898 Y30.432 F400.0
G1 X27.721 Y30.525 F400.0
G1 X27.542 Y30.613 F400.0
G1 X27.361 Y30.699 F400.0
G1 X27.178 Y30.780 F400.0
G1 X26.994 Y30.858 F400.0
G1 X26.808 Y30.933 F400.0
G1 X26.621 Y31.003 F400.0
G1 X26.432 Y31.070 F400.0
G1 X26.242 Y31.133 F400.0
G1 X26.051 Y31.192 F400.0
G1 X25.859 Y31.247 F400.0
G1 X25.665 Y31.299 F400.0
G1 X25.471 Y31.346 F400.0
G1 X25.276 Y31.390 F400.0
G1 X25.080 Y31.430 F400.0
G1 X24.883 Y31.466 F400.0
G1 X24.685 Y31.498 F400.0
G1 X24.487 Y31.526 F400.0
G1 X24.288 Y31.549 F400.0
G1 X24.089 Y31.569 F400.0
G1 X23.890 Y31.585 F400.0
G1 X23.690 Y31.597 F400.0
G1 X23.490 Y31.605 F400.0
G1 X23.290 Y31.609 F400.0
G1 X23.090 Y31.609 F400.0
G1 X22.890 Y31.605 F400.0
G1 X22.690 Y31.597 F400.0
G1 X22.490 Y31.585 F400.0
G1 X22.291 Y31.569 F400.0
G1 X22.092 Y31.549 F400.0
G1 X21.893 Y31.526 F400.0
G1 X21.695 Y31.498 F400.0
G1 X21.497 Y31.466 F400.0
G1 X21.300 Y31.430 F400.0
G1 X21.104 Y31.390 F400.0
G1 X20.909 Y31.346 F400.0
G1 X20.715 Y31.299 F400.0
G1 X20.521 Y31.247 F400.0
G1 X20.329 Y31.192 F400.0
G1 X20.138 Y31.133 F400.0
G1 X19.948 Y31.070 F400.0
G1 X19.759 Y31.003 F400.0
G1 X19.572 Y30.933 F400.0
G1 X19.386 Y30.858 F400.0
G1 X19.202 Y30.780 F400.0
G1 X19.019 Y30.699 F400.0
G1 X18.838 Y30.613 F400.0
G1 X18.659 Y30.525 F400.0
G1 X18.482 Y30.432 F400.0
G1 X18.306 Y30.336 F400.0
G1 X18.132 Y30.237 F400.0
G1 X17.961 Y30.134 F400.0
G1 X17.791 Y30.027 F400.0
G1 X17.624 Y29.918 F400.0
G1 X17.459 Y29.805 F400.0
G1 X17.296 Y29.688 F400.0
G1 X17.136 Y29.569 F400.0
G1 X16.977 Y29.446 F400.0
G1 X16.822 Y29.320 F400.0
G1 X16.669 Y29.191 F400.0
G1 X16.519 Y29.059 F400.0
G1 X16.371 Y28.924 F400.0
G1 X16.226 Y28.786 F400.0
G1 X16.084 Y28.646 F400.0
G1 X15.944 Y28.502 F400.0
G1 X15.808 Y28.356 F400.0
G1 X15.674 Y28.207 F400.0
G1 X15.544 Y28.055 F400.0
G1 X15.416 Y27.901 F400.0
G1 X15.292 Y27.744 F400.0
G1 X15.171 Y27.585 F400.0
G1 X15.053 Y27.423 F400.0
G1 X14.938 Y27.259 F400.0
G1 X14.827 Y27.093 F400.0
G1 X14.719 Y26.924 F400.0
G1 X14.614 Y26.754 F400.0
G1 X14.513 Y26.581 F400.0
G1 X14.415 Y26.406 F400.0
G1 X14.321 Y26.230 F400.0
G1 X14.231 Y26.052 F400.0
G1 X14.143 Y25.871 F400.0
G1 X14.060 Y25.690 F400.0
G1 X13.980 Y25.506 F400.0
G1 X13.904 Y25.321 F400.0
G1 X13.832 Y25.134 F400.0
G1 X13.763 Y24.946 F400.0
G1 X13.698 Y24.757 F400.0
G1 X13.637 Y24.567 F400.0
G1 X13.580 Y24.375 F400.0
G1 X13.526 Y24.182 F400.0
G1 X13.477 Y23.988 F400.0
G1 X13.431 Y23.793 F400.0
G1 X13.390 Y23.598 F400.0
G1 X13.352 Y23.401 F400.0
G1 X13.318 Y23.204 F400.0
G1 X13.288 Y23.006 F400.0
G1 X13.262 Y22.808 F400.0
G1 X13.240 Y22.609 F400.0
G1 X13.222 Y22.410 F400.0
G1 X13.208 Y22.210 F400.0
G1 X13.198 Y22.010 F400.0
G1 X13.192 Y21.810 F400.0
G1 X13.190 Y21.610 F400.0
G1 X13.192 Y21.410 F400.0
G1 X13.198 Y21.210 F400.0
G1 X13.208 Y21.010 F400.0
G1 X13.222 Y20.810 F400.0
G1 X13.240 Y20.611 F400.0
G1 X13.262 Y20.412 F400.0
G1 X13.288 Y20.214 F400.0
G1 X13.318 Y20.016 F400.0
G1 X13.352 Y19.819 F400.0
G1 X13.390 Y19.622 F400.0
G1 X13.431 Y19.427 F400.0
G1 X13.477 Y19.232 F400.0
G1 X13.526 Y19.038 F400.0
G1 X13.580 Y18.845 F400.0
G1 X13.637 Y18.653 F400.0
G1 X13.698 Y18.463 F400.0
G1 X13.763 Y18.274 F400.0
G1 X13.832 Y18.086 F400.0
G1 X13.904 Y17.899 F400.0
G1 X13.980 Y17.714 F400.0
G1 X14.060 Y17.530 F400.0
G1 X14.143 Y17.349 F400.0
G1 X14.231 Y17.168 F400.0
G1 X14.321 Y16.990 F400.0
G1 X14.415 Y16.814 F400.0
G1 X14.513 Y16.639 F400.0
G1 X14.614 Y16.466 F400.0
G1 X14.719 Y16.296 F400.0
G1 X14.827 Y16.127 F400.0
G1 X14.938 Y15.961 F400.0
G1 X15.053 Y15.797 F400.0
G1 X15.171 Y15.635 F400.0
G1 X15.292 Y15.476 F400.0
G1 X15.416 Y15.319 F400.0
G1 X15.544 Y15.165 F400.0
G1 X15.674 Y15.013 F400.0
G1 X15.808 Y14.864 F400.0
G1 X15.944 Y14.718 F400.0
G1 X16.084 Y14.574 F400.0
G1 X16.226 Y14.434 F400.0
G1 X16.371 Y14.296 F400.0
G1 X16.519 Y14.161 F400.0
G1 X16.669 Y14.029 F400.0
G1 X16.822 Y13.900 F400.0
G1 X16.977 Y13.774 F400.0
G1 X17.136 Y13.651 F400.0
G1 X17.296 Y13.532 F400.0
G1 X17.459 Y13.415 F400.0
G1 X17.624 Y13.302 F400.0
G1 X17.791 Y13.193 F400.0
G1 X17.961 Y13.086 F400.0
G1 X18.132 Y12.983 F400.0
G1 X18.306 Y12.884 F400.0
G1 X18.482 Y12.788 F400.0
G1 X18.659 Y12.695 F400.0
G1 X18.838 Y12.607 F400.0
G1 X19.019 Y12.521 F400.0
G1 X19.202 Y12.440 F400.0
G1 X19.386 Y12.362 F400.0
G1 X19.572 Y12.287 F400.0
G1 X19.759 Y12.217 F400.0
G1 X19.948 Y12.150 F400.0
G1 X20.138 Y12.087 F400.0
G1 X20.329 Y12.028 F400.0
G1 X20.521 Y11.973 F400.0
G1 X20.715 Y11.921 F400.0
G1 X20.909 Y11.874 F400.0
G1 X21.104 Y11.830 F400.0
G1 X21.300 Y11.790 F400.0
G1 X21.497 Y11.754 F400.0
G1 X21.695 Y11.722 F400.0
G1 X21.893 Y11.694 F400.0
G1 X22.092 Y11.671 F400.0
G1 X22.291 Y11.651 F400.0
G1 X22.490 Y11.635 F400.0
G1 X22.690 Y11.623 F400.0
G1 X22.890 Y11.615 F400.0
G1 X23.090 Y11.611 F400.0
G1 X23.290 Y11.611 F400.0
G1 X23.490 Y11.615 F400.0
G1 X23.690 Y11.623 F400.0
G1 X23.890 Y11.635 F400.0
G1 X24.089 Y11.651 F400.0
G1 X24.288 Y11.671 F400.0
G1 X24.487 Y11.694 F400.0
G1 X24.685 Y11.722 F400.0
G1 X24.883 Y11.754 F400.0
G1 X25.080 Y11.790 F400.0
G1 X25.276 Y11.830 F400.0
G1 X25.471 Y11.874 F400.0
G1 X25.665 Y11.921 F400.0
G1 X25.859 Y11.973 F400.0
G1 X26.051 Y12.028 F400.0
G1 X26.242 Y12.087 F400.0
G1 X26.432 Y12.150 F400.0
G1 X26.621 Y12.217 F400.0
G1 X26.808 Y12.287 F400.0
G1 X26.994 Y12.362 F400.0
G1 X27.178 Y12.440 F400.0
G1 X27.361 Y12.521 F400.0
G1 X27.542 Y12.607 F400.0
G1 X27.721 Y12.695 F400.0
G1 X27.898 Y12.788 F400.0
G1 X28.074 Y12.884 F400.0
G1 X28.248 Y12.983 F400.0
G1 X28.419 Y13.086 F400.0
G1 X28.589 Y13.193 F400.0
G1 X28.756 Y13.302 F400.0
G1 X28.921 Y13.415 F400.0
G1 X29.084 Y13.532 F400.0
G1 X29.244 Y13.651 F400.0
G1 X29.403 Y13.774 F400.0
G1 X29.558 Y13.900 F400.0
G1 X29.711 Y14.029 F400.0
G1 X29.861 Y14.161 F400.0
G1 X30.009 Y14.296 F400.0
G1 X30.154 Y14.434 F400.0
G1 X30.296 Y14.574 F400.0
G1 X30.436 Y14.718 F400.0
G1 X30.572 Y14.864 F400.0
G1 X30.706 Y15.013 F400.0
G1 X30.836 Y15.165 F400.0
G1 X30.964 Y15.319 F400.0
G1 X31.088 Y15.476 F400.0
G1 X31.209 Y15.635 F400.0
G1 X31.327 Y15.797 F400.0
G1 X31.442 Y15.961 F400.0
G1 X31.553 Y16.127 F400.0
G1 X31.661 Y16.296 F400.0
G1 X31.766 Y16.466 F400.0
G1 X31.867 Y16.639 F400.0
G1 X31.965 Y16.814 F400.0
G1 X32.059 Y16.990 F400.0
G1 X32.149 Y17.168 F400.0
G1 X32.237 Y17.349 F400.0
G1 X32.320 Y17.530 F400.0
G1 X32.400 Y17.714 F400.0
G1 X32.476 Y17.899 F400.0
G1 X32.548 Y18.086 F400.0
G1 X32.617 Y18.274 F400.0
G1 X32.682 Y18.463 F400.0
G1 X32.743 Y18.653 F400.0
G1 X32.800 Y18.845 F400.0
G1 X32.854 Y19.038 F400.0
G1 X32.903 Y19.232 F400.0
G1 X32.949 Y19.427 F400.0
G1 X32.990 Y19.622 F400.0
G1 X33.028 Y19.819 F400.0
G1 X33.062 Y20.016 F400.0
G1 X33.092 Y20.214 F400.0
G1 X33.118 Y20.412 F400.0
G1 X33.140 Y20.611 F400.0
G1 X33.158 Y20.810 F400.0
G1 X33.172 Y21.010 F400.0
G1 X33.182 Y21.210 F400.0
G1 X33.188 Y21.410 F400.0
G1 X33.190 Y21.610 F400.0
G0 Z1.000
G0 X33.190 Y21.610
G1 Z-4.500 F100.0
G1 X33.188 Y21.810 F400.0
G1 X33.182 Y22.010 F400.0
G1 X33.172 Y22.210 F400.0
G1 X33.158 Y22.410 F400.0
G1 X33.140 Y22.609 F400.0
G1 X33.118 Y22.808 F400.0
G1 X33.092 Y23.006 F400.0
G1 X33.062 Y23.204 F400.0
G1 X33.028 Y23.401 F400.0
G1 X32.990 Y23.598 F400.0
G1 X32.949 Y23.793 F400.0
G1 X32.903 Y23.988 F400.0
G1 X32.854 Y24.182 F400.0
G1 X32.800 Y24.375 F400.0
G1 X32.743 Y24.567 F400.0
G1 X32.682 Y24.757 F400.0
G1 X32.617 Y24.946 F400.0
G1 X32.548 Y25.134 F400.0
G1 X32.476 Y25.321 F400.0
G1 X32.400 Y25.506 F400.0
G1 X32.320 Y25.690 F400.0
G1 X32.237 Y25.871 F400.0
G1 X32.149 Y26.052 F400.0
G1 X32.059 Y26.230 F400.0
G1 X31.965 Y26.406 F400.0
G1 X31.867 Y26.581 F400.0
G1 X31.766 Y26.754 F400.0
G1 X31.661 Y26.924 F400.0
G1 X31.553 Y27.093 F400.0
G1 X31.442 Y27.259 F400.0
G1 X31.327 Y27.423 F400.0
G1 X31.209 Y27.585 F400.0
G1 X31.088 Y27.744 F400.0
G1 X30.964 Y27.901 F400.0
G1 X30.836 Y28.055 F400.0
G1 X30.706 Y28.207 F400.0
G1 X30.572 Y28.356 F400.0
G1 X30.436 Y28.502 F400.0
G1 X30.296 Y28.646 F400.0
G1 X30.154 Y28.786 F400.0
G1 X30.009 Y28.924 F400.0
G1 X29.861 Y29.059 F400.0
G1 X29.711 Y29.191 F400.0
G1 X29.558 Y29.320 F400.0
G1 X29.403 Y29.446 F400.0
G1 X29.244 Y29.569 F400.0
G1 X29.084 Y29.688 F400.0
G1 X28.921 Y29.805 F400.0
G1 X28.756 Y29.918 F400.0
G1 X28.589 Y30.027 F400.0
G1 X28.419 Y30.134 F400.0
G1 X28.248 Y30.237 F400.0
G1 X28.074 Y30.336 F400.0
G1 X27.898 Y30.432 F400.0
G1 X27.721 Y30.525 F400.0
G1 X27.542 Y30.613 F400.0
G1 X27.361 Y30.699 F400.0
G1 X27.178 Y30.780 F400.0
G1 X26.994 Y30.858 F400.0
G1 X26.808 Y30.933 F400.0
G1 X26.621 Y31.003 F400.0
G1 X26.432 Y31.070 F400.0
G1 X26.242 Y31.133 F400.0
G1 X26.051 Y31.192 F400.0
G1 X25.859 Y31.247 F400.0
G1 X25.665 Y31.299 F400.0
G1 X25.471 Y31.346 F400.0
G1 X25.276 Y31.390 F400.0
G1 X25.080 Y31.430 F400.0
G1 X24.883 Y31.466 F400.0
G1 X24.685 Y31.498 F400.0
G1 X24.487 Y31.526 F400.0
G1 X24.288 Y31.549 F400.0
G1 X24.089 Y31.569 F400.0
G1 X23.890 Y31.585 F400.0
G1 X23.690 Y31.597 F400.0
G1 X23.490 Y31.605 F400.0
G1 X23.290 Y31.609 F400.0
G1 X23.090 Y31.609 F400.0
G1 X22.890 Y31.605 F400.0
G1 X22.690 Y31.597 F400.0
G1 X22.490 Y31.585 F400.0
G1 X22.291 Y31.569 F400.0
G1 X22.092 Y31.549 F400.0
G1 X21.893 Y31.526 F400.0
G1 X21.695 Y31.498 F400.0
G1 X21.497 Y31.466 F400.0
G1 X21.300 Y31.430 F400.0
G1 X21.104 Y31.390 F400.0
G1 X20.909 Y31.346 F400.0
G1 X20.715 Y31.299 F400.0
G1 X20.521 Y31.247 F400.0
G1 X20.329 Y31.192 F400.0
G1 X20.138 Y31.133 F400.0
G1 X19.948 Y31.070 F400.0
G1 X19.759 Y31.003 F400.0
G1 X19.572 Y30.933 F400.0
G1 X19.386 Y30.858 F400.0
G1 X19.202 Y30.780 F400.0
G1 X19.019 Y30.699 F400.0
G1 X18.838 Y30.613 F400.0
G1 X18.659 Y30.525 F400.0
G1 X18.482 Y30.432 F400.0
G1 X18.306 Y30.336 F400.0
G1 X18.132 Y30.237 F400.0
G1 X17.961 Y30.134 F400.0
G1 X17.791 Y30.027 F400.0
G1 X17.624 Y29.918 F400.0
G1 X17.459 Y29.805 F400.0
G1 X17.296 Y29.688 F400.0
G1 X17.136 Y29.569 F400.0
G1 X16.977 Y29.446 F400.0
G1 X16.822 Y29.320 F400.0
G1 X16.669 Y29.191 F400.0
G1 X16.519 Y29.059 F400.0
G1 X16.371 Y28.924 F400.0
G1 X16.226 Y28.786 F400.0
G1 X16.084 Y28.646 F400.0
G1 X15.944 Y28.502 F400.0
G1 X15.808 Y28.356 F400.0
G1 X15.674 Y28.207 F400.0
G1 X15.544 Y28.055 F400.0
G1 X15.416 Y27.901 F400.0
G1 X15.292 Y27.744 F400.0
G1 X15.171 Y27.585 F400.0
G1 X15.053 Y27.423 F400.0
G1 X14.938 Y27.259 F400.0
G1 X14.827 Y27.093 F400.0
G1 X14.719 Y26.924 F400.0
G1 X14.614 Y26.754 F400.0
G1 X14.513 Y26.581 F400.0
G1 X14.415 Y26.406 F400.0
G1 X14.321 Y26.230 F400.0
G1 X14.231 Y26.052 F400.0
G1 X14.143 Y25.871 F400.0
G1 X14.060 Y25.690 F400.0
G1 X13.980 Y25.506 F400.0
G1 X13.904 Y25.321 F400.0
G1 X13.832 Y25.134 F400.0
G1 X13.763 Y24.946 F400.0
G1 X13.698 Y24.757 F400.0
G1 X13.637 Y24.567 F400.0
G1 X13.580 Y24.375 F400.0
G1 X13.526 Y24.182 F400.0
G1 X13.477 Y23.988 F400.0
G1 X13.431 Y23.793 F400.0
G1 X13.390 Y23.598 F400.0
G1 X13.352 Y23.401 F400.0
G1 X13.318 Y23.204 F400.0
G1 X13.288 Y23.006 F400.0
G1 X13.262 Y22.808 F400.0
G1 X13.240 Y22.609 F400.0
G1 X13.222 Y22.410 F400.0
G1 X13.208 Y22.210 F400.0
G1 X13.198 Y22.010 F400.0
G1 X13.192 Y21.810 F400.0
G1 X13.190 Y21.610 F400.0
G1 X13.192 Y21.410 F400.0
G1 X13.198 Y21.210 F400.0
G1 X13.208 Y21.010 F400.0
G1 X13.222 Y20.810 F400.0
G1 X13.240 Y20.611 F400.0
G1 X13.262 Y20.412 F400.0
G1 X13.288 Y20.214 F400.0
G1 X13.318 Y20.016 F400.0
G1 X13.352 Y19.819 F400.0
G1 X13.390 Y19.622 F400.0
G1 X13.431 Y19.427 F400.0
G1 X13.477 Y19.232 F400.0
G1 X13.526 Y19.038 F400.0
G1 X13.580 Y18.845 F400.0
G1 X13.637 Y18.653 F400.0
G1 X13.698 Y18.463 F400.0
G1 X13.763 Y18.274 F400.0
G1 X13.832 Y18.086 F400.0
G1 X13.904 Y17.899 F400.0
G1 X13.980 Y17.714 F400.0
G1 X14.060 Y17.530 F400.0
G1 X14.143 Y17.349 F400.0
G1 X14.231 Y17.168 F400.0
G1 X14.321 Y16.990 F400.0
G1 X14.415 Y16.814 F400.0
G1 X14.513 Y16.639 F400.0
G1 X14.614 Y16.466 F400.0
G1 X14.719 Y16.296 F400.0
G1 X14.827 Y16.127 F400.0
G1 X14.938 Y15.961 F400.0
G1 X15.053 Y15.797 F400.0
G1 X15.171 Y15.635 F400.0
G1 X15.292 Y15.476 F400.0
G1 X15.416 Y15.319 F400.0
G1 X15.544 Y15.165 F400.0
G1 X15.674 Y15.013 F400.0
G1 X15.808 Y14.864 F400.0
G1 X15.944 Y14.718 F400.0
G1 X16.084 Y14.574 F400.0
G1 X16.226 Y14.434 F400.0
G1 X16.371 Y14.296 F400.0
G1 X16.519 Y14.161 F400.0
G1 X16.669 Y14.029 F400.0
G1 X16.822 Y13.900 F400.0
G1 X16.977 Y13.774 F400.0
G1 X17.136 Y13.651 F400.0
G1 X17.296 Y13.532 F400.0
G1 X17.459 Y13.415 F400.0
G1 X17.624 Y13.302 F400.0
G1 X17.791 Y13.193 F400.0
G1 X17.961 Y13.086 F400.0
G1 X18.132 Y12.983 F400.0
G1 X18.306 Y12.884 F400.0
G1 X18.482 Y12.788 F400.0
G1 X18.659 Y12.695 F400.0
G1 X18.838 Y12.607 F400.0
G1 X19.019 Y12.521 F400.0
G1 X19.202 Y12.440 F400.0
G1 X19.386 Y12.362 F400.0
G1 X19.572 Y12.287 F400.0
G1 X19.759 Y12.217 F400.0
G1 X19.948 Y12.150 F400.0
G1 X20.138 Y12.087 F400.0
G1 X20.329 Y12.028 F400.0
G1 X20.521 Y11.973 F400.0
G1 X20.715 Y11.921 F400.0
G1 X20.909 Y11.874 F400.0
G1 X21.104 Y11.830 F400.0
G1 X21.300 Y11.790 F400.0
G1 X21.497 Y11.754 F400.0
G1 X21.695 Y11.722 F400.0
G1 X21.893 Y11.694 F400.0
G1 X22.092 Y11.671 F400.0
G1 X22.291 Y11.651 F400.0
G1 X22.490 Y11.635 F400.0
G1 X22.690 Y11.623 F400.0
G1 X22.890 Y11.615 F400.0
G1 X23.090 Y11.611 F400.0
G1 X23.290 Y11.611 F400.0
G1 X23.490 Y11.615 F400.0
G1 X23.690 Y11.623 F400.0
G1 X23.890 Y11.635 F400.0
G1 X24.089 Y11.651 F400.0
G1 X24.288 Y11.671 F400.0
G1 X24.487 Y11.694 F400.0
G1 X24.685 Y11.722 F400.0
G1 X24.883 Y11.754 F400.0
G1 X25.080 Y11.790 F400.0
G1 X25.276 Y11.830 F400.0
G1 X25.471 Y11.874 F400.0
G1 X25.665 Y11.921 F400.0
G1 X25.859 Y11.973 F400.0
G1 X26.051 Y12.028 F400.0
G1 X26.242 Y12.087 F400.0
G1 X26.432 Y12.150 F400.0
G1 X26.621 Y12.217 F400.0
G1 X26.808 Y12.287 F400.0
G1 X26.994 Y12.362 F400.0
G1 X27.178 Y12.440 F400.0
G1 X27.361 Y12.521 F400.0
G1 X27.542 Y12.607 F400.0
G1 X27.721 Y12.695 F400.0
G1 X27.898 Y12.788 F400.0
G1 X28.074 Y12.884 F400.0
G1 X28.248 Y12.983 F400.0
G1 X28.419 Y13.086 F400.0
G1 X28.589 Y13.193 F400.0
G1 X28.756 Y13.302 F400.0
G1 X28.921 Y13.415 F400.0
G1 X29.084 Y13.532 F400.0
G1 X29.244 Y13.651 F400.0
G1 X29.403 Y13.774 F400.0
G1 X29.558 Y13.900 F400.0
G1 X29.711 Y14.029 F400.0
G1 X29.861 Y14.161 F400.0
G1 X30.009 Y14.296 F400.0
G1 X30.154 Y14.434 F400.0
G1 X30.296 Y14.574 F400.0
G1 X30.436 Y14.718 F400.0
G1 X30.572 Y14.864 F400.0
G1 X30.706 Y15.013 F400.0
G1 X30.836 Y15.165 F400.0
G1 X30.964 Y15.319 F400.0
G1 X31.088 Y15.476 F400.0
G1 X31.209 Y15.635 F400.0
G1 X31.327 Y15.797 F400.0
G1 X31.442 Y15.961 F400.0
G1 X31.553 Y16.127 F400.0
G1 X31.661 Y16.296 F400.0
G1 X31.766 Y16.466 F400.0
G1 X31.867 Y16.639 F400.0
G1 X31.965 Y16.814 F400.0
G1 X32.059 Y16.990 F400.0
G1 X32.149 Y17.168 F400.0
G1 X32.237 Y17.349 F400.0
G1 X32.320 Y17.530 F400.0
G1 X32.400 Y17.714 F400.0
G1 X32.476 Y17.899 F400.0
G1 X32.548 Y18.086 F400.0
G1 X32.617 Y18.274 F400.0
G1 X32.682 Y18.463 F400.0
G1 X32.743 Y18.653 F400.0
G1 X32.800 Y18.845 F400.0
G1 X32.854 Y19.038 F400.0
G1 X32.903 Y19.232 F400.0
G1 X32.949 Y19.427 F400.0
G1 X32.990 Y19.622 F400.0
G1 X33.028 Y19.819 F400.0
G1 X33.062 Y20.016 F400.0
G1 X33.092 Y20.214 F400.0
G1 X33.118 Y20.412 F400.0
G1 X33.140 Y20.611 F400.0
G1 X33.158 Y20.810 F400.0
G1 X33.172 Y21.010 F400.0
G1 X33.182 Y21.210 F400.0
G1 X33.188 Y21.410 F400.0
G1 X33.190 Y21.610 F400.0
G0 Z1.000
G0 X33.190 Y21.610
G1 Z-5.000 F100.0
G1 X33.188 Y21.810 F400.0
G1 X33.182 Y22.010 F400.0
G1 X33.172 Y22.210 F400.0
G1 X33.158 Y22.410 F400.0
G1 X33.140 Y22.609 F400.0
G1 X33.118 Y22.808 F400.0
G1 X33.092 Y23.006 F400.0
G1 X33.062 Y23.204 F400.0
G1 X33.028 Y23.401 F400.0
G1 X32.990 Y23.598 F400.0
G1 X32.949 Y23.793 F400.0
G1 X32.903 Y23.988 F400.0
G1 X32.854 Y24.182 F400.0
G1 X32.800 Y24.375 F400.0
G1 X32.743 Y24.567 F400.0
G1 X32.682 Y24.757 F400.0
G1 X32.617 Y24.946 F400.0
G1 X32.548 Y25.134 F400.0
G1 X32.476 Y25.321 F400.0
G1 X32.400 Y25.506 F400.0
G1 X32.320 Y25.690 F400.0
G1 X32.237 Y25.871 F400.0
G1 X32.149 Y26.052 F400.0
G1 X32.059 Y26.230 F400.0
G1 X31.965 Y26.406 F400.0
G1 X31.867 Y26.581 F400.0
G1 X31.766 Y26.754 F400.0
G1 X31.661 Y26.924 F400.0
G1 X31.553 Y27.093 F400.0
G1 X31.442 Y27.259 F400.0
G1 X31.327 Y27.423 F400.0
G1 X31.209 Y27.585 F400.0
G1 X31.088 Y27.744 F400.0
G1 X30.964 Y27.901 F400.0
G1 X30.836 Y28.055 F400.0
G1 X30.706 Y28.207 F400.0
G1 X30.572 Y28.356 F400.0
G1 X30.436 Y28.502 F400.0
G1 X30.296 Y28.646 F400.0
G1 X30.154 Y28.786 F400.0
G1 X30.009 Y28.924 F400.0
G1 X29.861 Y29.059 F400.0
G1 X29.711 Y29.191 F400.0
G1 X29.558 Y29.320 F400.0
G1 X29.403 Y29.446 F400.0
G1 X29.244 Y29.569 F400.0
G1 X29.084 Y29.688 F400.0
G1 X28.921 Y29.805 F400.0
G1 X28.756 Y29.918 F400.0
G1 X28.589 Y30.027 F400.0
G1 X28.419 Y30.134 F400.0
G1 X28.248 Y30.237 F400.0
G1 X28.074 Y30.336 F400.0
G1 X27.898 Y30.432 F400.0
G1 X27.721 Y30.525 F400.0
G1 X27.542 Y30.613 F400.0
G1 X27.361 Y30.699 F400.0
G1 X27.178 Y30.780 F400.0
G1 X26.994 Y30.858 F400.0
G1 X26.808 Y30.933 F400.0
G1 X26.621 Y31.003 F400.0
G1 X26.432 Y31.070 F400.0
G1 X26.242 Y31.133 F400.0
G1 X26.051 Y31.192 F400.0
G1 X25.859 Y31.247 F400.0
G1 X25.665 Y31.299 F400.0
G1 X25.471 Y31.346 F400.0
G1 X25.276 Y31.390 F400.0
G1 X25.080 Y31.430 F400.0
G1 X24.883 Y31.466 F400.0
G1 X24.685 Y31.498 F400.0
G1 X24.487 Y31.526 F400.0
G1 X24.288 Y31.549 F400.0
G1 X24.089 Y31.569 F400.0
G1 X23.890 Y31.585 F400.0
G1 X23.690 Y31.597 F400.0
G1 X23.490 Y31.605 F400.0
G1 X23.290 Y31.609 F400.0
G1 X23.090 Y31.609 F400.0
G1 X22.890 Y31.605 F400.0
G1 X22.690 Y31.597 F400.0
G1 X22.490 Y31.585 F400.0
G1 X22.291 Y31.569 F400.0
G1 X22.092 Y31.549 F400.0
G1 X21.893 Y31.526 F400.0
G1 X21.695 Y31.498 F400.0
G1 X21.497 Y31.466 F400.0
G1 X21.300 Y31.430 F400.0
G1 X21.104 Y31.390 F400.0
G1 X20.909 Y31.346 F400.0
G1 X20.715 Y31.299 F400.0
G1 X20.521 Y31.247 F400.0
G1 X20.329 Y31.192 F400.0
G1 X20.138 Y31.133 F400.0
G1 X19.948 Y31.070 F400.0
G1 X19.759 Y31.003 F400.0
G1 X19.572 Y30.933 F400.0
G1 X19.386 Y30.858 F400.0
G1 X19.202 Y30.780 F400.0
G1 X19.019 Y30.699 F400.0
G1 X18.838 Y30.613 F400.0
G1 X18.659 Y30.525 F400.0
G1 X18.482 Y30.432 F400.0
G1 X18.306 Y30.336 F400.0
G1 X18.132 Y30.237 F400.0
G1 X17.961 Y30.134 F400.0
G1 X17.791 Y30.027 F400.0
G1 X17.624 Y29.918 F400.0
G1 X17.459 Y29.805 F400.0
G1 X17.296 Y29.688 F400.0
G1 X17.136 Y29.569 F400.0
G1 X16.977 Y29.446 F400.0
G1 X16.822 Y29.320 F400.0
G1 X16.669 Y29.191 F400.0
G1 X16.519 Y29.059 F400.0
G1 X16.371 Y28.924 F400.0
G1 X16.226 Y28.786 F400.0
G1 X16.084 Y28.646 F400.0
G1 X15.944 Y28.502 F400.0
G1 X15.808 Y28.356 F400.0
G1 X15.674 Y28.207 F400.0
G1 X15.544 Y28.055 F400.0
G1 X15.416 Y27.901 F400.0
G1 X15.292 Y27.744 F400.0
G1 X15.171 Y27.585 F400.0
G1 X15.053 Y27.423 F400.0
G1 X14.938 Y27.259 F400.0
G1 X14.827 Y27.093 F400.0
G1 X14.719 Y26.924 F400.0
G1 X14.614 Y26.754 F400.0
G1 X14.513 Y26.581 F400.0
G1 X14.415 Y26.406 F400.0
G1 X14.321 Y26.230 F400.0
G1 X14.231 Y26.052 F400.0
G1 X14.143 Y25.871 F400.0
G1 X14.060 Y25.690 F400.0
G1 X13.980 Y25.506 F400.0
G1 X13.904 Y25.321 F400.0
G1 X13.832 Y25.134 F400.0
G1 X13.763 Y24.946 F400.0
G1 X13.698 Y24.757 F400.0
G1 X13.637 Y24.567 F400.0
G1 X13.580 Y24.375 F400.0
G1 X13.526 Y24.182 F400.0
G1 X13.477 Y23.988 F400.0
G1 X13.431 Y23.793 F400.0
G1 X13.390 Y23.598 F400.0
G1 X13.352 Y23.401 F400.0
G1 X13.318 Y23.204 F400.0
G1 X13.288 Y23.006 F400.0
G1 X13.262 Y22.808 F400.0
G1 X13.240 Y22.609 F400.0
G1 X13.222 Y22.410 F400.0
G1 X13.208 Y22.210 F400.0
G1 X13.198 Y22.010 F400.0
G1 X13.192 Y21.810 F400.0
G1 X13.190 Y21.610 F400.0
G1 X13.192 Y21.410 F400.0
G1 X13.198 Y21.210 F400.0
G1 X13.208 Y21.010 F400.0
G1 X13.222 Y20.810 F400.0
G1 X13.240 Y20.611 F400.0
G1 X13.262 Y20.412 F400.0
G1 X13.288 Y20.214 F400.0
G1 X13.318 Y20.016 F400.0
G1 X13.352 Y19.819 F400.0
G1 X13.390 Y19.622 F400.0
G1 X13.431 Y19.427 F400.0
G1 X13.477 Y19.232 F400.0
G1 X13.526 Y19.038 F400.0
G1 X13.580 Y18.845 F400.0
G1 X13.637 Y18.653 F400.0
G1 X13.698 Y18.463 F400.0
G1 X13.763 Y18.274 F400.0
G1 X13.832 Y18.086 F400.0
G1 X13.904 Y17.899 F400.0
G1 X13.980 Y17.714 F400.0
G1 X14.060 Y17.530 F400.0
G1 X14.143 Y17.349 F400.0
G1 X14.231 Y17.168 F400.0
G1 X14.321 Y16.990 F400.0
G1 X14.415 Y16.814 F400.0
G1 X14.513 Y16.639 F400.0
G1 X14.614 Y16.466 F400.0
G1 X14.719 Y16.296 F400.0
G1 X14.827 Y16.127 F400.0
G1 X14.938 Y15.961 F400.0
G1 X15.053 Y15.797 F400.0
G1 X15.171 Y15.635 F400.0
G1 X15.292 Y15.476 F400.0
G1 X15.416 Y15.319 F400.0
G1 X15.544 Y15.165 F400.0
G1 X15.674 Y15.013 F400.0
G1 X15.808 Y14.864 F400.0
G1 X15.944 Y14.718 F400.0
G1 X16.084 Y14.574 F400.0
G1 X16.226 Y14.434 F400.0
G1 X16.371 Y14.296 F400.0
G1 X16.519 Y14.161 F400.0
G1 X16.669 Y14.029 F400.0
G1 X16.822 Y13.900 F400.0
G1 X16.977 Y13.774 F400.0
G1 X17.136 Y13.651 F400.0
G1 X17.296 Y13.532 F400.0
G1 X17.459 Y13.415 F400.0
G1 X17.624 Y13.302 F400.0
G1 X17.791 Y13.193 F400.0
G1 X17.961 Y13.086 F400.0
G1 X18.132 Y12.983 F400.0
G1 X18.306 Y12.884 F400.0
G1 X18.482 Y12.788 F400.0
G1 X18.659 Y12.695 F400.0
G1 X18.838 Y12.607 F400.0
G1 X19.019 Y12.521 F400.0
G1 X19.202 Y12.440 F400.0
G1 X19.386 Y12.362 F400.0
G1 X19.572 Y12.287 F400.0
G1 X19.759 Y12.217 F400.0
G1 X19.948 Y12.150 F400.0
G1 X20.138 Y12.087 F400.0
G1 X20.329 Y12.028 F400.0
G1 X20.521 Y11.973 F400.0
G1 X20.715 Y11.921 F400.0
G1 X20.909 Y11.874 F400.0
G1 X21.104 Y11.830 F400.0
G1 X21.300 Y11.790 F400.0
G1 X21.497 Y11.754 F400.0
G1 X21.695 Y11.722 F400.0
G1 X21.893 Y11.694 F400.0
G1 X22.092 Y11.671 F400.0
G1 X22.291 Y11.651 F400.0
G1 X22.490 Y11.635 F400.0
G1 X22.690 Y11.623 F400.0
G1 X22.890 Y11.615 F400.0
G1 X23.090 Y11.611 F400.0
G1 X23.290 Y11.611 F400.0
G1 X23.490 Y11.615 F400.0
G1 X23.690 Y11.623 F400.0
G1 X23.890 Y11.635 F400.0
G1 X24.089 Y11.651 F400.0
G1 X24.288 Y11.671 F400.0
G1 X24.487 Y11.694 F400.0
G1 X24.685 Y11.722 F400.0
G1 X24.883 Y11.754 F400.0
G1 X25.080 Y11.790 F400.0
G1 X25.276 Y11.830 F400.0
G1 X25.471 Y11.874 F400.0
G1 X25.665 Y11.921 F400.0
G1 X25.859 Y11.973 F400.0
G1 X26.051 Y12.028 F400.0
G1 X26.242 Y12.087 F400.0
G1 X26.432 Y12.150 F400.0
G1 X26.621 Y12.217 F400.0
G1 X26.808 Y12.287 F400.0
G1 X26.994 Y12.362 F400.0
G1 X27.178 Y12.440 F400.0
G1 X27.361 Y12.521 F400.0
G1 X27.542 Y12.607 F400.0
G1 X27.721 Y12.695 F400.0
G1 X27.898 Y12.788 F400.0
G1 X28.074 Y12.884 F400.0
G1 X28.248 Y12.983 F400.0
G1 X28.419 Y13.086 F400.0
G1 X28.589 Y13.193 F400.0
G1 X28.756 Y13.302 F400.0
G1 X28.921 Y13.415 F400.0
G1 X29.084 Y13.532 F400.0
G1 X29.244 Y13.651 F400.0
G1 X29.403 Y13.774 F400.0
G1 X29.558 Y13.900 F400.0
G1 X29.711 Y14.029 F400.0
G1 X29.861 Y14.161 F400.0
G1 X30.009 Y14.296 F400.0
G1 X30.154 Y14.434 F400.0
G1 X30.296 Y14.574 F400.0
G1 X30.436 Y14.718 F400.0
G1 X30.572 Y14.864 F400.0
G1 X30.706 Y15.013 F400.0
G1 X30.836 Y15.165 F400.0
G1 X30.964 Y15.319 F400.0
G1 X31.088 Y15.476 F400.0
G1 X31.209 Y15.635 F400.0
G1 X31.327 Y15.797 F400.0
G1 X31.442 Y15.961 F400.0
G1 X31.553 Y16.127 F400.0
G1 X31.661 Y16.296 F400.0
G1 X31.766 Y16.466 F400.0
G1 X31.867 Y16.639 F400.0
G1 X31.965 Y16.814 F400.0
G1 X32.059 Y16.990 F400.0
G1 X32.149 Y17.168 F400.0
G1 X32.237 Y17.349 F400.0
G1 X32.320 Y17.530 F400.0
G1 X32.400 Y17.714 F400.0
G1 X32.476 Y17.899 F400.0
G1 X32.548 Y18.086 F400.0
G1 X32.617 Y18.274 F400.0
G1 X32.682 Y18.463 F400.0
G1 X32.743 Y18.653 F400.0
G1 X32.800 Y18.845 F400.0
G1 X32.854 Y19.038 F400.0
G1 X32.903 Y19.232 F400.0
G1 X32.949 Y19.427 F400.0
G1 X32.990 Y19.622 F400.0
G1 X33.028 Y19.819 F400.0
G1 X33.062 Y20.016 F400.0
G1 X33.092 Y20.214 F400.0
G1 X33.118 Y20.412 F400.0
G1 X33.140 Y20.611 F400.0
G1 X33.158 Y20.810 F400.0
G1 X33.172 Y21.010 F400.0
G1 X33.182 Y21.210 F400.0
G1 X33.188 Y21.410 F400.0
G1 X33.190 Y21.610 F400.0
G0 Z1.000
G0 X33.190 Y21.610
G1 Z-5.500 F100.0
G1 X33.188 Y21.810 F400.0
G1 X33.182 Y22.010 F400.0
G1 X33.172 Y22.210 F400.0
G1 X33.158 Y22.410 F400.0
G1 X33.140 Y22.609 F400.0
G1 X33.118 Y22.808 F400.0
G1 X33.092 Y23.006 F400.0
G1 X33.062 Y23.204 F400.0
G1 X33.028 Y23.401 F400.0
G1 X32.990 Y23.598 F400.0
G1 X32.949 Y23.793 F400.0
G1 X32.903 Y23.988 F400.0
G1 X32.854 Y24.182 F400.0
G1 X32.800 Y24.375 F400.0
G1 X32.743 Y24.567 F400.0
G1 X32.682 Y24.757 F400.0
G1 X32.617 Y24.946 F400.0
G1 X32.548 Y25.134 F400.0
G1 X32.476 Y25.321 F400.0
G1 X32.400 Y25.506 F400.0
G1 X32.320 Y25.690 F400.0
G1 X32.237 Y25.871 F400.0
G1 X32.149 Y26.052 F400.0
G1 X32.059 Y26.230 F400.0
G1 X31.965 Y26.406 F400.0
G1 X31.867 Y26.581 F400.0
G1 X31.766 Y26.754 F400.0
G1 X31.661 Y26.924 F400.0
G1 X31.553 Y27.093 F400.0
G1 X31.442 Y27.259 F400.0
G1 X31.327 Y27.423 F400.0
G1 X31.209 Y27.585 F400.0
G1 X31.088 Y27.744 F400.0
G1 X30.964 Y27.901 F400.0
G1 X30.836 Y28.055 F400.0
G1 X30.706 Y28.207 F400.0
G1 X30.572 Y28.356 F400.0
G1 X30.436 Y28.502 F400.0
G1 X30.296 Y28.646 F400.0
G1 X30.154 Y28.786 F400.0
G1 X30.009 Y28.924 F400.0
G1 X29.861 Y29.059 F400.0
G1 X29.711 Y29.191 F400.0
G1 X29.558 Y29.320 F400.0
G1 X29.403 Y29.446 F400.0
G1 X29.244 Y29.569 F400.0
G1 X29.084 Y29.688 F400.0
G1 X28.921 Y29.805 F400.0
G1 X28.756 Y29.918 F400.0
G1 X28.589 Y30.027 F400.0
G1 X28.419 Y30.134 F400.0
G1 X28.248 Y30.237 F400.0
G1 X28.074 Y30.336 F400.0
G1 X27.898 Y30.432 F400.0
G1 X27.721 Y30.525 F400.0
G1 X27.542 Y30.613 F400.0
G1 X27.361 Y30.699 F400.0
G1 X27.178 Y30.780 F400.0
G1 X26.994 Y30.858 F400.0
G1 X26.808 Y30.933 F400.0
G1 X26.621 Y31.003 F400.0
G1 X26.432 Y31.070 F400.0
G1 X26.242 Y31.133 F400.0
G1 X26.051 Y31.192 F400.0
G1 X25.859 Y31.247 F400.0
G1 X25.665 Y31.299 F400.0
G1 X25.471 Y31.346 F400.0
G1 X25.276 Y31.390 F400.0
G1 X25.080 Y31.430 F400.0
G1 X24.883 Y31.466 F400.0
G1 X24.685 Y31.498 F400.0
G1 X24.487 Y31.526 F400.0
G1 X24.288 Y31.549 F400.0
G1 X24.089 Y31.569 F400.0
G1 X23.890 Y31.585 F400.0
G1 X23.690 Y31.597 F400.0
G1 X23.490 Y31.605 F400.0
G1 X23.290 Y31.609 F400.0
G1 X23.090 Y31.609 F400.0
G1 X22.890 Y31.605 F400.0
G1 X22.690 Y31.597 F400.0
G1 X22.490 Y31.585 F400.0
G1 X22.291 Y31.569 F400.0
G1 X22.092 Y31.549 F400.0
G1 X21.893 Y31.526 F400.0
G1 X21.695 Y31.498 F400.0
G1 X21.497 Y31.466 F400.0
G1 X21.300 Y31.430 F400.0
G1 X21.104 Y31.390 F400.0
G1 X20.909 Y31.346 F400.0
G1 X20.715 Y31.299 F400.0
G1 X20.521 Y31.247 F400.0
G1 X20.329 Y31.192 F400.0
G1 X20.138 Y31.133 F400.0
G1 X19.948 Y31.070 F400.0
G1 X19.759 Y31.003 F400.0
G1 X19.572 Y30.933 F400.0
G1 X19.386 Y30.858 F400.0
G1 X19.202 Y30.780 F400.0
G1 X19.019 Y30.699 F400.0
G1 X18.838 Y30.613 F400.0
G1 X18.659 Y30.525 F400.0
G1 X18.482 Y30.432 F400.0
G1 X18.306 Y30.336 F400.0
G1 X18.132 Y30.237 F400.0
G1 X17.961 Y30.134 F400.0
G1 X17.791 Y30.027 F400.0
G1 X17.624 Y29.918 F400.0
G1 X17.459 Y29.805 F400.0
G1 X17.296 Y29.688 F400.0
G1 X17.136 Y29.569 F400.0
G1 X16.977 Y29.446 F400.0
G1 X16.822 Y29.320 F400.0
G1 X16.669 Y29.191 F400.0
G1 X16.519 Y29.059 F400.0
G1 X16.371 Y28.924 F400.0
G1 X16.226 Y28.786 F400.0
G1 X16.084 Y28.646 F400.0
G1 X15.944 Y28.502 F400.0
G1 X15.808 Y28.356 F400.0
G1 X15.674 Y28.207 F400.0
G1 X15.544 Y28.055 F400.0
G1 X15.416 Y27.901 F400.0
G1 X15.292 Y27.744 F400.0
G1 X15.171 Y27.585 F400.0
G1 X15.053 Y27.423 F400.0
G1 X14.938 Y27.259 F400.0
G1 X14.827 Y27.093 F400.0
G1 X14.719 Y26.924 F400.0
G1 X14.614 Y26.754 F400.0
G1 X14.513 Y26.581 F400.0
G1 X14.415 Y26.406 F400.0
G1 X14.321 Y26.230 F400.0
G1 X14.231 Y26.052 F400.0
G1 X14.143 Y25.871 F400.0
G1 X14.060 Y25.690 F400.0
G1 X13.980 Y25.506 F400.0
G1 X13.904 Y25.321 F400.0
G1 X13.832 Y25.134 F400.0
G1 X13.763 Y24.946 F400.0
G1 X13.698 Y24.757 F400.0
G1 X13.637 Y24.567 F400.0
G1 X13.580 Y24.375 F400.0
G1 X13.526 Y24.182 F400.0
G1 X13.477 Y23.988 F400.0
G1 X13.431 Y23.793 F400.0
G1 X13.390 Y23.598 F400.0
G1 X13.352 Y23.401 F400.0
G1 X13.318 Y23.204 F400.0
G1 X13.288 Y23.006 F400.0
G1 X13.262 Y22.808 F400.0
G1 X13.240 Y22.609 F400.0
G1 X13.222 Y22.410 F400.0
G1 X13.208 Y22.210 F400.0
G1 X13.198 Y22.010 F400.0
G1 X13.192 Y21.810 F400.0
G1 X13.190 Y21.610 F400.0
G1 X13.192 Y21.410 F400.0
G1 X13.198 Y21.210 F400.0
G1 X13.208 Y21.010 F400.0
G1 X13.222 Y20.810 F400.0
G1 X13.240 Y20.611 F400.0
G1 X13.262 Y20.412 F400.0
G1 X13.288 Y20.214 F400.0
G1 X13.318 Y20.016 F400.0
G1 X13.352 Y19.819 F400.0
G1 X13.390 Y19.622 F400.0
G1 X13.431 Y19.427 F400.0
G1 X13.477 Y19.232 F400.0
G1 X13.526 Y19.038 F400.0
G1 X13.580 Y18.845 F400.0
G1 X13.637 Y18.653 F400.0
G1 X13.698 Y18.463 F400.0
G1 X13.763 Y18.274 F400.0
G1 X13.832 Y18.086 F400.0
G1 X13.904 Y17.899 F400.0
G1 X13.980 Y17.714 F400.0
G1 X14.060 Y17.530 F400.0
G1 X14.143 Y17.349 F400.0
G1 X14.231 Y17.168 F400.0
G1 X14.321 Y16.990 F400.0
G1 X14.415 Y16.814 F400.0
G1 X14.513 Y16.639 F400.0
G1 X14.614 Y16.466 F400.0
G1 X14.719 Y16.296 F400.0
G1 X14.827 Y16.127 F400.0
G1 X14.938 Y15.961 F400.0
G1 X15.053 Y15.797 F400.0
G1 X15.171 Y15.635 F400.0
G1 X15.292 Y15.476 F400.0
G1 X15.416 Y15.319 F400.0
G1 X15.544 Y15.165 F400.0
G1 X15.674 Y15.013 F400.0
G1 X15.808 Y14.864 F400.0
G1 X15.944 Y14.718 F400.0
G1 X16.084 Y14.574 F400.0
G1 X16.226 Y14.434 F400.0
G1 X16.371 Y14.296 F400.0
G1 X16.519 Y14.161 F400.0
G1 X16.669 Y14.029 F400.0
G1 X16.822 Y13.900 F400.0
G1 X16.977 Y13.774 F400.0
G1 X17.136 Y13.651 F400.0
G1 X17.296 Y13.532 F400.0
G1 X17.459 Y13.415 F400.0
G1 X17.624 Y13.302 F400.0
G1 X17.791 Y13.193 F400.0
G1 X17.961 Y13.086 F400.0
G1 X18.132 Y12.983 F400.0
G1 X18.306 Y12.884 F400.0
G1 X18.482 Y12.788 F400.0
G1 X18.659 Y12.695 F400.0
G1 X18.838 Y12.607 F400.0
G1 X19.019 Y12.521 F400.0
G1 X19.202 Y12.440 F400.0
G1 X19.386 Y12.362 F400.0
G1 X19.572 Y12.287 F400.0
G1 X19.759 Y12.217 F400.0
G1 X19.948 Y12.150 F400.0
G1 X20.138 Y12.087 F400.0
G1 X20.329 Y12.028 F400.0
G1 X20.521 Y11.973 F400.0
G1 X20.715 Y11.921 F400.0
G1 X20.909 Y11.874 F400.0
G1 X21.104 Y11.830 F400.0
G1 X21.300 Y11.790 F400.0
G1 X21.497 Y11.754 F400.0
G1 X21.695 Y11.722 F400.0
G1 X21.893 Y11.694 F400.0
G1 X22.092 Y11.671 F400.0
G1 X22.291 Y11.651 F400.0
G1 X22.490 Y11.635 F400.0
G1 X22.690 Y11.623 F400.0
G1 X22.890 Y11.615 F400.0
G1 X23.090 Y11.611 F400.0
G1 X23.290 Y11.611 F400.0
G1 X23.490 Y11.615 F400.0
G1 X23.690 Y11.623 F400.0
G1 X23.890 Y11.635 F400.0
G1 X24.089 Y11.651 F400.0
G1 X24.288 Y11.671 F400.0
G1 X24.487 Y11.694 F400.0
G1 X24.685 Y11.722 F400.0
G1 X24.883 Y11.754 F400.0
G1 X25.080 Y11.790 F400.0
G1 X25.276 Y11.830 F400.0
G1 X25.471 Y11.874 F400.0
G1 X25.665 Y11.921 F400.0
G1 X25.859 Y11.973 F400.0
G1 X26.051 Y12.028 F400.0
G1 X26.242 Y12.087 F400.0
G1 X26.432 Y12.150 F400.0
G1 X26.621 Y12.217 F400.0
G1 X26.808 Y12.287 F400.0
G1 X26.994 Y12.362 F400.0
G1 X27.178 Y12.440 F400.0
G1 X27.361 Y12.521 F400.0
G1 X27.542 Y12.607 F400.0
G1 X27.721 Y12.695 F400.0
G1 X27.898 Y12.788 F400.0
G1 X28.074 Y12.884 F400.0
G1 X28.248 Y12.983 F400.0
G1 X28.419 Y13.086 F400.0
G1 X28.589 Y13.193 F400.0
G1 X28.756 Y13.302 F400.0
G1 X28.921 Y13.415 F400.0
G1 X29.084 Y13.532 F400.0
G1 X29.244 Y13.651 F400.0
G1 X29.403 Y13.774 F400.0
G1 X29.558 Y13.900 F400.0
G1 X29.711 Y14.029 F400.0
G1 X29.861 Y14.161 F400.0
G1 X30.009 Y14.296 F400.0
G1 X30.154 Y14.434 F400.0
G1 X30.296 Y14.574 F400.0
G1 X30.436 Y14.718 F400.0
G1 X30.572 Y14.864 F400.0
G1 X30.706 Y15.013 F400.0
G1 X30.836 Y15.165 F400.0
G1 X30.964 Y15.319 F400.0
G1 X31.088 Y15.476 F400.0
G1 X31.209 Y15.635 F400.0
G1 X31.327 Y15.797 F400.0
G1 X31.442 Y15.961 F400.0
G1 X31.553 Y16.127 F400.0
G1 X31.661 Y16.296 F400.0
G1 X31.766 Y16.466 F400.0
G1 X31.867 Y16.639 F400.0
G1 X31.965 Y16.814 F400.0
G1 X32.059 Y16.990 F400.0
G1 X32.149 Y17.168 F400.0
G1 X32.237 Y17.349 F400.0
G1 X32.320 Y17.530 F400.0
G1 X32.400 Y17.714 F400.0
G1 X32.476 Y17.899 F400.0
G1 X32.548 Y18.086 F400.0
G1 X32.617 Y18.274 F400.0
G1 X32.682 Y18.463 F400.0
G1 X32.743 Y18.653 F400.0
G1 X32.800 Y18.845 F400.0
G1 X32.854 Y19.038 F400.0
G1 X32.903 Y19.232 F400.0
G1 X32.949 Y19.427 F400.0
G1 X32.990 Y19.622 F400.0
G1 X33.028 Y19.819 F400.0
G1 X33.062 Y20.016 F400.0
G1 X33.092 Y20.214 F400.0
G1 X33.118 Y20.412 F400.0
G1 X33.140 Y20.611 F400.0
G1 X33.158 Y20.810 F400.0
G1 X33.172 Y21.010 F400.0
G1 X33.182 Y21.210 F400.0
G1 X33.188 Y21.410 F400.0
G1 X33.190 Y21.610 F400.0
G0 Z1.000
G0 X33.190 Y21.610
G1 Z-6.000 F100.0
G1 X33.188 Y21.810 F400.0
G1 X33.182 Y22.010 F400.0
G1 X33.172 Y22.210 F400.0
G1 X33.158 Y22.410 F400.0
G1 X33.140 Y22.609 F400.0
G1 X33.118 Y22.808 F400.0
G1 X33.092 Y23.006 F400.0
G1 X33.062 Y23.204 F400.0
G1 X33.028 Y23.401 F400.0
G1 X32.990 Y23.598 F400.0
G1 X32.949 Y23.793 F400.0
G1 X32.903 Y23.988 F400.0
G1 X32.854 Y24.182 F400.0
G1 X32.800 Y24.375 F400.0
G1 X32.743 Y24.567 F400.0
G1 X32.682 Y24.757 F400.0
G1 X32.617 Y24.946 F400.0
G1 X32.548 Y25.134 F400.0
G1 X32.476 Y25.321 F400.0
G1 X32.400 Y25.506 F400.0
G1 X32.320 Y25.690 F400.0
G1 X32.237 Y25.871 F400.0
G1 X32.149 Y26.052 F400.0
G1 X32.059 Y26.230 F400.0
G1 X31.965 Y26.406 F400.0
G1 X31.867 Y26.581 F400.0
G1 X31.766 Y26.754 F400.0
G1 X31.661 Y26.924 F400.0
G1 X31.553 Y27.093 F400.0
G1 X31.442 Y27.259 F400.0
G1 X31.327 Y27.423 F400.0
G1 X31.209 Y27.585 F400.0
G1 X31.088 Y27.744 F400.0
G1 X30.964 Y27.901 F400.0
G1 X30.836 Y28.055 F400.0
G1 X30.706 Y28.207 F400.0
G1 X30.572 Y28.356 F400.0
G1 X30.436 Y28.502 F400.0
G1 X30.296 Y28.646 F400.0
G1 X30.154 Y28.786 F400.0
G1 X30.009 Y28.924 F400.0
G1 X29.861 Y29.059 F400.0
G1 X29.711 Y29.191 F400.0
G1 X29.558 Y29.320 F400.0
G1 X29.403 Y29.446 F400.0
G1 X29.244 Y29.569 F400.0
G1 X29.084 Y29.688 F400.0
G1 X28.921 Y29.805 F400.0
G1 X28.756 Y29.918 F400.0
G1 X28.589 Y30.027 F400.0
G1 X28.419 Y30.134 F400.0
G1 X28.248 Y30.237 F400.0
G1 X28.074 Y30.336 F400.0
G1 X27.898 Y30.432 F400.0
G1 X27.721 Y30.525 F400.0
G1 X27.542 Y30.613 F400.0
G1 X27.361 Y30.699 F400.0
G1 X27.178 Y30.780 F400.0
G1 X26.994 Y30.858 F400.0
G1 X26.808 Y30.933 F400.0
G1 X26.621 Y31.003 F400.0
G1 X26.432 Y31.070 F400.0
G1 X26.242 Y31.133 F400.0
G1 X26.051 Y31.192 F400.0
G1 X25.859 Y31.247 F400.0
G1 X25.665 Y31.299 F400.0
G1 X25.471 Y31.346 F400.0
G1 X25.276 Y31.390 F400.0
G1 X25.080 Y31.430 F400.0
G1 X24.883 Y31.466 F400.0
G1 X24.685 Y31.498 F400.0
G1 X24.487 Y31.526 F400.0
G1 X24.288 Y31.549 F400.0
G1 X24.089 Y31.569 F400.0
G1 X23.890 Y31.585 F400.0
G1 X23.690 Y31.597 F400.0
G1 X23.490 Y31.605 F400.0
G1 X23.290 Y31.609 F400.0
G1 X23.090 Y31.609 F400.0
G1 X22.890 Y31.605 F400.0
G1 X22.690 Y31.597 F400.0
G1 X22.490 Y31.585 F400.0
G1 X22.291 Y31.569 F400.0
G1 X22.092 Y31.549 F400.0
G1 X21.893 Y31.526 F400.0
G1 X21.695 Y31.498 F400.0
G1 X21.497 Y31.466 F400.0
G1 X21.300 Y31.430 F400.0
G1 X21.104 Y31.390 F400.0
G1 X20.909 Y31.346 F400.0
G1 X20.715 Y31.299 F400.0
G1 X20.521 Y31.247 F400.0
G1 X20.329 Y31.192 F400.0
G1 X20.138 Y31.133 F400.0
G1 X19.948 Y31.070 F400.0
G1 X19.759 Y31.003 F400.0
G1 X19.572 Y30.933 F400.0
G1 X19.386 Y30.858 F400.0
G1 X19.202 Y30.780 F400.0
G1 X19.019 Y30.699 F400.0
G1 X18.838 Y30.613 F400.0
G1 X18.659 Y30.525 F400.0
G1 X18.482 Y30.432 F400.0
G1 X18.306 Y30.336 F400.0
G1 X18.132 Y30.237 F400.0
G1 X17.961 Y30.134 F400.0
G1 X17.791 Y30.027 F400.0
G1 X17.624 Y29.918 F400.0
G1 X17.459 Y29.805 F400.0
G1 X17.296 Y29.688 F400.0
G1 X17.136 Y29.569 F400.0
G1 X16.977 Y29.446 F400.0
G1 X16.822 Y29.320 F400.0
G1 X16.669 Y29.191 F400.0
G1 X16.519 Y29.059 F400.0
G1 X16.371 Y28.924 F400.0
G1 X16.226 Y28.786 F400.0
G1 X16.084 Y28.646 F400.0
G1 X15.944 Y28.502 F400.0
G1 X15.808 Y28.356 F400.0
G1 X15.674 Y28.207 F400.0
G1 X15.544 Y28.055 F400.0
G1 X15.416 Y27.901 F400.0
G1 X15.292 Y27.744 F400.0
G1 X15.171 Y27.585 F400.0
G1 X15.053 Y27.423 F400.0
G1 X14.938 Y27.259 F400.0
G1 X14.827 Y27.093 F400.0
G1 X14.719 Y26.924 F400.0
G1 X14.614 Y26.754 F400.0
G1 X14.513 Y26.581 F400.0
G1 X14.415 Y26.406 F400.0
G1 X14.321 Y26.230 F400.0
G1 X14.231 Y26.052 F400.0
G1 X14.143 Y25.871 F400.0
G1 X14.060 Y25.690 F400.0
G1 X13.980 Y25.506 F400.0
G1 X13.904 Y25.321 F400.0
G1 X13.832 Y25.134 F400.0
G1 X13.763 Y24.946 F400.0
G1 X13.698 Y24.757 F400.0
G1 X13.637 Y24.567 F400.0
G1 X13.580 Y24.375 F400.0
G1 X13.526 Y24.182 F400.0
G1 X13.477 Y23.988 F400.0
G1 X13.431 Y23.793 F400.0
G1 X13.390 Y23.598 F400.0
G1 X13.352 Y23.401 F400.0
G1 X13.318 Y23.204 F400.0
G1 X13.288 Y23.006 F400.0
G1 X13.262 Y22.808 F400.0
G1 X13.240 Y22.609 F400.0
G1 X13.222 Y22.410 F400.0
G1 X13.208 Y22.210 F400.0
G1 X13.198 Y22.010 F400.0
G1 X13.192 Y21.810 F400.0
G1 X13.190 Y21.610 F400.0
G1 X13.192 Y21.410 F400.0
G1 X13.198 Y21.210 F400.0
G1 X13.208 Y21.010 F400.0
G1 X13.222 Y20.810 F400.0
G1 X13.240 Y20.611 F400.0
G1 X13.262 Y20.412 F400.0
G1 X13.288 Y20.214 F400.0
G1 X13.318 Y20.016 F400.0
G1 X13.352 Y19.819 F400.0
G1 X13.390 Y19.622 F400.0
G1 X13.431 Y19.427 F400.0
G1 X13.477 Y19.232 F400.0
G1 X13.526 Y19.038 F400.0
G1 X13.580 Y18.845 F400.0
G1 X13.637 Y18.653 F400.0
G1 X13.698 Y18.463 F400.0
G1 X13.763 Y18.274 F400.0
G1 X13.832 Y18.086 F400.0
G1 X13.904 Y17.899 F400.0
G1 X13.980 Y17.714 F400.0
G1 X14.060 Y17.530 F400.0
G1 X14.143 Y17.349 F400.0
G1 X14.231 Y17.168 F400.0
G1 X14.321 Y16.990 F400.0
G1 X14.415 Y16.814 F400.0
G1 X14.513 Y16.639 F400.0
G1 X14.614 Y16.466 F400.0
G1 X14.719 Y16.296 F400.0
G1 X14.827 Y16.127 F400.0
G1 X14.938 Y15.961 F400.0
G1 X15.053 Y15.797 F400.0
G1 X15.171 Y15.635 F400.0
G1 X15.292 Y15.476 F400.0
G1 X15.416 Y15.319 F400.0
G1 X15.544 Y15.165 F400.0
G1 X15.674 Y15.013 F400.0
G1 X15.808 Y14.864 F400.0
G1 X15.944 Y14.718 F400.0
G1 X16.084 Y14.574 F400.0
G1 X16.226 Y14.434 F400.0
G1 X16.371 Y14.296 F400.0
G1 X16.519 Y14.161 F400.0
G1 X16.669 Y14.029 F400.0
G1 X16.822 Y13.900 F400.0
G1 X16.977 Y13.774 F400.0
G1 X17.136 Y13.651 F400.0
G1 X17.296 Y13.532 F400.0
G1 X17.459 Y13.415 F400.0
G1 X17.624 Y13.302 F400.0
G1 X17.791 Y13.193 F400.0
G1 X17.961 Y13.086 F400.0
G1 X18.132 Y12.983 F400.0
G1 X18.306 Y12.884 F400.0
G1 X18.482 Y12.788 F400.0
G1 X18.659 Y12.695 F400.0
G1 X18.838 Y12.607 F400.0
G1 X19.019 Y12.521 F400.0
G1 X19.202 Y12.440 F400.0
G1 X19.386 Y12.362 F400.0
G1 X19.572 Y12.287 F400.0
G1 X19.759 Y12.217 F400.0
G1 X19.948 Y12.150 F400.0
G1 X20.138 Y12.087 F400.0
G1 X20.329 Y12.028 F400.0
G1 X20.521 Y11.973 F400.0
G1 X20.715 Y11.921 F400.0
G1 X20.909 Y11.874 F400.0
G1 X21.104 Y11.830 F400.0
G1 X21.300 Y11.790 F400.0
G1 X21.497 Y11.754 F400.0
G1 X21.695 Y11.722 F400.0
G1 X21.893 Y11.694 F400.0
G1 X22.092 Y11.671 F400.0
G1 X22.291 Y11.651 F400.0
G1 X22.490 Y11.635 F400.0
G1 X22.690 Y11.623 F400.0
G1 X22.890 Y11.615 F400.0
G1 X23.090 Y11.611 F400.0
G1 X23.290 Y11.611 F400.0
G1 X23.490 Y11.615 F400.0
G1 X23.690 Y11.623 F400.0
G1 X23.890 Y11.635 F400.0
G1 X24.089 Y11.651 F400.0
G1 X24.288 Y11.671 F400.0
G1 X24.487 Y11.694 F400.0
G1 X24.685 Y11.722 F400.0
G1 X24.883 Y11.754 F400.0
G1 X25.080 Y11.790 F400.0
G1 X25.276 Y11.830 F400.0
G1 X25.471 Y11.874 F400.0
G1 X25.665 Y11.921 F400.0
G1 X25.859 Y11.973 F400.0
G1 X26.051 Y12.028 F400.0
G1 X26.242 Y12.087 F400.0
G1 X26.432 Y12.150 F400.0
G1 X26.621 Y12.217 F400.0
G1 X26.808 Y12.287 F400.0
G1 X26.994 Y12.362 F400.0
G1 X27.178 Y12.440 F400.0
G1 X27.361 Y12.521 F400.0
G1 X27.542 Y12.607 F400.0
G1 X27.721 Y12.695 F400.0
G1 X27.898 Y12.788 F400.0
G1 X28.074 Y12.884 F400.0
G1 X28.248 Y12.983 F400.0
G1 X28.419 Y13.086 F400.0
G1 X28.589 Y13.193 F400.0
G1 X28.756 Y13.302 F400.0
G1 X28.921 Y13.415 F400.0
G1 X29.084 Y13.532 F400.0
G1 X29.244 Y13.651 F400.0
G1 X29.403 Y13.774 F400.0
G1 X29.558 Y13.900 F400.0
G1 X29.711 Y14.029 F400.0
G1 X29.861 Y14.161 F400.0
G1 X30.009 Y14.296 F400.0
G1 X30.154 Y14.434 F400.0
G1 X30.296 Y14.574 F400.0
G1 X30.436 Y14.718 F400.0
G1 X30.572 Y14.864 F400.0
G1 X30.706 Y15.013 F400.0
G1 X30.836 Y15.165 F400.0
G1 X30.964 Y15.319 F400.0
G1 X31.088 Y15.476 F400.0
G1 X31.209 Y15.635 F400.0
G1 X31.327 Y15.797 F400.0
G1 X31.442 Y15.961 F400.0
G1 X31.553 Y16.127 F400.0
G1 X31.661 Y16.296 F400.0
G1 X31.766 Y16.466 F400.0
G1 X31.867 Y16.639 F400.0
G1 X31.965 Y16.814 F400.0
G1 X32.059 Y16.990 F400.0
G1 X32.149 Y17.168 F400.0
G1 X32.237 Y17.349 F400.0
G1 X32.320 Y17.530 F400.0
G1 X32.400 Y17.714 F400.0
G1 X32.476 Y17.899 F400.0
G1 X32.548 Y18.086 F400.0
G1 X32.617 Y18.274 F400.0
G1 X32.682 Y18.463 F400.0
G1 X32.743 Y18.653 F400.0
G1 X32.800 Y18.845 F400.0
G1 X32.854 Y19.038 F400.0
G1 X32.903 Y19.232 F400.0
G1 X32.949 Y19.427 F400.0
G1 X32.990 Y19.622 F400.0
G1 X33.028 Y19.819 F400.0
G1 X33.062 Y20.016 F400.0
G1 X33.092 Y20.214 F400.0
G1 X33.118 Y20.412 F400.0
G1 X33.140 Y20.611 F400.0
G1 X33.158 Y20.810 F400.0
G1 X33.172 Y21.010 F400.0
G1 X33.182 Y21.210 F400.0
G1 X33.188 Y21.410 F400.0
G1 X33.190 Y21.610 F400.0
G0 Z1.000
G0 X33.190 Y21.610
G1 Z-6.500 F100.0
G1 X33.188 Y21.810 F400.0
G1 X33.182 Y22.010 F400.0
G1 X33.172 Y22.210 F400.0
G1 X33.158 Y22.410 F400.0
G1 X33.140 Y22.609 F400.0
G1 X33.118 Y22.808 F400.0
G1 X33.092 Y23.006 F400.0
G1 X33.062 Y23.204 F400.0
G1 X33.028 Y23.401 F400.0
G1 X32.990 Y23.598 F400.0
G1 X32.949 Y23.793 F400.0
G1 X32.903 Y23.988 F400.0
G1 X32.854 Y24.182 F400.0
G1 X32.800 Y24.375 F400.0
G1 X32.743 Y24.567 F400.0
G1 X32.682 Y24.757 F400.0
G1 X32.617 Y24.946 F400.0
G1 X32.548 Y25.134 F400.0
G1 X32.476 Y25.321 F400.0
G1 X32.400 Y25.506 F400.0
G1 X32.320 Y25.690 F400.0
G1 X32.237 Y25.871 F400.0
G1 X32.149 Y26.052 F400.0
G1 X32.059 Y26.230 F400.0
G1 X31.965 Y26.406 F400.0
G1 X31.867 Y26.581 F400.0
G1 X31.766 Y26.754 F400.0
G1 X31.661 Y26.924 F400.0
G1 X31.553 Y27.093 F400.0
G1 X31.442 Y27.259 F400.0
G1 X31.327 Y27.423 F400.0
G1 X31.209 Y27.585 F400.0
G1 X31.088 Y27.744 F400.0
G1 X30.964 Y27.901 F400.0
G1 X30.836 Y28.055 F400.0
G1 X30.706 Y28.207 F400.0
G1 X30.572 Y28.356 F400.0
G1 X30.436 Y28.502 F400.0
G1 X30.296 Y28.646 F400.0
G1 X30.154 Y28.786 F400.0
G1 X30.009 Y28.924 F400.0
G1 X29.861 Y29.059 F400.0
G1 X29.711 Y29.191 F400.0
G1 X29.558 Y29.320 F400.0
G1 X29.403 Y29.446 F400.0
G1 X29.244 Y29.569 F400.0
G1 X29.084 Y29.688 F400.0
G1 X28.921 Y29.805 F400.0
