; cncctl CAD/CAM — grblHAL G-code
; tool dia 10 mm, depth 2 mm, stepdown 0.5 mm
G21
G90
G17
G94
G0 Z5.000
; --- shape 1: rect / Pocket (clear inside) / depth 2 mm ---
G0 X6.100 Y6.000
G0 Z1.000
G1 Z-0.500 F100.0
G1 X26.100 Y6.000 F300.0
G0 Z1.000
G0 X6.100 Y6.000
G1 Z-1.000 F100.0
G1 X26.100 Y6.000 F300.0
G0 Z1.000
G0 X6.100 Y6.000
G1 Z-1.500 F100.0
G1 X26.100 Y6.000 F300.0
G0 Z1.000
G0 X6.100 Y6.000
G1 Z-2.000 F100.0
G1 X26.100 Y6.000 F300.0
G0 Z1.000
G0 X6.100 Y6.000
G0 Z5.000
G0 X6.100 Y6.000
G0 Z1.000
G1 Z-0.500 F100.0
G1 X26.100 Y6.000 F300.0
G1 X26.100 Y8.740 F300.0
G1 X6.100 Y8.740 F300.0
G1 X6.100 Y6.000 F300.0
G1 Z-1.000 F100.0
G1 X26.100 Y6.000 F300.0
G1 X26.100 Y8.740 F300.0
G1 X6.100 Y8.740 F300.0
G1 X6.100 Y6.000 F300.0
G1 Z-1.500 F100.0
G1 X26.100 Y6.000 F300.0
G1 X26.100 Y8.740 F300.0
G1 X6.100 Y8.740 F300.0
G1 X6.100 Y6.000 F300.0
G1 Z-2.000 F100.0
G1 X26.100 Y6.000 F300.0
G1 X26.100 Y8.740 F300.0
G1 X6.100 Y8.740 F300.0
G1 X6.100 Y6.000 F300.0
G0 Z5.000
M5
G0 Z5.000
G0 X0 Y0
M2
