; cncctl CAD/CAM — grblHAL G-code
; tool dia 2 mm, depth 2 mm, stepdown 0.5 mm
G21
G90
G17
G94
G0 Z5.000
; --- shape 1: poly / Engrave (on the line) / depth 2 mm ---
G0 X5.000 Y25.000
G0 Z1.000
G1 Z-0.500 F100.0
G1 X9.032 Y25.000 F300.0
G1 X14.136 Y11.390 F300.0
G1 X19.267 Y25.000 F300.0
G1 X23.299 Y25.000 F300.0
G1 X23.299 Y5.000 F300.0
G1 X20.660 Y5.000 F300.0
G1 X20.660 Y22.562 F300.0
G1 X15.502 Y8.845 F300.0
G1 X12.783 Y8.845 F300.0
G1 X7.626 Y22.562 F300.0
G1 X7.626 Y5.000 F300.0
G1 X5.000 Y5.000 F300.0
G1 X5.000 Y25.000 F300.0
G1 Z-1.000 F100.0
G1 X9.032 Y25.000 F300.0
G1 X14.136 Y11.390 F300.0
G1 X19.267 Y25.000 F300.0
G1 X23.299 Y25.000 F300.0
G1 X23.299 Y5.000 F300.0
G1 X20.660 Y5.000 F300.0
G1 X20.660 Y22.562 F300.0
G1 X15.502 Y8.845 F300.0
G1 X12.783 Y8.845 F300.0
G1 X7.626 Y22.562 F300.0
G1 X7.626 Y5.000 F300.0
G1 X5.000 Y5.000 F300.0
G1 X5.000 Y25.000 F300.0
G1 Z-1.500 F100.0
G1 X9.032 Y25.000 F300.0
G1 X14.136 Y11.390 F300.0
G1 X19.267 Y25.000 F300.0
G1 X23.299 Y25.000 F300.0
G1 X23.299 Y5.000 F300.0
G1 X20.660 Y5.000 F300.0
G1 X20.660 Y22.562 F300.0
G1 X15.502 Y8.845 F300.0
G1 X12.783 Y8.845 F300.0
G1 X7.626 Y22.562 F300.0
G1 X7.626 Y5.000 F300.0
G1 X5.000 Y5.000 F300.0
G1 X5.000 Y25.000 F300.0
G1 Z-2.000 F100.0
G1 X9.032 Y25.000 F300.0
G1 X14.136 Y11.390 F300.0
G1 X19.267 Y25.000 F300.0
G1 X23.299 Y25.000 F300.0
G1 X23.299 Y5.000 F300.0
G1 X20.660 Y5.000 F300.0
G1 X20.660 Y22.562 F300.0
G1 X15.502 Y8.845 F300.0
G1 X12.783 Y8.845 F300.0
G1 X7.626 Y22.562 F300.0
G1 X7.626 Y5.000 F300.0
G1 X5.000 Y5.000 F300.0
G1 X5.000 Y25.000 F300.0
G0 Z5.000
; --- shape 2: poly / Engrave (on the line) / depth 2 mm ---
G0 X29.411 Y8.403
G0 Z1.000
G1 Z-0.500 F100.0
G1 X32.237 Y8.403 F300.0
G1 X32.237 Y5.000 F300.0
G1 X29.411 Y5.000 F300.0
G1 X29.411 Y8.403 F300.0
G1 Z-1.000 F100.0
G1 X32.237 Y8.403 F300.0
G1 X32.237 Y5.000 F300.0
G1 X29.411 Y5.000 F300.0
G1 X29.411 Y8.403 F300.0
G1 Z-1.500 F100.0
G1 X32.237 Y8.403 F300.0
G1 X32.237 Y5.000 F300.0
G1 X29.411 Y5.000 F300.0
G1 X29.411 Y8.403 F300.0
G1 Z-2.000 F100.0
G1 X32.237 Y8.403 F300.0
G1 X32.237 Y5.000 F300.0
G1 X29.411 Y5.000 F300.0
G1 X29.411 Y8.403 F300.0
G0 Z5.000
; --- shape 3: poly / Engrave (on the line) / depth 2 mm ---
G0 X35.643 Y25.000
G0 Z1.000
G1 Z-0.500 F100.0
G1 X38.550 Y25.000 F300.0
G1 X44.096 Y16.775 F300.0
G1 X49.601 Y25.000 F300.0
G1 X52.508 Y25.000 F300.0
G1 X45.435 Y14.524 F300.0
G1 X45.435 Y5.000 F300.0
G1 X42.716 Y5.000 F300.0
G1 X42.716 Y14.524 F300.0
G1 X35.643 Y25.000 F300.0
G1 Z-1.000 F100.0
G1 X38.550 Y25.000 F300.0
G1 X44.096 Y16.775 F300.0
G1 X49.601 Y25.000 F300.0
G1 X52.508 Y25.000 F300.0
G1 X45.435 Y14.524 F300.0
G1 X45.435 Y5.000 F300.0
G1 X42.716 Y5.000 F300.0
G1 X42.716 Y14.524 F300.0
G1 X35.643 Y25.000 F300.0
G1 Z-1.500 F100.0
G1 X38.550 Y25.000 F300.0
G1 X44.096 Y16.775 F300.0
G1 X49.601 Y25.000 F300.0
G1 X52.508 Y25.000 F300.0
G1 X45.435 Y14.524 F300.0
G1 X45.435 Y5.000 F300.0
G1 X42.716 Y5.000 F300.0
G1 X42.716 Y14.524 F300.0
G1 X35.643 Y25.000 F300.0
G1 Z-2.000 F100.0
G1 X38.550 Y25.000 F300.0
G1 X44.096 Y16.775 F300.0
G1 X49.601 Y25.000 F300.0
G1 X52.508 Y25.000 F300.0
G1 X45.435 Y14.524 F300.0
G1 X45.435 Y5.000 F300.0
G1 X42.716 Y5.000 F300.0
G1 X42.716 Y14.524 F300.0
G1 X35.643 Y25.000 F300.0
G0 Z5.000
M5
G0 Z5.000
G0 X0 Y0
M2
