; cncctl PCB — grblHAL isolation G-code (copper top face)
; tool 2 mm, copper depth 0.15 mm
G21
G90
G17
G94
G0 Z4.000
; --- traces / channels ---
; trace: 5 mm wide, 0.25 mm deep, 4 pass(es)
G0 X8.500 Y105.713
G0 Z0.600
G1 Z-0.250 F40.0
G1 X9.474 Y11.420 F400.0
G1 X11.342 Y12.569 F400.0
G1 X10.000 Y13.240 F400.0
G1 X8.655 Y13.903 F400.0
G1 X8.305 Y13.193 F400.0
G0 Z0.600
G0 X8.500 Y105.713
G0 Z4.000
G0 X9.700 Y105.711
G0 Z0.600
G1 Z-0.250 F40.0
G1 X9.751 Y12.588 F400.0
G1 X10.268 Y13.106 F400.0
G1 X10.000 Y13.240 F400.0
G1 X9.731 Y13.373 F400.0
G1 X9.381 Y12.663 F400.0
G0 Z0.600
G0 X9.700 Y105.711
G0 Z4.000
G0 X10.900 Y105.708
G0 Z0.600
G1 Z-0.250 F40.0
G1 X10.028 Y13.756 F400.0
G1 X9.195 Y13.642 F400.0
G1 X10.000 Y13.240 F400.0
G1 X10.807 Y12.842 F400.0
G1 X10.457 Y12.132 F400.0
G0 Z0.600
G0 X10.900 Y105.708
G0 Z4.000
G0 X11.500 Y105.707
G0 Z0.600
G1 Z-0.250 F40.0
G1 X10.166 Y14.340 F400.0
G1 X8.658 Y13.911 F400.0
G1 X10.000 Y13.240 F400.0
G1 X11.345 Y12.577 F400.0
G1 X10.995 Y11.867 F400.0
G0 Z0.600
G0 X11.500 Y105.707
G0 Z4.000
; trace: 4 mm wide, 0.25 mm deep, 3 pass(es)
G0 X10.010 Y63.060
G0 Z0.600
G1 Z-0.250 F40.0
G1 X26.978 Y63.700 F400.0
G1 X26.746 Y64.307 F400.0
G0 Z0.600
G0 X10.010 Y63.060
G0 Z4.000
G0 X9.998 Y64.260
G0 Z0.600
G1 Z-0.250 F40.0
G1 X27.988 Y64.348 F400.0
G1 X27.831 Y63.795 F400.0
G0 Z0.600
G0 X9.998 Y64.260
G0 Z4.000
G0 X9.990 Y65.060
G0 Z0.600
G1 Z-0.250 F40.0
G1 X28.662 Y64.780 F400.0
G1 X28.554 Y63.453 F400.0
G0 Z0.600
G0 X9.990 Y65.060
G0 Z4.000
; trace: 5.2 mm wide, 0.25 mm deep, 4 pass(es)
G0 X10.869 Y25.837
G0 Z0.600
G1 Z-0.250 F40.0
G1 X23.332 Y33.905 F400.0
G1 X23.612 Y34.047 F400.0
G1 X22.880 Y35.470 F400.0
G0 Z0.600
G0 X10.869 Y25.837
G0 Z4.000
G0 X10.217 Y26.844
G0 Z0.600
G1 Z-0.250 F40.0
G1 X22.730 Y34.944 F400.0
G1 X23.063 Y35.114 F400.0
G1 X22.880 Y35.470 F400.0
G0 Z0.600
G0 X10.217 Y26.844
G0 Z4.000
G0 X9.565 Y27.852
G0 Z0.600
G1 Z-0.250 F40.0
G1 X22.129 Y35.982 F400.0
G1 X22.514 Y36.181 F400.0
G1 X22.880 Y35.470 F400.0
G0 Z0.600
G0 X9.565 Y27.852
G0 Z4.000
G0 X9.131 Y28.523
G0 Z0.600
G1 Z-0.250 F40.0
G1 X21.728 Y36.675 F400.0
G1 X22.148 Y36.893 F400.0
G1 X22.880 Y35.470 F400.0
G0 Z0.600
G0 X9.131 Y28.523
G0 Z4.000
; trace: 3 mm wide, 0.25 mm deep, 2 pass(es)
G0 X10.347 Y106.620
G0 Z0.600
G1 Z-0.250 F40.0
G1 X44.757 Y106.440 F400.0
G0 Z0.600
G0 X10.347 Y106.620
G0 Z4.000
G0 X10.353 Y107.620
G0 Z0.600
G1 Z-0.250 F40.0
G1 X44.763 Y107.440 F400.0
G0 Z0.600
G0 X10.353 Y107.620
G0 Z4.000
; trace: 5 mm wide, 0.25 mm deep, 4 pass(es)
G0 X44.320 Y106.775
G0 Z0.600
G1 Z-0.250 F40.0
G1 X44.150 Y90.195 F400.0
G1 X45.650 Y90.180 F400.0
G0 Z0.600
G0 X44.320 Y106.775
G0 Z4.000
G0 X45.520 Y106.763
G0 Z0.600
G1 Z-0.250 F40.0
G1 X45.350 Y90.183 F400.0
G1 X45.650 Y90.180 F400.0
G0 Z0.600
G0 X45.520 Y106.763
G0 Z4.000
G0 X46.720 Y106.751
G0 Z0.600
G1 Z-0.250 F40.0
G1 X46.550 Y90.171 F400.0
G1 X45.650 Y90.180 F400.0
G0 Z0.600
G0 X46.720 Y106.751
G0 Z4.000
G0 X47.320 Y106.745
G0 Z0.600
G1 Z-0.250 F40.0
G1 X47.150 Y90.165 F400.0
G1 X45.650 Y90.180 F400.0
G0 Z0.600
G0 X47.320 Y106.745
G0 Z4.000
; trace: 3.8 mm wide, 0.25 mm deep, 3 pass(es)
G0 X22.914 Y35.101
G0 Z0.600
G1 Z-0.250 F40.0
G1 X27.684 Y35.281 F400.0
G1 X27.650 Y36.180 F400.0
G0 Z0.600
G0 X22.914 Y35.101
G0 Z4.000
G0 X22.869 Y36.300
G0 Z0.600
G1 Z-0.250 F40.0
G1 X27.639 Y36.480 F400.0
G1 X27.650 Y36.180 F400.0
G0 Z0.600
G0 X22.869 Y36.300
G0 Z4.000
G0 X22.846 Y36.899
G0 Z0.600
G1 Z-0.250 F40.0
G1 X27.616 Y37.079 F400.0
G1 X27.650 Y36.180 F400.0
G0 Z0.600
G0 X22.846 Y36.899
G0 Z4.000
; trace: 5 mm wide, 0.15 mm deep, 4 pass(es)
G0 X31.260 Y31.390
G0 Z0.600
G1 Z-0.150 F40.0
G1 X31.970 Y85.220 F400.0
G0 Z0.600
G0 X31.260 Y31.390
G0 Z4.000
G0 X30.060 Y31.406
G0 Z0.600
G1 Z-0.150 F40.0
G1 X30.770 Y85.236 F400.0
G0 Z0.600
G0 X30.060 Y31.406
G0 Z4.000
G0 X28.860 Y31.422
G0 Z0.600
G1 Z-0.150 F40.0
G1 X29.570 Y85.252 F400.0
G0 Z0.600
G0 X28.860 Y31.422
G0 Z4.000
G0 X28.260 Y31.430
G0 Z0.600
G1 Z-0.150 F40.0
G1 X28.970 Y85.260 F400.0
G0 Z0.600
G0 X28.260 Y31.430
G0 Z4.000
; trace: 3 mm wide, 0.25 mm deep, 2 pass(es)
G0 X30.845 Y85.741
G0 Z0.600
G1 Z-0.250 F40.0
G1 X24.404 Y93.006 F400.0
G1 X24.123 Y97.066 F400.0
G1 X34.748 Y97.199 F400.0
G1 X36.518 Y88.892 F400.0
G1 X45.306 Y89.320 F400.0
G1 X45.820 Y89.320 F400.0
G0 Z0.600
G0 X30.845 Y85.741
G0 Z4.000
G0 X30.095 Y85.079
G0 Z0.600
G1 Z-0.250 F40.0
G1 X23.476 Y92.634 F400.0
G1 X23.397 Y97.754 F400.0
G1 X35.372 Y97.981 F400.0
G1 X37.122 Y89.688 F400.0
G1 X45.274 Y90.320 F400.0
G1 X45.820 Y90.320 F400.0
G0 Z0.600
G0 X30.095 Y85.079
G0 Z4.000
; trace: 3 mm wide, 0.25 mm deep, 2 pass(es)
G0 X30.300 Y30.590
G0 Z0.600
G1 Z-0.250 F40.0
G1 X38.351 Y27.773 F400.0
G1 X38.410 Y21.703 F400.0
G1 X56.229 Y22.052 F400.0
G1 X56.586 Y29.819 F400.0
G1 X151.177 Y30.176 F400.0
G1 X151.177 Y26.826 F400.0
G1 X185.062 Y26.995 F400.0
G1 X185.415 Y50.112 F400.0
G1 X144.156 Y49.485 F400.0
G1 X145.027 Y48.764 F400.0
G0 Z0.600
G0 X30.300 Y30.590
G0 Z4.000
G0 X30.640 Y31.530
G0 Z0.600
G1 Z-0.250 F40.0
G1 X39.169 Y28.347 F400.0
G1 X39.110 Y22.417 F400.0
G1 X55.531 Y22.768 F400.0
G1 X55.894 Y30.541 F400.0
G1 X151.883 Y30.884 F400.0
G1 X151.883 Y27.534 F400.0
G1 X184.358 Y27.705 F400.0
G1 X184.705 Y49.408 F400.0
G1 X145.144 Y49.335 F400.0
G1 X145.333 Y49.716 F400.0
G0 Z0.600
G0 X30.640 Y31.530
G0 Z4.000
; trace: 3 mm wide, 0.25 mm deep, 2 pass(es)
G0 X145.850 Y49.920
G0 Z0.600
G1 Z-0.250 F40.0
G1 X146.183 Y58.778 F400.0
G1 X152.275 Y67.621 F400.0
G1 X155.393 Y64.131 F400.0
G1 X161.760 Y64.090 F400.0
G1 X161.760 Y64.590 F400.0
G0 Z0.600
G0 X145.850 Y49.920
G0 Z4.000
G0 X144.850 Y49.960
G0 Z0.600
G1 Z-0.250 F40.0
G1 X145.237 Y59.102 F400.0
G1 X152.205 Y68.619 F400.0
G1 X155.787 Y65.049 F400.0
G1 X161.760 Y65.090 F400.0
G1 X161.760 Y64.590 F400.0
G0 Z0.600
G0 X144.850 Y49.960
G0 Z4.000
; trace: 5.8 mm wide, 0.25 mm deep, 5 pass(es)
G0 X164.361 Y63.414
G0 Z0.600
G1 Z-0.250 F40.0
G1 X169.471 Y73.994 F400.0
G0 Z0.600
G0 X164.361 Y63.414
G0 Z4.000
G0 X163.280 Y63.936
G0 Z0.600
G1 Z-0.250 F40.0
G1 X168.390 Y74.516 F400.0
G0 Z0.600
G0 X163.280 Y63.936
G0 Z4.000
G0 X162.200 Y64.457
G0 Z0.600
G1 Z-0.250 F40.0
G1 X167.310 Y75.037 F400.0
G0 Z0.600
G0 X162.200 Y64.457
G0 Z4.000
G0 X161.119 Y64.979
G0 Z0.600
G1 Z-0.250 F40.0
G1 X166.229 Y75.559 F400.0
G0 Z0.600
G0 X161.119 Y64.979
G0 Z4.000
G0 X160.939 Y65.066
G0 Z0.600
G1 Z-0.250 F40.0
G1 X166.049 Y75.646 F400.0
G0 Z0.600
G0 X160.939 Y65.066
G0 Z4.000
; trace: 3.9 mm wide, 0.25 mm deep, 3 pass(es)
G0 X161.721 Y68.908
G0 Z0.600
G1 Z-0.250 F40.0
G1 X165.251 Y75.618 F400.0
G0 Z0.600
G0 X161.721 Y68.908
G0 Z4.000
G0 X160.659 Y69.466
G0 Z0.600
G1 Z-0.250 F40.0
G1 X164.189 Y76.176 F400.0
G0 Z0.600
G0 X160.659 Y69.466
G0 Z4.000
G0 X160.039 Y69.792
G0 Z0.600
G1 Z-0.250 F40.0
G1 X163.569 Y76.502 F400.0
G0 Z0.600
G0 X160.039 Y69.792
G0 Z4.000
; trace: 4.2 mm wide, 0.25 mm deep, 3 pass(es)
G0 X171.910 Y75.474
G0 Z0.600
G1 Z-0.250 F40.0
G1 X177.550 Y81.294 F400.0
G1 X176.760 Y82.060 F400.0
G0 Z0.600
G0 X171.910 Y75.474
G0 Z4.000
G0 X171.048 Y76.310
G0 Z0.600
G1 Z-0.250 F40.0
G1 X176.688 Y82.130 F400.0
G1 X176.760 Y82.060 F400.0
G0 Z0.600
G0 X171.048 Y76.310
G0 Z4.000
G0 X170.330 Y77.006
G0 Z0.600
G1 Z-0.250 F40.0
G1 X175.970 Y82.826 F400.0
G1 X176.760 Y82.060 F400.0
G0 Z0.600
G0 X170.330 Y77.006
G0 Z4.000
; trace: 6.9 mm wide, 0.25 mm deep, 6 pass(es)
G0 X149.610 Y83.310
G0 Z0.600
G1 Z-0.250 F40.0
G1 X193.900 Y83.670 F400.0
G1 X193.880 Y86.120 F400.0
G0 Z0.600
G0 X149.610 Y83.310
G0 Z4.000
G0 X149.600 Y84.510
G0 Z0.600
G1 Z-0.250 F40.0
G1 X193.890 Y84.870 F400.0
G1 X193.880 Y86.120 F400.0
G0 Z0.600
G0 X149.600 Y84.510
G0 Z4.000
G0 X149.590 Y85.710
G0 Z0.600
G1 Z-0.250 F40.0
G1 X193.880 Y86.070 F400.0
G1 X193.880 Y86.120 F400.0
G0 Z0.600
G0 X149.590 Y85.710
G0 Z4.000
G0 X149.581 Y86.910
G0 Z0.600
G1 Z-0.250 F40.0
G1 X193.871 Y87.270 F400.0
G1 X193.880 Y86.120 F400.0
G0 Z0.600
G0 X149.581 Y86.910
G0 Z4.000
G0 X149.571 Y88.110
G0 Z0.600
G1 Z-0.250 F40.0
G1 X193.861 Y88.470 F400.0
G1 X193.880 Y86.120 F400.0
G0 Z0.600
G0 X149.571 Y88.110
G0 Z4.000
G0 X149.570 Y88.210
G0 Z0.600
G1 Z-0.250 F40.0
G1 X193.860 Y88.570 F400.0
G1 X193.880 Y86.120 F400.0
G0 Z0.600
G0 X149.570 Y88.210
G0 Z4.000
; trace: 4 mm wide, 0.15 mm deep, 3 pass(es)
G0 X193.410 Y85.755
G0 Z0.600
G1 Z-0.150 F40.0
G1 X193.760 Y15.875 F400.0
G1 X194.760 Y15.880 F400.0
G0 Z0.600
G0 X193.410 Y85.755
G0 Z4.000
G0 X194.610 Y85.761
G0 Z0.600
G1 Z-0.150 F40.0
G1 X194.960 Y15.881 F400.0
G1 X194.760 Y15.880 F400.0
G0 Z0.600
G0 X194.610 Y85.761
G0 Z4.000
G0 X195.410 Y85.765
G0 Z0.600
G1 Z-0.150 F40.0
G1 X195.760 Y15.885 F400.0
G1 X194.760 Y15.880 F400.0
G0 Z0.600
G0 X195.410 Y85.765
G0 Z4.000
; trace: 5.8 mm wide, 0.25 mm deep, 5 pass(es)
G0 X7.752 Y12.271
G0 Z0.600
G1 Z-0.250 F40.0
G1 X7.922 Y8.211 F400.0
G0 Z0.600
G0 X7.752 Y12.271
G0 Z4.000
G0 X8.951 Y12.321
G0 Z0.600
G1 Z-0.250 F40.0
G1 X9.121 Y8.261 F400.0
G0 Z0.600
G0 X8.951 Y12.321
G0 Z4.000
G0 X10.150 Y12.371
G0 Z0.600
G1 Z-0.250 F40.0
G1 X10.320 Y8.311 F400.0
G0 Z0.600
G0 X10.150 Y12.371
G0 Z4.000
G0 X11.349 Y12.421
G0 Z0.600
G1 Z-0.250 F40.0
G1 X11.519 Y8.361 F400.0
G0 Z0.600
G0 X11.349 Y12.421
G0 Z4.000
G0 X11.548 Y12.429
G0 Z0.600
G1 Z-0.250 F40.0
G1 X11.718 Y8.369 F400.0
G0 Z0.600
G0 X11.548 Y12.429
G0 Z4.000
; trace: 5 mm wide, 0.25 mm deep, 4 pass(es)
G0 X193.091 Y16.124
G0 Z0.600
G1 Z-0.250 F40.0
G1 X192.911 Y11.884 F400.0
G0 Z0.600
G0 X193.091 Y16.124
G0 Z4.000
G0 X194.290 Y16.073
G0 Z0.600
G1 Z-0.250 F40.0
G1 X194.110 Y11.833 F400.0
G0 Z0.600
G0 X194.290 Y16.073
G0 Z4.000
G0 X195.489 Y16.022
G0 Z0.600
G1 Z-0.250 F40.0
G1 X195.309 Y11.782 F400.0
G0 Z0.600
G0 X195.489 Y16.022
G0 Z4.000
G0 X196.089 Y15.996
G0 Z0.600
G1 Z-0.250 F40.0
G1 X195.909 Y11.756 F400.0
G0 Z0.600
G0 X196.089 Y15.996
G0 Z4.000
; trace: 5.8 mm wide, 0.25 mm deep, 5 pass(es)
G0 X9.832 Y5.690
G0 Z0.600
G1 Z-0.250 F40.0
G1 X67.258 Y6.091 F400.0
G1 X80.851 Y12.802 F400.0
G1 X150.464 Y13.484 F400.0
G1 X163.031 Y8.367 F400.0
G1 X195.214 Y9.922 F400.0
G0 Z0.600
G0 X9.832 Y5.690
G0 Z4.000
G0 X9.824 Y6.890
G0 Z0.600
G1 Z-0.250 F40.0
G1 X66.981 Y7.259 F400.0
G1 X80.573 Y13.969 F400.0
G1 X150.689 Y14.662 F400.0
G1 X163.232 Y9.550 F400.0
G1 X195.155 Y11.121 F400.0
G0 Z0.600
G0 X9.824 Y6.890
G0 Z4.000
G0 X9.817 Y8.090
G0 Z0.600
G1 Z-0.250 F40.0
G1 X66.705 Y8.427 F400.0
G1 X80.294 Y15.136 F400.0
G1 X150.914 Y15.841 F400.0
G1 X163.434 Y10.733 F400.0
G1 X195.095 Y12.319 F400.0
G0 Z0.600
G0 X9.817 Y8.090
G0 Z4.000
G0 X9.810 Y9.290
G0 Z0.600
G1 Z-0.250 F40.0
G1 X66.428 Y9.594 F400.0
G1 X80.015 Y16.304 F400.0
G1 X151.139 Y17.020 F400.0
G1 X163.636 Y11.916 F400.0
G1 X195.036 Y13.518 F400.0
G0 Z0.600
G0 X9.810 Y9.290
G0 Z4.000
G0 X9.808 Y9.490
G0 Z0.600
G1 Z-0.250 F40.0
G1 X66.382 Y9.789 F400.0
G1 X79.969 Y16.498 F400.0
G1 X151.176 Y17.216 F400.0
G1 X163.669 Y12.113 F400.0
G1 X195.026 Y13.718 F400.0
G0 Z0.600
G0 X9.808 Y9.490
G0 Z4.000
; trace: 4.5 mm wide, 0.25 mm deep, 4 pass(es)
G0 X149.780 Y85.760
G0 Z0.600
G1 Z-0.250 F40.0
G1 X149.780 Y100.060 F400.0
G0 Z0.600
G0 X149.780 Y85.760
G0 Z4.000
G0 X148.580 Y85.760
G0 Z0.600
G1 Z-0.250 F40.0
G1 X148.580 Y100.060 F400.0
G0 Z0.600
G0 X148.580 Y85.760
G0 Z4.000
G0 X147.380 Y85.760
G0 Z0.600
G1 Z-0.250 F40.0
G1 X147.380 Y100.060 F400.0
G0 Z0.600
G0 X147.380 Y85.760
G0 Z4.000
G0 X147.280 Y85.760
G0 Z0.600
G1 Z-0.250 F40.0
G1 X147.280 Y100.060 F400.0
G0 Z0.600
G0 X147.280 Y85.760
G0 Z4.000
; trace: 4.2 mm wide, 0.25 mm deep, 3 pass(es)
G0 X150.510 Y101.797
G0 Z0.600
G1 Z-0.250 F40.0
G1 X150.690 Y110.447 F400.0
G0 Z0.600
G0 X150.510 Y101.797
G0 Z4.000
G0 X149.310 Y101.822
G0 Z0.600
G1 Z-0.250 F40.0
G1 X149.490 Y110.472 F400.0
G0 Z0.600
G0 X149.310 Y101.822
G0 Z4.000
G0 X148.310 Y101.843
G0 Z0.600
G1 Z-0.250 F40.0
G1 X148.490 Y110.493 F400.0
G0 Z0.600
G0 X148.310 Y101.843
G0 Z4.000
; trace: 6.8 mm wide, 0.15 mm deep, 5 pass(es)
G0 X149.031 Y110.720
G0 Z0.600
G1 Z-0.150 F40.0
G1 X192.621 Y110.190 F400.0
G1 X192.650 Y112.590 F400.0
G0 Z0.600
G0 X149.031 Y110.720
G0 Z4.000
G0 X149.045 Y111.920
G0 Z0.600
G1 Z-0.150 F40.0
G1 X192.635 Y111.390 F400.0
G1 X192.650 Y112.590 F400.0
G0 Z0.600
G0 X149.045 Y111.920
G0 Z4.000
G0 X149.060 Y113.120
G0 Z0.600
G1 Z-0.150 F40.0
G1 X192.650 Y112.590 F400.0
G1 X192.650 Y112.590 F400.0
G0 Z0.600
G0 X149.060 Y113.120
G0 Z4.000
G0 X149.075 Y114.320
G0 Z0.600
G1 Z-0.150 F40.0
G1 X192.665 Y113.790 F400.0
G1 X192.650 Y112.590 F400.0
G0 Z0.600
G0 X149.075 Y114.320
G0 Z4.000
G0 X149.089 Y115.520
G0 Z0.600
G1 Z-0.150 F40.0
G1 X192.679 Y114.990 F400.0
G1 X192.650 Y112.590 F400.0
G0 Z0.600
G0 X149.089 Y115.520
G0 Z4.000
; trace: 4.5 mm wide, 0.25 mm deep, 4 pass(es)
G0 X193.870 Y112.777
G0 Z0.600
G1 Z-0.250 F40.0
G1 X193.510 Y86.137 F400.0
G0 Z0.600
G0 X193.870 Y112.777
G0 Z4.000
G0 X195.070 Y112.761
G0 Z0.600
G1 Z-0.250 F40.0
G1 X194.710 Y86.121 F400.0
G0 Z0.600
G0 X195.070 Y112.761
G0 Z4.000
G0 X196.270 Y112.744
G0 Z0.600
G1 Z-0.250 F40.0
G1 X195.910 Y86.104 F400.0
G0 Z0.600
G0 X196.270 Y112.744
G0 Z4.000
G0 X196.370 Y112.743
G0 Z0.600
G1 Z-0.250 F40.0
G1 X196.010 Y86.103 F400.0
G0 Z0.600
G0 X196.370 Y112.743
G0 Z4.000
; trace: 5.9 mm wide, 0.25 mm deep, 5 pass(es)
G0 X145.160 Y114.540
G0 Z0.600
G1 Z-0.250 F40.0
G1 X110.570 Y114.190 F400.0
G0 Z0.600
G0 X145.160 Y114.540
G0 Z4.000
G0 X145.172 Y113.340
G0 Z0.600
G1 Z-0.250 F40.0
G1 X110.582 Y112.990 F400.0
G0 Z0.600
G0 X145.172 Y113.340
G0 Z4.000
G0 X145.185 Y112.140
G0 Z0.600
G1 Z-0.250 F40.0
G1 X110.595 Y111.790 F400.0
G0 Z0.600
G0 X145.185 Y112.140
G0 Z4.000
G0 X145.197 Y110.940
G0 Z0.600
G1 Z-0.250 F40.0
G1 X110.607 Y110.590 F400.0
G0 Z0.600
G0 X145.197 Y110.940
G0 Z4.000
G0 X145.200 Y110.640
G0 Z0.600
G1 Z-0.250 F40.0
G1 X110.610 Y110.290 F400.0
G0 Z0.600
G0 X145.200 Y110.640
G0 Z4.000
; trace: 4.5 mm wide, 0.25 mm deep, 4 pass(es)
G0 X108.810 Y112.590
G0 Z0.600
G1 Z-0.250 F40.0
G1 X108.810 Y107.650 F400.0
G0 Z0.600
G0 X108.810 Y112.590
G0 Z4.000
G0 X110.010 Y112.590
G0 Z0.600
G1 Z-0.250 F40.0
G1 X110.010 Y107.650 F400.0
G0 Z0.600
G0 X110.010 Y112.590
G0 Z4.000
G0 X111.210 Y112.590
G0 Z0.600
G1 Z-0.250 F40.0
G1 X111.210 Y107.650 F400.0
G0 Z0.600
G0 X111.210 Y112.590
G0 Z4.000
G0 X111.310 Y112.590
G0 Z0.600
G1 Z-0.250 F40.0
G1 X111.310 Y107.650 F400.0
G0 Z0.600
G0 X111.310 Y112.590
G0 Z4.000
; trace: 3.9 mm wide, 0.25 mm deep, 3 pass(es)
G0 X109.000 Y109.130
G0 Z0.600
G1 Z-0.250 F40.0
G1 X95.410 Y109.130 F400.0
G1 X95.410 Y108.180 F400.0
G0 Z0.600
G0 X109.000 Y109.130
G0 Z4.000
G0 X109.000 Y107.930
G0 Z0.600
G1 Z-0.250 F40.0
G1 X95.410 Y107.930 F400.0
G1 X95.410 Y108.180 F400.0
G0 Z0.600
G0 X109.000 Y107.930
G0 Z4.000
G0 X109.000 Y107.230
G0 Z0.600
G1 Z-0.250 F40.0
G1 X95.410 Y107.230 F400.0
G1 X95.410 Y108.180 F400.0
G0 Z0.600
G0 X109.000 Y107.230
G0 Z4.000
; trace: 7.2 mm wide, 0.25 mm deep, 6 pass(es)
G0 X88.051 Y107.892
G0 Z0.600
G1 Z-0.250 F40.0
G1 X87.691 Y94.832 F400.0
G0 Z0.600
G0 X88.051 Y107.892
G0 Z4.000
G0 X89.251 Y107.859
G0 Z0.600
G1 Z-0.250 F40.0
G1 X88.891 Y94.799 F400.0
G0 Z0.600
G0 X89.251 Y107.859
G0 Z4.000
G0 X90.450 Y107.826
G0 Z0.600
G1 Z-0.250 F40.0
G1 X90.090 Y94.766 F400.0
G0 Z0.600
G0 X90.450 Y107.826
G0 Z4.000
G0 X91.650 Y107.792
G0 Z0.600
G1 Z-0.250 F40.0
G1 X91.290 Y94.732 F400.0
G0 Z0.600
G0 X91.650 Y107.792
G0 Z4.000
G0 X92.849 Y107.759
G0 Z0.600
G1 Z-0.250 F40.0
G1 X92.489 Y94.699 F400.0
G0 Z0.600
G0 X92.849 Y107.759
G0 Z4.000
G0 X93.249 Y107.748
G0 Z0.600
G1 Z-0.250 F40.0
G1 X92.889 Y94.688 F400.0
G0 Z0.600
G0 X93.249 Y107.748
G0 Z4.000
; trace: 4.8 mm wide, 0.25 mm deep, 4 pass(es)
G0 X90.103 Y93.540
G0 Z0.600
G1 Z-0.250 F40.0
G1 X148.163 Y92.840 F400.0
G0 Z0.600
G0 X90.103 Y93.540
G0 Z4.000
G0 X90.118 Y94.740
G0 Z0.600
G1 Z-0.250 F40.0
G1 X148.178 Y94.040 F400.0
G0 Z0.600
G0 X90.118 Y94.740
G0 Z4.000
G0 X90.132 Y95.940
G0 Z0.600
G1 Z-0.250 F40.0
G1 X148.192 Y95.240 F400.0
G0 Z0.600
G0 X90.132 Y95.940
G0 Z4.000
G0 X90.137 Y96.340
G0 Z0.600
G1 Z-0.250 F40.0
G1 X148.197 Y95.640 F400.0
G0 Z0.600
G0 X90.137 Y96.340
G0 Z4.000
; trace: 8.7 mm wide, 0.25 mm deep, 7 pass(es)
G0 X84.240 Y92.694
G0 Z0.600
G1 Z-0.250 F40.0
G1 X85.541 Y74.149 F400.0
G1 X46.381 Y74.800 F400.0
G0 Z0.600
G0 X84.240 Y92.694
G0 Z4.000
G0 X85.440 Y92.714
G0 Z0.600
G1 Z-0.250 F40.0
G1 X86.401 Y73.311 F400.0
G1 X46.391 Y73.600 F400.0
G0 Z0.600
G0 X85.440 Y92.714
G0 Z4.000
G0 X86.640 Y92.734
G0 Z0.600
G1 Z-0.250 F40.0
G1 X87.260 Y72.473 F400.0
G1 X46.402 Y72.400 F400.0
G0 Z0.600
G0 X86.640 Y92.734
G0 Z4.000
G0 X87.840 Y92.754
G0 Z0.600
G1 Z-0.250 F40.0
G1 X88.119 Y71.635 F400.0
G1 X46.412 Y71.200 F400.0
G0 Z0.600
G0 X87.840 Y92.754
G0 Z4.000
G0 X89.040 Y92.774
G0 Z0.600
G1 Z-0.250 F40.0
G1 X88.978 Y70.798 F400.0
G1 X46.423 Y70.000 F400.0
G0 Z0.600
G0 X89.040 Y92.774
G0 Z4.000
G0 X90.240 Y92.794
G0 Z0.600
G1 Z-0.250 F40.0
G1 X89.837 Y69.960 F400.0
G1 X46.433 Y68.800 F400.0
G0 Z0.600
G0 X90.240 Y92.794
G0 Z4.000
G0 X90.940 Y92.806
G0 Z0.600
G1 Z-0.250 F40.0
G1 X90.339 Y69.471 F400.0
G1 X46.439 Y68.100 F400.0
G0 Z0.600
G0 X90.940 Y92.806
G0 Z4.000
; trace: 5 mm wide, 0.25 mm deep, 4 pass(es)
G0 X46.332 Y72.947
G0 Z0.600
G1 Z-0.250 F40.0
G1 X45.749 Y59.639 F400.0
G1 X40.794 Y54.680 F400.0
G1 X40.370 Y48.286 F400.0
G1 X54.476 Y30.754 F400.0
G0 Z0.600
G0 X46.332 Y72.947
G0 Z4.000
G0 X47.530 Y72.885
G0 Z0.600
G1 Z-0.250 F40.0
G1 X46.846 Y59.152 F400.0
G1 X41.887 Y54.184 F400.0
G1 X41.514 Y48.649 F400.0
G1 X55.407 Y31.511 F400.0
G0 Z0.600
G0 X47.530 Y72.885
G0 Z4.000
G0 X48.729 Y72.824
G0 Z0.600
G1 Z-0.250 F40.0
G1 X47.943 Y58.665 F400.0
G1 X42.980 Y53.688 F400.0
G1 X42.658 Y49.012 F400.0
G1 X56.339 Y32.267 F400.0
G0 Z0.600
G0 X48.729 Y72.824
G0 Z4.000
G0 X49.328 Y72.793
G0 Z0.600
G1 Z-0.250 F40.0
G1 X48.491 Y58.421 F400.0
G1 X43.526 Y53.440 F400.0
G1 X43.230 Y49.194 F400.0
G1 X56.804 Y32.646 F400.0
G0 Z0.600
G0 X49.328 Y72.793
G0 Z4.000
; trace: 6.2 mm wide, 0.25 mm deep, 5 pass(es)
G0 X52.120 Y111.961
G0 Z0.600
G1 Z-0.250 F40.0
G1 X52.363 Y92.708 F400.0
G1 X89.094 Y92.853 F400.0
G1 X75.401 Y113.437 F400.0
G1 X54.543 Y113.310 F400.0
G0 Z0.600
G0 X52.120 Y111.961
G0 Z4.000
G0 X53.320 Y111.938
G0 Z0.600
G1 Z-0.250 F40.0
G1 X53.224 Y93.543 F400.0
G1 X88.029 Y93.405 F400.0
G1 X74.863 Y112.365 F400.0
G1 X54.564 Y112.110 F400.0
G0 Z0.600
G0 X53.320 Y111.938
G0 Z4.000
G0 X54.520 Y111.914
G0 Z0.600
G1 Z-0.250 F40.0
G1 X54.085 Y94.379 F400.0
G1 X86.964 Y93.958 F400.0
G1 X74.326 Y111.292 F400.0
G1 X54.585 Y110.910 F400.0
G0 Z0.600
G0 X54.520 Y111.914
G0 Z4.000
G0 X55.720 Y111.890
G0 Z0.600
G1 Z-0.250 F40.0
G1 X54.947 Y95.215 F400.0
G1 X85.899 Y94.511 F400.0
G1 X73.788 Y110.219 F400.0
G1 X54.606 Y109.710 F400.0
G0 Z0.600
G0 X55.720 Y111.890
G0 Z4.000
G0 X56.320 Y111.879
G0 Z0.600
G1 Z-0.250 F40.0
G1 X55.377 Y95.632 F400.0
G1 X85.366 Y94.787 F400.0
G1 X73.519 Y109.683 F400.0
G1 X54.617 Y109.110 F400.0
G0 Z0.600
G0 X56.320 Y111.879
G0 Z4.000
; trace: 6 mm wide, 0.25 mm deep, 5 pass(es)
G0 X47.804 Y87.226
G0 Z0.600
G1 Z-0.250 F40.0
G1 X71.584 Y91.136 F400.0
G1 X71.260 Y93.110 F400.0
G1 X71.260 Y93.110 F400.0
G0 Z0.600
G0 X47.804 Y87.226
G0 Z4.000
G0 X47.610 Y88.411
G0 Z0.600
G1 Z-0.250 F40.0
G1 X71.390 Y92.321 F400.0
G1 X71.260 Y93.110 F400.0
G1 X71.260 Y93.110 F400.0
G0 Z0.600
G0 X47.610 Y88.411
G0 Z4.000
G0 X47.415 Y89.595
G0 Z0.600
G1 Z-0.250 F40.0
G1 X71.195 Y93.505 F400.0
G1 X71.260 Y93.110 F400.0
G1 X71.260 Y93.110 F400.0
G0 Z0.600
G0 X47.415 Y89.595
G0 Z4.000
G0 X47.220 Y90.779
G0 Z0.600
G1 Z-0.250 F40.0
G1 X71.000 Y94.689 F400.0
G1 X71.260 Y93.110 F400.0
G1 X71.260 Y93.110 F400.0
G0 Z0.600
G0 X47.220 Y90.779
G0 Z4.000
G0 X47.156 Y91.174
G0 Z0.600
G1 Z-0.250 F40.0
G1 X70.936 Y95.084 F400.0
G1 X71.260 Y93.110 F400.0
G1 X71.260 Y93.110 F400.0
G0 Z0.600
G0 X47.156 Y91.174
G0 Z4.000
M5
G0 Z4.000
G0 X0 Y0
M2
