; cncctl CAD/CAM — grblHAL G-code
; tool dia 2 mm, depth 2 mm, stepdown 0.5 mm
G21
G90
G17
G94
G0 Z5.000
; --- shape 1: polygon / Pocket (clear inside) / depth 2 mm ---
G0 X17.626 Y20.477
G0 Z1.000
G1 Z-0.500 F100.0
G1 X12.574 Y19.881 F300.0
G1 X9.423 Y15.886 F300.0
G1 X10.019 Y10.834 F300.0
G1 X14.014 Y7.683 F300.0
G1 X19.066 Y8.279 F300.0
G1 X22.217 Y12.274 F300.0
G1 X21.621 Y17.326 F300.0
G1 X17.626 Y20.477 F300.0
G1 Z-1.000 F100.0
G1 X12.574 Y19.881 F300.0
G1 X9.423 Y15.886 F300.0
G1 X10.019 Y10.834 F300.0
G1 X14.014 Y7.683 F300.0
G1 X19.066 Y8.279 F300.0
G1 X22.217 Y12.274 F300.0
G1 X21.621 Y17.326 F300.0
G1 X17.626 Y20.477 F300.0
G1 Z-1.500 F100.0
G1 X12.574 Y19.881 F300.0
G1 X9.423 Y15.886 F300.0
G1 X10.019 Y10.834 F300.0
G1 X14.014 Y7.683 F300.0
G1 X19.066 Y8.279 F300.0
G1 X22.217 Y12.274 F300.0
G1 X21.621 Y17.326 F300.0
G1 X17.626 Y20.477 F300.0
G1 Z-2.000 F100.0
G1 X12.574 Y19.881 F300.0
G1 X9.423 Y15.886 F300.0
G1 X10.019 Y10.834 F300.0
G1 X14.014 Y7.683 F300.0
G1 X19.066 Y8.279 F300.0
G1 X22.217 Y12.274 F300.0
G1 X21.621 Y17.326 F300.0
G1 X17.626 Y20.477 F300.0
G0 Z5.000
G0 X17.362 Y19.540
G0 Z1.000
G1 Z-0.500 F100.0
G1 X13.049 Y19.031 F300.0
G1 X10.360 Y15.622 F300.0
G1 X10.869 Y11.309 F300.0
G1 X14.278 Y8.620 F300.0
G1 X18.591 Y9.129 F300.0
G1 X21.280 Y12.538 F300.0
G1 X20.771 Y16.851 F300.0
G1 X17.362 Y19.540 F300.0
G1 Z-1.000 F100.0
G1 X13.049 Y19.031 F300.0
G1 X10.360 Y15.622 F300.0
G1 X10.869 Y11.309 F300.0
G1 X14.278 Y8.620 F300.0
G1 X18.591 Y9.129 F300.0
G1 X21.280 Y12.538 F300.0
G1 X20.771 Y16.851 F300.0
G1 X17.362 Y19.540 F300.0
G1 Z-1.500 F100.0
G1 X13.049 Y19.031 F300.0
G1 X10.360 Y15.622 F300.0
G1 X10.869 Y11.309 F300.0
G1 X14.278 Y8.620 F300.0
G1 X18.591 Y9.129 F300.0
G1 X21.280 Y12.538 F300.0
G1 X20.771 Y16.851 F300.0
G1 X17.362 Y19.540 F300.0
G1 Z-2.000 F100.0
G1 X13.049 Y19.031 F300.0
G1 X10.360 Y15.622 F300.0
G1 X10.869 Y11.309 F300.0
G1 X14.278 Y8.620 F300.0
G1 X18.591 Y9.129 F300.0
G1 X21.280 Y12.538 F300.0
G1 X20.771 Y16.851 F300.0
G1 X17.362 Y19.540 F300.0
G0 Z5.000
G0 X17.097 Y18.602
G0 Z1.000
G1 Z-0.500 F100.0
G1 X13.525 Y18.181 F300.0
G1 X11.298 Y15.357 F300.0
G1 X11.719 Y11.785 F300.0
G1 X14.543 Y9.558 F300.0
G1 X18.115 Y9.979 F300.0
G1 X20.342 Y12.803 F300.0
G1 X19.921 Y16.375 F300.0
G1 X17.097 Y18.602 F300.0
G1 Z-1.000 F100.0
G1 X13.525 Y18.181 F300.0
G1 X11.298 Y15.357 F300.0
G1 X11.719 Y11.785 F300.0
G1 X14.543 Y9.558 F300.0
G1 X18.115 Y9.979 F300.0
G1 X20.342 Y12.803 F300.0
G1 X19.921 Y16.375 F300.0
G1 X17.097 Y18.602 F300.0
G1 Z-1.500 F100.0
G1 X13.525 Y18.181 F300.0
G1 X11.298 Y15.357 F300.0
G1 X11.719 Y11.785 F300.0
G1 X14.543 Y9.558 F300.0
G1 X18.115 Y9.979 F300.0
G1 X20.342 Y12.803 F300.0
G1 X19.921 Y16.375 F300.0
G1 X17.097 Y18.602 F300.0
G1 Z-2.000 F100.0
G1 X13.525 Y18.181 F300.0
G1 X11.298 Y15.357 F300.0
G1 X11.719 Y11.785 F300.0
G1 X14.543 Y9.558 F300.0
G1 X18.115 Y9.979 F300.0
G1 X20.342 Y12.803 F300.0
G1 X19.921 Y16.375 F300.0
G1 X17.097 Y18.602 F300.0
G0 Z5.000
G0 X16.832 Y17.665
G0 Z1.000
G1 Z-0.500 F100.0
G1 X14.001 Y17.331 F300.0
G1 X12.235 Y15.092 F300.0
G1 X12.569 Y12.261 F300.0
G1 X14.808 Y10.495 F300.0
G1 X17.639 Y10.829 F300.0
G1 X19.405 Y13.068 F300.0
G1 X19.071 Y15.899 F300.0
G1 X16.832 Y17.665 F300.0
G1 Z-1.000 F100.0
G1 X14.001 Y17.331 F300.0
G1 X12.235 Y15.092 F300.0
G1 X12.569 Y12.261 F300.0
G1 X14.808 Y10.495 F300.0
G1 X17.639 Y10.829 F300.0
G1 X19.405 Y13.068 F300.0
G1 X19.071 Y15.899 F300.0
G1 X16.832 Y17.665 F300.0
G1 Z-1.500 F100.0
G1 X14.001 Y17.331 F300.0
G1 X12.235 Y15.092 F300.0
G1 X12.569 Y12.261 F300.0
G1 X14.808 Y10.495 F300.0
G1 X17.639 Y10.829 F300.0
G1 X19.405 Y13.068 F300.0
G1 X19.071 Y15.899 F300.0
G1 X16.832 Y17.665 F300.0
G1 Z-2.000 F100.0
G1 X14.001 Y17.331 F300.0
G1 X12.235 Y15.092 F300.0
G1 X12.569 Y12.261 F300.0
G1 X14.808 Y10.495 F300.0
G1 X17.639 Y10.829 F300.0
G1 X19.405 Y13.068 F300.0
G1 X19.071 Y15.899 F300.0
G1 X16.832 Y17.665 F300.0
G0 Z5.000
G0 X16.568 Y16.727
G0 Z1.000
G1 Z-0.500 F100.0
G1 X14.477 Y16.481 F300.0
G1 X13.173 Y14.828 F300.0
G1 X13.419 Y12.737 F300.0
G1 X15.072 Y11.433 F300.0
G1 X17.163 Y11.679 F300.0
G1 X18.467 Y13.332 F300.0
G1 X18.221 Y15.423 F300.0
G1 X16.568 Y16.727 F300.0
G1 Z-1.000 F100.0
G1 X14.477 Y16.481 F300.0
G1 X13.173 Y14.828 F300.0
G1 X13.419 Y12.737 F300.0
G1 X15.072 Y11.433 F300.0
G1 X17.163 Y11.679 F300.0
G1 X18.467 Y13.332 F300.0
G1 X18.221 Y15.423 F300.0
G1 X16.568 Y16.727 F300.0
G1 Z-1.500 F100.0
G1 X14.477 Y16.481 F300.0
G1 X13.173 Y14.828 F300.0
G1 X13.419 Y12.737 F300.0
G1 X15.072 Y11.433 F300.0
G1 X17.163 Y11.679 F300.0
G1 X18.467 Y13.332 F300.0
G1 X18.221 Y15.423 F300.0
G1 X16.568 Y16.727 F300.0
G1 Z-2.000 F100.0
G1 X14.477 Y16.481 F300.0
G1 X13.173 Y14.828 F300.0
G1 X13.419 Y12.737 F300.0
G1 X15.072 Y11.433 F300.0
G1 X17.163 Y11.679 F300.0
G1 X18.467 Y13.332 F300.0
G1 X18.221 Y15.423 F300.0
G1 X16.568 Y16.727 F300.0
G0 Z5.000
G0 X16.303 Y15.790
G0 Z1.000
G1 Z-0.500 F100.0
G1 X14.952 Y15.631 F300.0
G1 X14.110 Y14.563 F300.0
G1 X14.269 Y13.212 F300.0
G1 X15.337 Y12.370 F300.0
G1 X16.688 Y12.529 F300.0
G1 X17.530 Y13.597 F300.0
G1 X17.371 Y14.948 F300.0
G1 X16.303 Y15.790 F300.0
G1 Z-1.000 F100.0
G1 X14.952 Y15.631 F300.0
G1 X14.110 Y14.563 F300.0
G1 X14.269 Y13.212 F300.0
G1 X15.337 Y12.370 F300.0
G1 X16.688 Y12.529 F300.0
G1 X17.530 Y13.597 F300.0
G1 X17.371 Y14.948 F300.0
G1 X16.303 Y15.790 F300.0
G1 Z-1.500 F100.0
G1 X14.952 Y15.631 F300.0
G1 X14.110 Y14.563 F300.0
G1 X14.269 Y13.212 F300.0
G1 X15.337 Y12.370 F300.0
G1 X16.688 Y12.529 F300.0
G1 X17.530 Y13.597 F300.0
G1 X17.371 Y14.948 F300.0
G1 X16.303 Y15.790 F300.0
G1 Z-2.000 F100.0
G1 X14.952 Y15.631 F300.0
G1 X14.110 Y14.563 F300.0
G1 X14.269 Y13.212 F300.0
G1 X15.337 Y12.370 F300.0
G1 X16.688 Y12.529 F300.0
G1 X17.530 Y13.597 F300.0
G1 X17.371 Y14.948 F300.0
G1 X16.303 Y15.790 F300.0
G0 Z5.000
G0 X16.038 Y14.852
G0 Z1.000
G1 Z-0.500 F100.0
G1 X15.428 Y14.780 F300.0
G1 X15.048 Y14.298 F300.0
G1 X15.120 Y13.688 F300.0
G1 X15.602 Y13.308 F300.0
G1 X16.212 Y13.380 F300.0
G1 X16.592 Y13.862 F300.0
G1 X16.520 Y14.472 F300.0
G1 X16.038 Y14.852 F300.0
G1 Z-1.000 F100.0
G1 X15.428 Y14.780 F300.0
G1 X15.048 Y14.298 F300.0
G1 X15.120 Y13.688 F300.0
G1 X15.602 Y13.308 F300.0
G1 X16.212 Y13.380 F300.0
G1 X16.592 Y13.862 F300.0
G1 X16.520 Y14.472 F300.0
G1 X16.038 Y14.852 F300.0
G1 Z-1.500 F100.0
G1 X15.428 Y14.780 F300.0
G1 X15.048 Y14.298 F300.0
G1 X15.120 Y13.688 F300.0
G1 X15.602 Y13.308 F300.0
G1 X16.212 Y13.380 F300.0
G1 X16.592 Y13.862 F300.0
G1 X16.520 Y14.472 F300.0
G1 X16.038 Y14.852 F300.0
G1 Z-2.000 F100.0
G1 X15.428 Y14.780 F300.0
G1 X15.048 Y14.298 F300.0
G1 X15.120 Y13.688 F300.0
G1 X15.602 Y13.308 F300.0
G1 X16.212 Y13.380 F300.0
G1 X16.592 Y13.862 F300.0
G1 X16.520 Y14.472 F300.0
G1 X16.038 Y14.852 F300.0
G0 Z5.000
M5
G0 Z5.000
G0 X0 Y0
M2
