; cncctl CAD/CAM — grblHAL G-code
; tool dia 2 mm, depth 2 mm, stepdown 0.5 mm
G21
G90
G17
G94
G0 Z5.000
; --- shape 1: poly / Engrave (on the line) / depth 2 mm ---
G0 X6.047 Y13.845
G0 Z1.000
G1 Z-0.500 F100.0
G1 X6.047 Y11.010 F300.0
G1 X7.725 Y11.010 F300.0
G1 X8.120 Y11.032 F300.0
G1 X8.460 Y11.098 F300.0
G1 X8.746 Y11.207 F300.0
G1 X8.977 Y11.360 F300.0
G1 X9.155 Y11.558 F300.0
G1 X9.282 Y11.802 F300.0
G1 X9.358 Y12.093 F300.0
G1 X9.383 Y12.430 F300.0
G1 X9.358 Y12.769 F300.0
G1 X9.282 Y13.060 F300.0
G1 X9.155 Y13.304 F300.0
G1 X8.977 Y13.500 F300.0
G1 X8.746 Y13.651 F300.0
G1 X8.460 Y13.758 F300.0
G1 X8.120 Y13.823 F300.0
G1 X7.725 Y13.845 F300.0
G1 X6.047 Y13.845 F300.0
G1 Z-1.000 F100.0
G1 X6.047 Y11.010 F300.0
G1 X7.725 Y11.010 F300.0
G1 X8.120 Y11.032 F300.0
G1 X8.460 Y11.098 F300.0
G1 X8.746 Y11.207 F300.0
G1 X8.977 Y11.360 F300.0
G1 X9.155 Y11.558 F300.0
G1 X9.282 Y11.802 F300.0
G1 X9.358 Y12.093 F300.0
G1 X9.383 Y12.430 F300.0
G1 X9.358 Y12.769 F300.0
G1 X9.282 Y13.060 F300.0
G1 X9.155 Y13.304 F300.0
G1 X8.977 Y13.500 F300.0
G1 X8.746 Y13.651 F300.0
G1 X8.460 Y13.758 F300.0
G1 X8.120 Y13.823 F300.0
G1 X7.725 Y13.845 F300.0
G1 X6.047 Y13.845 F300.0
G1 Z-1.500 F100.0
G1 X6.047 Y11.010 F300.0
G1 X7.725 Y11.010 F300.0
G1 X8.120 Y11.032 F300.0
G1 X8.460 Y11.098 F300.0
G1 X8.746 Y11.207 F300.0
G1 X8.977 Y11.360 F300.0
G1 X9.155 Y11.558 F300.0
G1 X9.282 Y11.802 F300.0
G1 X9.358 Y12.093 F300.0
G1 X9.383 Y12.430 F300.0
G1 X9.358 Y12.769 F300.0
G1 X9.282 Y13.060 F300.0
G1 X9.155 Y13.304 F300.0
G1 X8.977 Y13.500 F300.0
G1 X8.746 Y13.651 F300.0
G1 X8.460 Y13.758 F300.0
G1 X8.120 Y13.823 F300.0
G1 X7.725 Y13.845 F300.0
G1 X6.047 Y13.845 F300.0
G1 Z-2.000 F100.0
G1 X6.047 Y11.010 F300.0
G1 X7.725 Y11.010 F300.0
G1 X8.120 Y11.032 F300.0
G1 X8.460 Y11.098 F300.0
G1 X8.746 Y11.207 F300.0
G1 X8.977 Y11.360 F300.0
G1 X9.155 Y11.558 F300.0
G1 X9.282 Y11.802 F300.0
G1 X9.358 Y12.093 F300.0
G1 X9.383 Y12.430 F300.0
G1 X9.358 Y12.769 F300.0
G1 X9.282 Y13.060 F300.0
G1 X9.155 Y13.304 F300.0
G1 X8.977 Y13.500 F300.0
G1 X8.746 Y13.651 F300.0
G1 X8.460 Y13.758 F300.0
G1 X8.120 Y13.823 F300.0
G1 X7.725 Y13.845 F300.0
G1 X6.047 Y13.845 F300.0
G0 Z5.000
; --- shape 2: poly / Engrave (on the line) / depth 2 mm ---
G0 X6.047 Y17.026
G0 Z1.000
G1 Z-0.500 F100.0
G1 X6.047 Y14.694 F300.0
G1 X7.596 Y14.694 F300.0
G1 X7.955 Y14.712 F300.0
G1 X8.265 Y14.766 F300.0
G1 X8.526 Y14.856 F300.0
G1 X8.738 Y14.982 F300.0
G1 X8.903 Y15.145 F300.0
G1 X9.020 Y15.345 F300.0
G1 X9.091 Y15.584 F300.0
G1 X9.114 Y15.860 F300.0
G1 X9.091 Y16.134 F300.0
G1 X9.020 Y16.372 F300.0
G1 X8.903 Y16.572 F300.0
G1 X8.738 Y16.736 F300.0
G1 X8.526 Y16.863 F300.0
G1 X8.265 Y16.953 F300.0
G1 X7.955 Y17.008 F300.0
G1 X7.596 Y17.026 F300.0
G1 X6.047 Y17.026 F300.0
G1 Z-1.000 F100.0
G1 X6.047 Y14.694 F300.0
G1 X7.596 Y14.694 F300.0
G1 X7.955 Y14.712 F300.0
G1 X8.265 Y14.766 F300.0
G1 X8.526 Y14.856 F300.0
G1 X8.738 Y14.982 F300.0
G1 X8.903 Y15.145 F300.0
G1 X9.020 Y15.345 F300.0
G1 X9.091 Y15.584 F300.0
G1 X9.114 Y15.860 F300.0
G1 X9.091 Y16.134 F300.0
G1 X9.020 Y16.372 F300.0
G1 X8.903 Y16.572 F300.0
G1 X8.738 Y16.736 F300.0
G1 X8.526 Y16.863 F300.0
G1 X8.265 Y16.953 F300.0
G1 X7.955 Y17.008 F300.0
G1 X7.596 Y17.026 F300.0
G1 X6.047 Y17.026 F300.0
G1 Z-1.500 F100.0
G1 X6.047 Y14.694 F300.0
G1 X7.596 Y14.694 F300.0
G1 X7.955 Y14.712 F300.0
G1 X8.265 Y14.766 F300.0
G1 X8.526 Y14.856 F300.0
G1 X8.738 Y14.982 F300.0
G1 X8.903 Y15.145 F300.0
G1 X9.020 Y15.345 F300.0
G1 X9.091 Y15.584 F300.0
G1 X9.114 Y15.860 F300.0
G1 X9.091 Y16.134 F300.0
G1 X9.020 Y16.372 F300.0
G1 X8.903 Y16.572 F300.0
G1 X8.738 Y16.736 F300.0
G1 X8.526 Y16.863 F300.0
G1 X8.265 Y16.953 F300.0
G1 X7.955 Y17.008 F300.0
G1 X7.596 Y17.026 F300.0
G1 X6.047 Y17.026 F300.0
G1 Z-2.000 F100.0
G1 X6.047 Y14.694 F300.0
G1 X7.596 Y14.694 F300.0
G1 X7.955 Y14.712 F300.0
G1 X8.265 Y14.766 F300.0
G1 X8.526 Y14.856 F300.0
G1 X8.738 Y14.982 F300.0
G1 X8.903 Y15.145 F300.0
G1 X9.020 Y15.345 F300.0
G1 X9.091 Y15.584 F300.0
G1 X9.114 Y15.860 F300.0
G1 X9.091 Y16.134 F300.0
G1 X9.020 Y16.372 F300.0
G1 X8.903 Y16.572 F300.0
G1 X8.738 Y16.736 F300.0
G1 X8.526 Y16.863 F300.0
G1 X8.265 Y16.953 F300.0
G1 X7.955 Y17.008 F300.0
G1 X7.596 Y17.026 F300.0
G1 X6.047 Y17.026 F300.0
G0 Z5.000
; --- shape 3: poly / Engrave (on the line) / depth 2 mm ---
G0 X5.000 Y17.886
G0 Z1.000
G1 Z-0.500 F100.0
G1 X7.674 Y17.886 F300.0
G1 X7.964 Y17.878 F300.0
G1 X8.238 Y17.855 F300.0
G1 X8.494 Y17.816 F300.0
G1 X8.733 Y17.762 F300.0
G1 X8.955 Y17.692 F300.0
G1 X9.160 Y17.606 F300.0
G1 X9.348 Y17.505 F300.0
G1 X9.518 Y17.389 F300.0
G1 X9.670 Y17.258 F300.0
G1 X9.801 Y17.114 F300.0
G1 X9.913 Y16.957 F300.0
G1 X10.004 Y16.786 F300.0
G1 X10.075 Y16.603 F300.0
G1 X10.125 Y16.406 F300.0
G1 X10.156 Y16.197 F300.0
G1 X10.166 Y15.974 F300.0
G1 X10.145 Y15.637 F300.0
G1 X10.083 Y15.337 F300.0
G1 X9.979 Y15.073 F300.0
G1 X9.834 Y14.845 F300.0
G1 X9.649 Y14.654 F300.0
G1 X9.425 Y14.504 F300.0
G1 X9.162 Y14.393 F300.0
G1 X8.860 Y14.321 F300.0
G1 X9.225 Y14.216 F300.0
G1 X9.546 Y14.065 F300.0
G1 X9.824 Y13.870 F300.0
G1 X10.060 Y13.630 F300.0
G1 X10.247 Y13.350 F300.0
G1 X10.380 Y13.038 F300.0
G1 X10.460 Y12.693 F300.0
G1 X10.487 Y12.316 F300.0
G1 X10.476 Y12.064 F300.0
G1 X10.443 Y11.827 F300.0
G1 X10.388 Y11.605 F300.0
G1 X10.311 Y11.398 F300.0
G1 X10.212 Y11.205 F300.0
G1 X10.091 Y11.027 F300.0
G1 X9.948 Y10.864 F300.0
G1 X9.782 Y10.715 F300.0
G1 X9.597 Y10.583 F300.0
G1 X9.393 Y10.468 F300.0
G1 X9.170 Y10.371 F300.0
G1 X8.929 Y10.291 F300.0
G1 X8.669 Y10.230 F300.0
G1 X8.390 Y10.186 F300.0
G1 X8.093 Y10.159 F300.0
G1 X7.777 Y10.150 F300.0
G1 X5.000 Y10.150 F300.0
G1 X5.000 Y17.886 F300.0
G1 Z-1.000 F100.0
G1 X7.674 Y17.886 F300.0
G1 X7.964 Y17.878 F300.0
G1 X8.238 Y17.855 F300.0
G1 X8.494 Y17.816 F300.0
G1 X8.733 Y17.762 F300.0
G1 X8.955 Y17.692 F300.0
G1 X9.160 Y17.606 F300.0
G1 X9.348 Y17.505 F300.0
G1 X9.518 Y17.389 F300.0
G1 X9.670 Y17.258 F300.0
G1 X9.801 Y17.114 F300.0
G1 X9.913 Y16.957 F300.0
G1 X10.004 Y16.786 F300.0
G1 X10.075 Y16.603 F300.0
G1 X10.125 Y16.406 F300.0
G1 X10.156 Y16.197 F300.0
G1 X10.166 Y15.974 F300.0
G1 X10.145 Y15.637 F300.0
G1 X10.083 Y15.337 F300.0
G1 X9.979 Y15.073 F300.0
G1 X9.834 Y14.845 F300.0
G1 X9.649 Y14.654 F300.0
G1 X9.425 Y14.504 F300.0
G1 X9.162 Y14.393 F300.0
G1 X8.860 Y14.321 F300.0
G1 X9.225 Y14.216 F300.0
G1 X9.546 Y14.065 F300.0
G1 X9.824 Y13.870 F300.0
G1 X10.060 Y13.630 F300.0
G1 X10.247 Y13.350 F300.0
G1 X10.380 Y13.038 F300.0
G1 X10.460 Y12.693 F300.0
G1 X10.487 Y12.316 F300.0
G1 X10.476 Y12.064 F300.0
G1 X10.443 Y11.827 F300.0
G1 X10.388 Y11.605 F300.0
G1 X10.311 Y11.398 F300.0
G1 X10.212 Y11.205 F300.0
G1 X10.091 Y11.027 F300.0
G1 X9.948 Y10.864 F300.0
G1 X9.782 Y10.715 F300.0
G1 X9.597 Y10.583 F300.0
G1 X9.393 Y10.468 F300.0
G1 X9.170 Y10.371 F300.0
G1 X8.929 Y10.291 F300.0
G1 X8.669 Y10.230 F300.0
G1 X8.390 Y10.186 F300.0
G1 X8.093 Y10.159 F300.0
G1 X7.777 Y10.150 F300.0
G1 X5.000 Y10.150 F300.0
G1 X5.000 Y17.886 F300.0
G1 Z-1.500 F100.0
G1 X7.674 Y17.886 F300.0
G1 X7.964 Y17.878 F300.0
G1 X8.238 Y17.855 F300.0
G1 X8.494 Y17.816 F300.0
G1 X8.733 Y17.762 F300.0
G1 X8.955 Y17.692 F300.0
G1 X9.160 Y17.606 F300.0
G1 X9.348 Y17.505 F300.0
G1 X9.518 Y17.389 F300.0
G1 X9.670 Y17.258 F300.0
G1 X9.801 Y17.114 F300.0
G1 X9.913 Y16.957 F300.0
G1 X10.004 Y16.786 F300.0
G1 X10.075 Y16.603 F300.0
G1 X10.125 Y16.406 F300.0
G1 X10.156 Y16.197 F300.0
G1 X10.166 Y15.974 F300.0
G1 X10.145 Y15.637 F300.0
G1 X10.083 Y15.337 F300.0
G1 X9.979 Y15.073 F300.0
G1 X9.834 Y14.845 F300.0
G1 X9.649 Y14.654 F300.0
G1 X9.425 Y14.504 F300.0
G1 X9.162 Y14.393 F300.0
G1 X8.860 Y14.321 F300.0
G1 X9.225 Y14.216 F300.0
G1 X9.546 Y14.065 F300.0
G1 X9.824 Y13.870 F300.0
G1 X10.060 Y13.630 F300.0
G1 X10.247 Y13.350 F300.0
G1 X10.380 Y13.038 F300.0
G1 X10.460 Y12.693 F300.0
G1 X10.487 Y12.316 F300.0
G1 X10.476 Y12.064 F300.0
G1 X10.443 Y11.827 F300.0
G1 X10.388 Y11.605 F300.0
G1 X10.311 Y11.398 F300.0
G1 X10.212 Y11.205 F300.0
G1 X10.091 Y11.027 F300.0
G1 X9.948 Y10.864 F300.0
G1 X9.782 Y10.715 F300.0
G1 X9.597 Y10.583 F300.0
G1 X9.393 Y10.468 F300.0
G1 X9.170 Y10.371 F300.0
G1 X8.929 Y10.291 F300.0
G1 X8.669 Y10.230 F300.0
G1 X8.390 Y10.186 F300.0
G1 X8.093 Y10.159 F300.0
G1 X7.777 Y10.150 F300.0
G1 X5.000 Y10.150 F300.0
G1 X5.000 Y17.886 F300.0
G1 Z-2.000 F100.0
G1 X7.674 Y17.886 F300.0
G1 X7.964 Y17.878 F300.0
G1 X8.238 Y17.855 F300.0
G1 X8.494 Y17.816 F300.0
G1 X8.733 Y17.762 F300.0
G1 X8.955 Y17.692 F300.0
G1 X9.160 Y17.606 F300.0
G1 X9.348 Y17.505 F300.0
G1 X9.518 Y17.389 F300.0
G1 X9.670 Y17.258 F300.0
G1 X9.801 Y17.114 F300.0
G1 X9.913 Y16.957 F300.0
G1 X10.004 Y16.786 F300.0
G1 X10.075 Y16.603 F300.0
G1 X10.125 Y16.406 F300.0
G1 X10.156 Y16.197 F300.0
G1 X10.166 Y15.974 F300.0
G1 X10.145 Y15.637 F300.0
G1 X10.083 Y15.337 F300.0
G1 X9.979 Y15.073 F300.0
G1 X9.834 Y14.845 F300.0
G1 X9.649 Y14.654 F300.0
G1 X9.425 Y14.504 F300.0
G1 X9.162 Y14.393 F300.0
G1 X8.860 Y14.321 F300.0
G1 X9.225 Y14.216 F300.0
G1 X9.546 Y14.065 F300.0
G1 X9.824 Y13.870 F300.0
G1 X10.060 Y13.630 F300.0
G1 X10.247 Y13.350 F300.0
G1 X10.380 Y13.038 F300.0
G1 X10.460 Y12.693 F300.0
G1 X10.487 Y12.316 F300.0
G1 X10.476 Y12.064 F300.0
G1 X10.443 Y11.827 F300.0
G1 X10.388 Y11.605 F300.0
G1 X10.311 Y11.398 F300.0
G1 X10.212 Y11.205 F300.0
G1 X10.091 Y11.027 F300.0
G1 X9.948 Y10.864 F300.0
G1 X9.782 Y10.715 F300.0
G1 X9.597 Y10.583 F300.0
G1 X9.393 Y10.468 F300.0
G1 X9.170 Y10.371 F300.0
G1 X8.929 Y10.291 F300.0
G1 X8.669 Y10.230 F300.0
G1 X8.390 Y10.186 F300.0
G1 X8.093 Y10.159 F300.0
G1 X7.777 Y10.150 F300.0
G1 X5.000 Y10.150 F300.0
G1 X5.000 Y17.886 F300.0
G0 Z5.000
; --- shape 4: poly / Engrave (on the line) / depth 2 mm ---
G0 X16.865 Y16.855
G0 Z1.000
G1 Z-0.500 F100.0
G1 X15.446 Y13.005 F300.0
G1 X18.290 Y13.005 F300.0
G1 X16.865 Y16.855 F300.0
G1 Z-1.000 F100.0
G1 X15.446 Y13.005 F300.0
G1 X18.290 Y13.005 F300.0
G1 X16.865 Y16.855 F300.0
G1 Z-1.500 F100.0
G1 X15.446 Y13.005 F300.0
G1 X18.290 Y13.005 F300.0
G1 X16.865 Y16.855 F300.0
G1 Z-2.000 F100.0
G1 X15.446 Y13.005 F300.0
G1 X18.290 Y13.005 F300.0
G1 X16.865 Y16.855 F300.0
G0 Z5.000
; --- shape 5: poly / Engrave (on the line) / depth 2 mm ---
G0 X16.275 Y17.886
G0 Z1.000
G1 Z-0.500 F100.0
G1 X17.461 Y17.886 F300.0
G1 X20.409 Y10.150 F300.0
G1 X19.321 Y10.150 F300.0
G1 X18.617 Y12.135 F300.0
G1 X15.130 Y12.135 F300.0
G1 X14.425 Y10.150 F300.0
G1 X13.321 Y10.150 F300.0
G1 X16.275 Y17.886 F300.0
G1 Z-1.000 F100.0
G1 X17.461 Y17.886 F300.0
G1 X20.409 Y10.150 F300.0
G1 X19.321 Y10.150 F300.0
G1 X18.617 Y12.135 F300.0
G1 X15.130 Y12.135 F300.0
G1 X14.425 Y10.150 F300.0
G1 X13.321 Y10.150 F300.0
G1 X16.275 Y17.886 F300.0
G1 Z-1.500 F100.0
G1 X17.461 Y17.886 F300.0
G1 X20.409 Y10.150 F300.0
G1 X19.321 Y10.150 F300.0
G1 X18.617 Y12.135 F300.0
G1 X15.130 Y12.135 F300.0
G1 X14.425 Y10.150 F300.0
G1 X13.321 Y10.150 F300.0
G1 X16.275 Y17.886 F300.0
G1 Z-2.000 F100.0
G1 X17.461 Y17.886 F300.0
G1 X20.409 Y10.150 F300.0
G1 X19.321 Y10.150 F300.0
G1 X18.617 Y12.135 F300.0
G1 X15.130 Y12.135 F300.0
G1 X14.425 Y10.150 F300.0
G1 X13.321 Y10.150 F300.0
G1 X16.275 Y17.886 F300.0
G0 Z5.000
; --- shape 6: poly / Engrave (on the line) / depth 2 mm ---
G0 X24.585 Y13.845
G0 Z1.000
G1 Z-0.500 F100.0
G1 X24.585 Y11.010 F300.0
G1 X26.264 Y11.010 F300.0
G1 X26.659 Y11.032 F300.0
G1 X26.999 Y11.098 F300.0
G1 X27.285 Y11.207 F300.0
G1 X27.516 Y11.360 F300.0
G1 X27.693 Y11.558 F300.0
G1 X27.821 Y11.802 F300.0
G1 X27.897 Y12.093 F300.0
G1 X27.922 Y12.430 F300.0
G1 X27.897 Y12.769 F300.0
G1 X27.821 Y13.060 F300.0
G1 X27.693 Y13.304 F300.0
G1 X27.516 Y13.500 F300.0
G1 X27.285 Y13.651 F300.0
G1 X26.999 Y13.758 F300.0
G1 X26.659 Y13.823 F300.0
G1 X26.264 Y13.845 F300.0
G1 X24.585 Y13.845 F300.0
G1 Z-1.000 F100.0
G1 X24.585 Y11.010 F300.0
G1 X26.264 Y11.010 F300.0
G1 X26.659 Y11.032 F300.0
G1 X26.999 Y11.098 F300.0
G1 X27.285 Y11.207 F300.0
G1 X27.516 Y11.360 F300.0
G1 X27.693 Y11.558 F300.0
G1 X27.821 Y11.802 F300.0
G1 X27.897 Y12.093 F300.0
G1 X27.922 Y12.430 F300.0
G1 X27.897 Y12.769 F300.0
G1 X27.821 Y13.060 F300.0
G1 X27.693 Y13.304 F300.0
G1 X27.516 Y13.500 F300.0
G1 X27.285 Y13.651 F300.0
G1 X26.999 Y13.758 F300.0
G1 X26.659 Y13.823 F300.0
G1 X26.264 Y13.845 F300.0
G1 X24.585 Y13.845 F300.0
G1 Z-1.500 F100.0
G1 X24.585 Y11.010 F300.0
G1 X26.264 Y11.010 F300.0
G1 X26.659 Y11.032 F300.0
G1 X26.999 Y11.098 F300.0
G1 X27.285 Y11.207 F300.0
G1 X27.516 Y11.360 F300.0
G1 X27.693 Y11.558 F300.0
G1 X27.821 Y11.802 F300.0
G1 X27.897 Y12.093 F300.0
G1 X27.922 Y12.430 F300.0
G1 X27.897 Y12.769 F300.0
G1 X27.821 Y13.060 F300.0
G1 X27.693 Y13.304 F300.0
G1 X27.516 Y13.500 F300.0
G1 X27.285 Y13.651 F300.0
G1 X26.999 Y13.758 F300.0
G1 X26.659 Y13.823 F300.0
G1 X26.264 Y13.845 F300.0
G1 X24.585 Y13.845 F300.0
G1 Z-2.000 F100.0
G1 X24.585 Y11.010 F300.0
G1 X26.264 Y11.010 F300.0
G1 X26.659 Y11.032 F300.0
G1 X26.999 Y11.098 F300.0
G1 X27.285 Y11.207 F300.0
G1 X27.516 Y11.360 F300.0
G1 X27.693 Y11.558 F300.0
G1 X27.821 Y11.802 F300.0
G1 X27.897 Y12.093 F300.0
G1 X27.922 Y12.430 F300.0
G1 X27.897 Y12.769 F300.0
G1 X27.821 Y13.060 F300.0
G1 X27.693 Y13.304 F300.0
G1 X27.516 Y13.500 F300.0
G1 X27.285 Y13.651 F300.0
G1 X26.999 Y13.758 F300.0
G1 X26.659 Y13.823 F300.0
G1 X26.264 Y13.845 F300.0
G1 X24.585 Y13.845 F300.0
G0 Z5.000
; --- shape 7: poly / Engrave (on the line) / depth 2 mm ---
G0 X24.585 Y17.026
G0 Z1.000
G1 Z-0.500 F100.0
G1 X24.585 Y14.694 F300.0
G1 X26.135 Y14.694 F300.0
G1 X26.494 Y14.712 F300.0
G1 X26.804 Y14.766 F300.0
G1 X27.065 Y14.856 F300.0
G1 X27.277 Y14.982 F300.0
G1 X27.442 Y15.145 F300.0
G1 X27.559 Y15.345 F300.0
G1 X27.629 Y15.584 F300.0
G1 X27.653 Y15.860 F300.0
G1 X27.629 Y16.134 F300.0
G1 X27.559 Y16.372 F300.0
G1 X27.442 Y16.572 F300.0
G1 X27.277 Y16.736 F300.0
G1 X27.065 Y16.863 F300.0
G1 X26.804 Y16.953 F300.0
G1 X26.494 Y17.008 F300.0
G1 X26.135 Y17.026 F300.0
G1 X24.585 Y17.026 F300.0
G1 Z-1.000 F100.0
G1 X24.585 Y14.694 F300.0
G1 X26.135 Y14.694 F300.0
G1 X26.494 Y14.712 F300.0
G1 X26.804 Y14.766 F300.0
G1 X27.065 Y14.856 F300.0
G1 X27.277 Y14.982 F300.0
G1 X27.442 Y15.145 F300.0
G1 X27.559 Y15.345 F300.0
G1 X27.629 Y15.584 F300.0
G1 X27.653 Y15.860 F300.0
G1 X27.629 Y16.134 F300.0
G1 X27.559 Y16.372 F300.0
G1 X27.442 Y16.572 F300.0
G1 X27.277 Y16.736 F300.0
G1 X27.065 Y16.863 F300.0
G1 X26.804 Y16.953 F300.0
G1 X26.494 Y17.008 F300.0
G1 X26.135 Y17.026 F300.0
G1 X24.585 Y17.026 F300.0
G1 Z-1.500 F100.0
G1 X24.585 Y14.694 F300.0
G1 X26.135 Y14.694 F300.0
G1 X26.494 Y14.712 F300.0
G1 X26.804 Y14.766 F300.0
G1 X27.065 Y14.856 F300.0
G1 X27.277 Y14.982 F300.0
G1 X27.442 Y15.145 F300.0
G1 X27.559 Y15.345 F300.0
G1 X27.629 Y15.584 F300.0
G1 X27.653 Y15.860 F300.0
G1 X27.629 Y16.134 F300.0
G1 X27.559 Y16.372 F300.0
G1 X27.442 Y16.572 F300.0
G1 X27.277 Y16.736 F300.0
G1 X27.065 Y16.863 F300.0
G1 X26.804 Y16.953 F300.0
G1 X26.494 Y17.008 F300.0
G1 X26.135 Y17.026 F300.0
G1 X24.585 Y17.026 F300.0
G1 Z-2.000 F100.0
G1 X24.585 Y14.694 F300.0
G1 X26.135 Y14.694 F300.0
G1 X26.494 Y14.712 F300.0
G1 X26.804 Y14.766 F300.0
G1 X27.065 Y14.856 F300.0
G1 X27.277 Y14.982 F300.0
G1 X27.442 Y15.145 F300.0
G1 X27.559 Y15.345 F300.0
G1 X27.629 Y15.584 F300.0
G1 X27.653 Y15.860 F300.0
G1 X27.629 Y16.134 F300.0
G1 X27.559 Y16.372 F300.0
G1 X27.442 Y16.572 F300.0
G1 X27.277 Y16.736 F300.0
G1 X27.065 Y16.863 F300.0
G1 X26.804 Y16.953 F300.0
G1 X26.494 Y17.008 F300.0
G1 X26.135 Y17.026 F300.0
G1 X24.585 Y17.026 F300.0
G0 Z5.000
; --- shape 8: poly / Engrave (on the line) / depth 2 mm ---
G0 X23.539 Y17.886
G0 Z1.000
G1 Z-0.500 F100.0
G1 X26.212 Y17.886 F300.0
G1 X26.503 Y17.878 F300.0
G1 X26.777 Y17.855 F300.0
G1 X27.033 Y17.816 F300.0
G1 X27.272 Y17.762 F300.0
G1 X27.494 Y17.692 F300.0
G1 X27.699 Y17.606 F300.0
G1 X27.886 Y17.505 F300.0
G1 X28.057 Y17.389 F300.0
G1 X28.209 Y17.258 F300.0
G1 X28.340 Y17.114 F300.0
G1 X28.452 Y16.957 F300.0
G1 X28.543 Y16.786 F300.0
G1 X28.614 Y16.603 F300.0
G1 X28.664 Y16.406 F300.0
G1 X28.695 Y16.197 F300.0
G1 X28.705 Y15.974 F300.0
G1 X28.684 Y15.637 F300.0
G1 X28.622 Y15.337 F300.0
G1 X28.518 Y15.073 F300.0
G1 X28.373 Y14.845 F300.0
G1 X28.188 Y14.654 F300.0
G1 X27.964 Y14.504 F300.0
G1 X27.701 Y14.393 F300.0
G1 X27.399 Y14.321 F300.0
G1 X27.763 Y14.216 F300.0
G1 X28.085 Y14.065 F300.0
G1 X28.363 Y13.870 F300.0
G1 X28.598 Y13.630 F300.0
G1 X28.785 Y13.350 F300.0
G1 X28.919 Y13.038 F300.0
G1 X28.999 Y12.693 F300.0
G1 X29.026 Y12.316 F300.0
G1 X29.015 Y12.064 F300.0
G1 X28.982 Y11.827 F300.0
G1 X28.927 Y11.605 F300.0
G1 X28.850 Y11.398 F300.0
G1 X28.751 Y11.205 F300.0
G1 X28.630 Y11.027 F300.0
G1 X28.486 Y10.864 F300.0
G1 X28.321 Y10.715 F300.0
G1 X28.136 Y10.583 F300.0
G1 X27.932 Y10.468 F300.0
G1 X27.709 Y10.371 F300.0
G1 X27.468 Y10.291 F300.0
G1 X27.208 Y10.230 F300.0
G1 X26.929 Y10.186 F300.0
G1 X26.632 Y10.159 F300.0
G1 X26.316 Y10.150 F300.0
G1 X23.539 Y10.150 F300.0
G1 X23.539 Y17.886 F300.0
G1 Z-1.000 F100.0
G1 X26.212 Y17.886 F300.0
G1 X26.503 Y17.878 F300.0
G1 X26.777 Y17.855 F300.0
G1 X27.033 Y17.816 F300.0
G1 X27.272 Y17.762 F300.0
G1 X27.494 Y17.692 F300.0
G1 X27.699 Y17.606 F300.0
G1 X27.886 Y17.505 F300.0
G1 X28.057 Y17.389 F300.0
G1 X28.209 Y17.258 F300.0
G1 X28.340 Y17.114 F300.0
G1 X28.452 Y16.957 F300.0
G1 X28.543 Y16.786 F300.0
G1 X28.614 Y16.603 F300.0
G1 X28.664 Y16.406 F300.0
G1 X28.695 Y16.197 F300.0
G1 X28.705 Y15.974 F300.0
G1 X28.684 Y15.637 F300.0
G1 X28.622 Y15.337 F300.0
G1 X28.518 Y15.073 F300.0
G1 X28.373 Y14.845 F300.0
G1 X28.188 Y14.654 F300.0
G1 X27.964 Y14.504 F300.0
G1 X27.701 Y14.393 F300.0
G1 X27.399 Y14.321 F300.0
G1 X27.763 Y14.216 F300.0
G1 X28.085 Y14.065 F300.0
G1 X28.363 Y13.870 F300.0
G1 X28.598 Y13.630 F300.0
G1 X28.785 Y13.350 F300.0
G1 X28.919 Y13.038 F300.0
G1 X28.999 Y12.693 F300.0
G1 X29.026 Y12.316 F300.0
G1 X29.015 Y12.064 F300.0
G1 X28.982 Y11.827 F300.0
G1 X28.927 Y11.605 F300.0
G1 X28.850 Y11.398 F300.0
G1 X28.751 Y11.205 F300.0
G1 X28.630 Y11.027 F300.0
G1 X28.486 Y10.864 F300.0
G1 X28.321 Y10.715 F300.0
G1 X28.136 Y10.583 F300.0
G1 X27.932 Y10.468 F300.0
G1 X27.709 Y10.371 F300.0
G1 X27.468 Y10.291 F300.0
G1 X27.208 Y10.230 F300.0
G1 X26.929 Y10.186 F300.0
G1 X26.632 Y10.159 F300.0
G1 X26.316 Y10.150 F300.0
G1 X23.539 Y10.150 F300.0
G1 X23.539 Y17.886 F300.0
G1 Z-1.500 F100.0
G1 X26.212 Y17.886 F300.0
G1 X26.503 Y17.878 F300.0
G1 X26.777 Y17.855 F300.0
G1 X27.033 Y17.816 F300.0
G1 X27.272 Y17.762 F300.0
G1 X27.494 Y17.692 F300.0
G1 X27.699 Y17.606 F300.0
G1 X27.886 Y17.505 F300.0
G1 X28.057 Y17.389 F300.0
G1 X28.209 Y17.258 F300.0
G1 X28.340 Y17.114 F300.0
G1 X28.452 Y16.957 F300.0
G1 X28.543 Y16.786 F300.0
G1 X28.614 Y16.603 F300.0
G1 X28.664 Y16.406 F300.0
G1 X28.695 Y16.197 F300.0
G1 X28.705 Y15.974 F300.0
G1 X28.684 Y15.637 F300.0
G1 X28.622 Y15.337 F300.0
G1 X28.518 Y15.073 F300.0
G1 X28.373 Y14.845 F300.0
G1 X28.188 Y14.654 F300.0
G1 X27.964 Y14.504 F300.0
G1 X27.701 Y14.393 F300.0
G1 X27.399 Y14.321 F300.0
G1 X27.763 Y14.216 F300.0
G1 X28.085 Y14.065 F300.0
G1 X28.363 Y13.870 F300.0
G1 X28.598 Y13.630 F300.0
G1 X28.785 Y13.350 F300.0
G1 X28.919 Y13.038 F300.0
G1 X28.999 Y12.693 F300.0
G1 X29.026 Y12.316 F300.0
G1 X29.015 Y12.064 F300.0
G1 X28.982 Y11.827 F300.0
G1 X28.927 Y11.605 F300.0
G1 X28.850 Y11.398 F300.0
G1 X28.751 Y11.205 F300.0
G1 X28.630 Y11.027 F300.0
G1 X28.486 Y10.864 F300.0
G1 X28.321 Y10.715 F300.0
G1 X28.136 Y10.583 F300.0
G1 X27.932 Y10.468 F300.0
G1 X27.709 Y10.371 F300.0
G1 X27.468 Y10.291 F300.0
G1 X27.208 Y10.230 F300.0
G1 X26.929 Y10.186 F300.0
G1 X26.632 Y10.159 F300.0
G1 X26.316 Y10.150 F300.0
G1 X23.539 Y10.150 F300.0
G1 X23.539 Y17.886 F300.0
G1 Z-2.000 F100.0
G1 X26.212 Y17.886 F300.0
G1 X26.503 Y17.878 F300.0
G1 X26.777 Y17.855 F300.0
G1 X27.033 Y17.816 F300.0
G1 X27.272 Y17.762 F300.0
G1 X27.494 Y17.692 F300.0
G1 X27.699 Y17.606 F300.0
G1 X27.886 Y17.505 F300.0
G1 X28.057 Y17.389 F300.0
G1 X28.209 Y17.258 F300.0
G1 X28.340 Y17.114 F300.0
G1 X28.452 Y16.957 F300.0
G1 X28.543 Y16.786 F300.0
G1 X28.614 Y16.603 F300.0
G1 X28.664 Y16.406 F300.0
G1 X28.695 Y16.197 F300.0
G1 X28.705 Y15.974 F300.0
G1 X28.684 Y15.637 F300.0
G1 X28.622 Y15.337 F300.0
G1 X28.518 Y15.073 F300.0
G1 X28.373 Y14.845 F300.0
G1 X28.188 Y14.654 F300.0
G1 X27.964 Y14.504 F300.0
G1 X27.701 Y14.393 F300.0
G1 X27.399 Y14.321 F300.0
G1 X27.763 Y14.216 F300.0
G1 X28.085 Y14.065 F300.0
G1 X28.363 Y13.870 F300.0
G1 X28.598 Y13.630 F300.0
G1 X28.785 Y13.350 F300.0
G1 X28.919 Y13.038 F300.0
G1 X28.999 Y12.693 F300.0
G1 X29.026 Y12.316 F300.0
G1 X29.015 Y12.064 F300.0
G1 X28.982 Y11.827 F300.0
G1 X28.927 Y11.605 F300.0
G1 X28.850 Y11.398 F300.0
G1 X28.751 Y11.205 F300.0
G1 X28.630 Y11.027 F300.0
G1 X28.486 Y10.864 F300.0
G1 X28.321 Y10.715 F300.0
G1 X28.136 Y10.583 F300.0
G1 X27.932 Y10.468 F300.0
G1 X27.709 Y10.371 F300.0
G1 X27.468 Y10.291 F300.0
G1 X27.208 Y10.230 F300.0
G1 X26.929 Y10.186 F300.0
G1 X26.632 Y10.159 F300.0
G1 X26.316 Y10.150 F300.0
G1 X23.539 Y10.150 F300.0
G1 X23.539 Y17.886 F300.0
G0 Z5.000
; --- shape 9: poly / Engrave (on the line) / depth 2 mm ---
G0 X35.404 Y16.855
G0 Z1.000
G1 Z-0.500 F100.0
G1 X33.984 Y13.005 F300.0
G1 X36.829 Y13.005 F300.0
G1 X35.404 Y16.855 F300.0
G1 Z-1.000 F100.0
G1 X33.984 Y13.005 F300.0
G1 X36.829 Y13.005 F300.0
G1 X35.404 Y16.855 F300.0
G1 Z-1.500 F100.0
G1 X33.984 Y13.005 F300.0
G1 X36.829 Y13.005 F300.0
G1 X35.404 Y16.855 F300.0
G1 Z-2.000 F100.0
G1 X33.984 Y13.005 F300.0
G1 X36.829 Y13.005 F300.0
G1 X35.404 Y16.855 F300.0
G0 Z5.000
; --- shape 10: poly / Engrave (on the line) / depth 2 mm ---
G0 X34.813 Y17.886
G0 Z1.000
G1 Z-0.500 F100.0
G1 X36.000 Y17.886 F300.0
G1 X38.948 Y10.150 F300.0
G1 X37.860 Y10.150 F300.0
G1 X37.155 Y12.135 F300.0
G1 X33.668 Y12.135 F300.0
G1 X32.964 Y10.150 F300.0
G1 X31.860 Y10.150 F300.0
G1 X34.813 Y17.886 F300.0
G1 Z-1.000 F100.0
G1 X36.000 Y17.886 F300.0
G1 X38.948 Y10.150 F300.0
G1 X37.860 Y10.150 F300.0
G1 X37.155 Y12.135 F300.0
G1 X33.668 Y12.135 F300.0
G1 X32.964 Y10.150 F300.0
G1 X31.860 Y10.150 F300.0
G1 X34.813 Y17.886 F300.0
G1 Z-1.500 F100.0
G1 X36.000 Y17.886 F300.0
G1 X38.948 Y10.150 F300.0
G1 X37.860 Y10.150 F300.0
G1 X37.155 Y12.135 F300.0
G1 X33.668 Y12.135 F300.0
G1 X32.964 Y10.150 F300.0
G1 X31.860 Y10.150 F300.0
G1 X34.813 Y17.886 F300.0
G1 Z-2.000 F100.0
G1 X36.000 Y17.886 F300.0
G1 X38.948 Y10.150 F300.0
G1 X37.860 Y10.150 F300.0
G1 X37.155 Y12.135 F300.0
G1 X33.668 Y12.135 F300.0
G1 X32.964 Y10.150 F300.0
G1 X31.860 Y10.150 F300.0
G1 X34.813 Y17.886 F300.0
G0 Z5.000
; --- shape 11: poly / Engrave (on the line) / depth 2 mm ---
G0 X42.078 Y17.886
G0 Z1.000
G1 Z-0.500 F100.0
G1 X43.637 Y17.886 F300.0
G1 X45.611 Y12.622 F300.0
G1 X47.596 Y17.886 F300.0
G1 X49.155 Y17.886 F300.0
G1 X49.155 Y10.150 F300.0
G1 X48.135 Y10.150 F300.0
G1 X48.135 Y16.943 F300.0
G1 X46.140 Y11.637 F300.0
G1 X45.088 Y11.637 F300.0
G1 X43.093 Y16.943 F300.0
G1 X43.093 Y10.150 F300.0
G1 X42.078 Y10.150 F300.0
G1 X42.078 Y17.886 F300.0
G1 Z-1.000 F100.0
G1 X43.637 Y17.886 F300.0
G1 X45.611 Y12.622 F300.0
G1 X47.596 Y17.886 F300.0
G1 X49.155 Y17.886 F300.0
G1 X49.155 Y10.150 F300.0
G1 X48.135 Y10.150 F300.0
G1 X48.135 Y16.943 F300.0
G1 X46.140 Y11.637 F300.0
G1 X45.088 Y11.637 F300.0
G1 X43.093 Y16.943 F300.0
G1 X43.093 Y10.150 F300.0
G1 X42.078 Y10.150 F300.0
G1 X42.078 Y17.886 F300.0
G1 Z-1.500 F100.0
G1 X43.637 Y17.886 F300.0
G1 X45.611 Y12.622 F300.0
G1 X47.596 Y17.886 F300.0
G1 X49.155 Y17.886 F300.0
G1 X49.155 Y10.150 F300.0
G1 X48.135 Y10.150 F300.0
G1 X48.135 Y16.943 F300.0
G1 X46.140 Y11.637 F300.0
G1 X45.088 Y11.637 F300.0
G1 X43.093 Y16.943 F300.0
G1 X43.093 Y10.150 F300.0
G1 X42.078 Y10.150 F300.0
G1 X42.078 Y17.886 F300.0
G1 Z-2.000 F100.0
G1 X43.637 Y17.886 F300.0
G1 X45.611 Y12.622 F300.0
G1 X47.596 Y17.886 F300.0
G1 X49.155 Y17.886 F300.0
G1 X49.155 Y10.150 F300.0
G1 X48.135 Y10.150 F300.0
G1 X48.135 Y16.943 F300.0
G1 X46.140 Y11.637 F300.0
G1 X45.088 Y11.637 F300.0
G1 X43.093 Y16.943 F300.0
G1 X43.093 Y10.150 F300.0
G1 X42.078 Y10.150 F300.0
G1 X42.078 Y17.886 F300.0
G0 Z5.000
; --- shape 12: poly / Engrave (on the line) / depth 2 mm ---
G0 X63.244 Y17.632
G0 Z1.000
G1 Z-0.500 F100.0
G1 X63.244 Y16.611 F300.0
G1 X62.665 Y16.860 F300.0
G1 X62.119 Y17.036 F300.0
G1 X61.600 Y17.141 F300.0
G1 X61.347 Y17.167 F300.0
G1 X61.098 Y17.176 F300.0
G1 X60.695 Y17.155 F300.0
G1 X60.341 Y17.093 F300.0
G1 X60.036 Y16.990 F300.0
G1 X59.780 Y16.845 F300.0
G1 X59.577 Y16.661 F300.0
G1 X59.432 Y16.443 F300.0
G1 X59.345 Y16.190 F300.0
G1 X59.316 Y15.902 F300.0
G1 X59.335 Y15.661 F300.0
G1 X59.393 Y15.451 F300.0
G1 X59.489 Y15.273 F300.0
G1 X59.624 Y15.127 F300.0
G1 X59.813 Y15.002 F300.0
G1 X60.071 Y14.891 F300.0
G1 X60.397 Y14.791 F300.0
G1 X60.793 Y14.705 F300.0
G1 X61.425 Y14.575 F300.0
G1 X61.972 Y14.443 F300.0
G1 X62.442 Y14.267 F300.0
G1 X62.836 Y14.050 F300.0
G1 X63.153 Y13.790 F300.0
G1 X63.397 Y13.485 F300.0
G1 X63.492 Y13.315 F300.0
G1 X63.571 Y13.133 F300.0
G1 X63.632 Y12.939 F300.0
G1 X63.675 Y12.733 F300.0
G1 X63.701 Y12.515 F300.0
G1 X63.710 Y12.285 F300.0
G1 X63.698 Y12.012 F300.0
G1 X63.663 Y11.757 F300.0
G1 X63.604 Y11.518 F300.0
G1 X63.521 Y11.297 F300.0
G1 X63.415 Y11.092 F300.0
G1 X63.286 Y10.904 F300.0
G1 X63.133 Y10.734 F300.0
G1 X62.956 Y10.580 F300.0
G1 X62.757 Y10.444 F300.0
G1 X62.535 Y10.326 F300.0
G1 X62.292 Y10.227 F300.0
G1 X62.027 Y10.145 F300.0
G1 X61.739 Y10.082 F300.0
G1 X61.430 Y10.036 F300.0
G1 X61.099 Y10.009 F300.0
G1 X60.746 Y10.000 F300.0
G1 X60.179 Y10.031 F300.0
G1 X59.578 Y10.124 F300.0
G1 X58.948 Y10.278 F300.0
G1 X58.295 Y10.492 F300.0
G1 X58.295 Y11.570 F300.0
G1 X58.926 Y11.256 F300.0
G1 X59.544 Y11.031 F300.0
G1 X59.848 Y10.952 F300.0
G1 X60.150 Y10.895 F300.0
G1 X60.449 Y10.861 F300.0
G1 X60.746 Y10.850 F300.0
G1 X61.169 Y10.872 F300.0
G1 X61.540 Y10.938 F300.0
G1 X61.860 Y11.048 F300.0
G1 X62.130 Y11.202 F300.0
G1 X62.343 Y11.397 F300.0
G1 X62.495 Y11.630 F300.0
G1 X62.586 Y11.900 F300.0
G1 X62.617 Y12.207 F300.0
G1 X62.595 Y12.477 F300.0
G1 X62.529 Y12.715 F300.0
G1 X62.420 Y12.922 F300.0
G1 X62.267 Y13.098 F300.0
G1 X62.064 Y13.249 F300.0
G1 X61.805 Y13.380 F300.0
G1 X61.490 Y13.490 F300.0
G1 X61.119 Y13.580 F300.0
G1 X60.482 Y13.705 F300.0
G1 X59.937 Y13.838 F300.0
G1 X59.473 Y14.004 F300.0
G1 X59.090 Y14.203 F300.0
G1 X58.788 Y14.435 F300.0
G1 X58.559 Y14.708 F300.0
G1 X58.395 Y15.030 F300.0
G1 X58.297 Y15.400 F300.0
G1 X58.272 Y15.603 F300.0
G1 X58.264 Y15.819 F300.0
G1 X58.276 Y16.068 F300.0
G1 X58.309 Y16.304 F300.0
G1 X58.366 Y16.527 F300.0
G1 X58.445 Y16.736 F300.0
G1 X58.547 Y16.931 F300.0
G1 X58.671 Y17.113 F300.0
G1 X58.818 Y17.281 F300.0
G1 X58.987 Y17.435 F300.0
G1 X59.176 Y17.574 F300.0
G1 X59.383 Y17.694 F300.0
G1 X59.606 Y17.795 F300.0
G1 X59.847 Y17.878 F300.0
G1 X60.104 Y17.943 F300.0
G1 X60.379 Y17.989 F300.0
G1 X60.670 Y18.017 F300.0
G1 X60.979 Y18.026 F300.0
G1 X61.528 Y18.001 F300.0
G1 X62.088 Y17.927 F300.0
G1 X62.659 Y17.804 F300.0
G1 X63.244 Y17.632 F300.0
G1 Z-1.000 F100.0
G1 X63.244 Y16.611 F300.0
G1 X62.665 Y16.860 F300.0
G1 X62.119 Y17.036 F300.0
G1 X61.600 Y17.141 F300.0
G1 X61.347 Y17.167 F300.0
G1 X61.098 Y17.176 F300.0
G1 X60.695 Y17.155 F300.0
G1 X60.341 Y17.093 F300.0
G1 X60.036 Y16.990 F300.0
G1 X59.780 Y16.845 F300.0
G1 X59.577 Y16.661 F300.0
G1 X59.432 Y16.443 F300.0
G1 X59.345 Y16.190 F300.0
G1 X59.316 Y15.902 F300.0
G1 X59.335 Y15.661 F300.0
G1 X59.393 Y15.451 F300.0
G1 X59.489 Y15.273 F300.0
G1 X59.624 Y15.127 F300.0
G1 X59.813 Y15.002 F300.0
G1 X60.071 Y14.891 F300.0
G1 X60.397 Y14.791 F300.0
G1 X60.793 Y14.705 F300.0
G1 X61.425 Y14.575 F300.0
G1 X61.972 Y14.443 F300.0
G1 X62.442 Y14.267 F300.0
G1 X62.836 Y14.050 F300.0
G1 X63.153 Y13.790 F300.0
G1 X63.397 Y13.485 F300.0
G1 X63.492 Y13.315 F300.0
G1 X63.571 Y13.133 F300.0
G1 X63.632 Y12.939 F300.0
G1 X63.675 Y12.733 F300.0
G1 X63.701 Y12.515 F300.0
G1 X63.710 Y12.285 F300.0
G1 X63.698 Y12.012 F300.0
G1 X63.663 Y11.757 F300.0
G1 X63.604 Y11.518 F300.0
G1 X63.521 Y11.297 F300.0
G1 X63.415 Y11.092 F300.0
G1 X63.286 Y10.904 F300.0
G1 X63.133 Y10.734 F300.0
G1 X62.956 Y10.580 F300.0
G1 X62.757 Y10.444 F300.0
G1 X62.535 Y10.326 F300.0
G1 X62.292 Y10.227 F300.0
G1 X62.027 Y10.145 F300.0
G1 X61.739 Y10.082 F300.0
G1 X61.430 Y10.036 F300.0
G1 X61.099 Y10.009 F300.0
G1 X60.746 Y10.000 F300.0
G1 X60.179 Y10.031 F300.0
G1 X59.578 Y10.124 F300.0
G1 X58.948 Y10.278 F300.0
G1 X58.295 Y10.492 F300.0
G1 X58.295 Y11.570 F300.0
G1 X58.926 Y11.256 F300.0
G1 X59.544 Y11.031 F300.0
G1 X59.848 Y10.952 F300.0
G1 X60.150 Y10.895 F300.0
G1 X60.449 Y10.861 F300.0
G1 X60.746 Y10.850 F300.0
G1 X61.169 Y10.872 F300.0
G1 X61.540 Y10.938 F300.0
G1 X61.860 Y11.048 F300.0
G1 X62.130 Y11.202 F300.0
G1 X62.343 Y11.397 F300.0
G1 X62.495 Y11.630 F300.0
G1 X62.586 Y11.900 F300.0
G1 X62.617 Y12.207 F300.0
G1 X62.595 Y12.477 F300.0
G1 X62.529 Y12.715 F300.0
G1 X62.420 Y12.922 F300.0
G1 X62.267 Y13.098 F300.0
G1 X62.064 Y13.249 F300.0
G1 X61.805 Y13.380 F300.0
G1 X61.490 Y13.490 F300.0
G1 X61.119 Y13.580 F300.0
G1 X60.482 Y13.705 F300.0
G1 X59.937 Y13.838 F300.0
G1 X59.473 Y14.004 F300.0
G1 X59.090 Y14.203 F300.0
G1 X58.788 Y14.435 F300.0
G1 X58.559 Y14.708 F300.0
G1 X58.395 Y15.030 F300.0
G1 X58.297 Y15.400 F300.0
G1 X58.272 Y15.603 F300.0
G1 X58.264 Y15.819 F300.0
G1 X58.276 Y16.068 F300.0
G1 X58.309 Y16.304 F300.0
G1 X58.366 Y16.527 F300.0
G1 X58.445 Y16.736 F300.0
G1 X58.547 Y16.931 F300.0
G1 X58.671 Y17.113 F300.0
G1 X58.818 Y17.281 F300.0
G1 X58.987 Y17.435 F300.0
G1 X59.176 Y17.574 F300.0
G1 X59.383 Y17.694 F300.0
G1 X59.606 Y17.795 F300.0
G1 X59.847 Y17.878 F300.0
G1 X60.104 Y17.943 F300.0
G1 X60.379 Y17.989 F300.0
G1 X60.670 Y18.017 F300.0
G1 X60.979 Y18.026 F300.0
G1 X61.528 Y18.001 F300.0
G1 X62.088 Y17.927 F300.0
G1 X62.659 Y17.804 F300.0
G1 X63.244 Y17.632 F300.0
G1 Z-1.500 F100.0
G1 X63.244 Y16.611 F300.0
G1 X62.665 Y16.860 F300.0
G1 X62.119 Y17.036 F300.0
G1 X61.600 Y17.141 F300.0
G1 X61.347 Y17.167 F300.0
G1 X61.098 Y17.176 F300.0
G1 X60.695 Y17.155 F300.0
G1 X60.341 Y17.093 F300.0
G1 X60.036 Y16.990 F300.0
G1 X59.780 Y16.845 F300.0
G1 X59.577 Y16.661 F300.0
G1 X59.432 Y16.443 F300.0
G1 X59.345 Y16.190 F300.0
G1 X59.316 Y15.902 F300.0
G1 X59.335 Y15.661 F300.0
G1 X59.393 Y15.451 F300.0
G1 X59.489 Y15.273 F300.0
G1 X59.624 Y15.127 F300.0
G1 X59.813 Y15.002 F300.0
G1 X60.071 Y14.891 F300.0
G1 X60.397 Y14.791 F300.0
G1 X60.793 Y14.705 F300.0
G1 X61.425 Y14.575 F300.0
G1 X61.972 Y14.443 F300.0
G1 X62.442 Y14.267 F300.0
G1 X62.836 Y14.050 F300.0
G1 X63.153 Y13.790 F300.0
G1 X63.397 Y13.485 F300.0
G1 X63.492 Y13.315 F300.0
G1 X63.571 Y13.133 F300.0
G1 X63.632 Y12.939 F300.0
G1 X63.675 Y12.733 F300.0
G1 X63.701 Y12.515 F300.0
G1 X63.710 Y12.285 F300.0
G1 X63.698 Y12.012 F300.0
G1 X63.663 Y11.757 F300.0
G1 X63.604 Y11.518 F300.0
G1 X63.521 Y11.297 F300.0
G1 X63.415 Y11.092 F300.0
G1 X63.286 Y10.904 F300.0
G1 X63.133 Y10.734 F300.0
G1 X62.956 Y10.580 F300.0
G1 X62.757 Y10.444 F300.0
G1 X62.535 Y10.326 F300.0
G1 X62.292 Y10.227 F300.0
G1 X62.027 Y10.145 F300.0
G1 X61.739 Y10.082 F300.0
G1 X61.430 Y10.036 F300.0
G1 X61.099 Y10.009 F300.0
G1 X60.746 Y10.000 F300.0
G1 X60.179 Y10.031 F300.0
G1 X59.578 Y10.124 F300.0
G1 X58.948 Y10.278 F300.0
G1 X58.295 Y10.492 F300.0
G1 X58.295 Y11.570 F300.0
G1 X58.926 Y11.256 F300.0
G1 X59.544 Y11.031 F300.0
G1 X59.848 Y10.952 F300.0
G1 X60.150 Y10.895 F300.0
G1 X60.449 Y10.861 F300.0
G1 X60.746 Y10.850 F300.0
G1 X61.169 Y10.872 F300.0
G1 X61.540 Y10.938 F300.0
G1 X61.860 Y11.048 F300.0
G1 X62.130 Y11.202 F300.0
G1 X62.343 Y11.397 F300.0
G1 X62.495 Y11.630 F300.0
G1 X62.586 Y11.900 F300.0
G1 X62.617 Y12.207 F300.0
G1 X62.595 Y12.477 F300.0
G1 X62.529 Y12.715 F300.0
G1 X62.420 Y12.922 F300.0
G1 X62.267 Y13.098 F300.0
G1 X62.064 Y13.249 F300.0
G1 X61.805 Y13.380 F300.0
G1 X61.490 Y13.490 F300.0
G1 X61.119 Y13.580 F300.0
G1 X60.482 Y13.705 F300.0
G1 X59.937 Y13.838 F300.0
G1 X59.473 Y14.004 F300.0
G1 X59.090 Y14.203 F300.0
G1 X58.788 Y14.435 F300.0
G1 X58.559 Y14.708 F300.0
G1 X58.395 Y15.030 F300.0
G1 X58.297 Y15.400 F300.0
G1 X58.272 Y15.603 F300.0
G1 X58.264 Y15.819 F300.0
G1 X58.276 Y16.068 F300.0
G1 X58.309 Y16.304 F300.0
G1 X58.366 Y16.527 F300.0
G1 X58.445 Y16.736 F300.0
G1 X58.547 Y16.931 F300.0
G1 X58.671 Y17.113 F300.0
G1 X58.818 Y17.281 F300.0
G1 X58.987 Y17.435 F300.0
G1 X59.176 Y17.574 F300.0
G1 X59.383 Y17.694 F300.0
G1 X59.606 Y17.795 F300.0
G1 X59.847 Y17.878 F300.0
G1 X60.104 Y17.943 F300.0
G1 X60.379 Y17.989 F300.0
G1 X60.670 Y18.017 F300.0
G1 X60.979 Y18.026 F300.0
G1 X61.528 Y18.001 F300.0
G1 X62.088 Y17.927 F300.0
G1 X62.659 Y17.804 F300.0
G1 X63.244 Y17.632 F300.0
G1 Z-2.000 F100.0
G1 X63.244 Y16.611 F300.0
G1 X62.665 Y16.860 F300.0
G1 X62.119 Y17.036 F300.0
G1 X61.600 Y17.141 F300.0
G1 X61.347 Y17.167 F300.0
G1 X61.098 Y17.176 F300.0
G1 X60.695 Y17.155 F300.0
G1 X60.341 Y17.093 F300.0
G1 X60.036 Y16.990 F300.0
G1 X59.780 Y16.845 F300.0
G1 X59.577 Y16.661 F300.0
G1 X59.432 Y16.443 F300.0
G1 X59.345 Y16.190 F300.0
G1 X59.316 Y15.902 F300.0
G1 X59.335 Y15.661 F300.0
G1 X59.393 Y15.451 F300.0
G1 X59.489 Y15.273 F300.0
G1 X59.624 Y15.127 F300.0
G1 X59.813 Y15.002 F300.0
G1 X60.071 Y14.891 F300.0
G1 X60.397 Y14.791 F300.0
G1 X60.793 Y14.705 F300.0
G1 X61.425 Y14.575 F300.0
G1 X61.972 Y14.443 F300.0
G1 X62.442 Y14.267 F300.0
G1 X62.836 Y14.050 F300.0
G1 X63.153 Y13.790 F300.0
G1 X63.397 Y13.485 F300.0
G1 X63.492 Y13.315 F300.0
G1 X63.571 Y13.133 F300.0
G1 X63.632 Y12.939 F300.0
G1 X63.675 Y12.733 F300.0
G1 X63.701 Y12.515 F300.0
G1 X63.710 Y12.285 F300.0
G1 X63.698 Y12.012 F300.0
G1 X63.663 Y11.757 F300.0
G1 X63.604 Y11.518 F300.0
G1 X63.521 Y11.297 F300.0
G1 X63.415 Y11.092 F300.0
G1 X63.286 Y10.904 F300.0
G1 X63.133 Y10.734 F300.0
G1 X62.956 Y10.580 F300.0
G1 X62.757 Y10.444 F300.0
G1 X62.535 Y10.326 F300.0
G1 X62.292 Y10.227 F300.0
G1 X62.027 Y10.145 F300.0
G1 X61.739 Y10.082 F300.0
G1 X61.430 Y10.036 F300.0
G1 X61.099 Y10.009 F300.0
G1 X60.746 Y10.000 F300.0
G1 X60.179 Y10.031 F300.0
G1 X59.578 Y10.124 F300.0
G1 X58.948 Y10.278 F300.0
G1 X58.295 Y10.492 F300.0
G1 X58.295 Y11.570 F300.0
G1 X58.926 Y11.256 F300.0
G1 X59.544 Y11.031 F300.0
G1 X59.848 Y10.952 F300.0
G1 X60.150 Y10.895 F300.0
G1 X60.449 Y10.861 F300.0
G1 X60.746 Y10.850 F300.0
G1 X61.169 Y10.872 F300.0
G1 X61.540 Y10.938 F300.0
G1 X61.860 Y11.048 F300.0
G1 X62.130 Y11.202 F300.0
G1 X62.343 Y11.397 F300.0
G1 X62.495 Y11.630 F300.0
G1 X62.586 Y11.900 F300.0
G1 X62.617 Y12.207 F300.0
G1 X62.595 Y12.477 F300.0
G1 X62.529 Y12.715 F300.0
G1 X62.420 Y12.922 F300.0
G1 X62.267 Y13.098 F300.0
G1 X62.064 Y13.249 F300.0
G1 X61.805 Y13.380 F300.0
G1 X61.490 Y13.490 F300.0
G1 X61.119 Y13.580 F300.0
G1 X60.482 Y13.705 F300.0
G1 X59.937 Y13.838 F300.0
G1 X59.473 Y14.004 F300.0
G1 X59.090 Y14.203 F300.0
G1 X58.788 Y14.435 F300.0
G1 X58.559 Y14.708 F300.0
G1 X58.395 Y15.030 F300.0
G1 X58.297 Y15.400 F300.0
G1 X58.272 Y15.603 F300.0
G1 X58.264 Y15.819 F300.0
G1 X58.276 Y16.068 F300.0
G1 X58.309 Y16.304 F300.0
G1 X58.366 Y16.527 F300.0
G1 X58.445 Y16.736 F300.0
G1 X58.547 Y16.931 F300.0
G1 X58.671 Y17.113 F300.0
G1 X58.818 Y17.281 F300.0
G1 X58.987 Y17.435 F300.0
G1 X59.176 Y17.574 F300.0
G1 X59.383 Y17.694 F300.0
G1 X59.606 Y17.795 F300.0
G1 X59.847 Y17.878 F300.0
G1 X60.104 Y17.943 F300.0
G1 X60.379 Y17.989 F300.0
G1 X60.670 Y18.017 F300.0
G1 X60.979 Y18.026 F300.0
G1 X61.528 Y18.001 F300.0
G1 X62.088 Y17.927 F300.0
G1 X62.659 Y17.804 F300.0
G1 X63.244 Y17.632 F300.0
G0 Z5.000
; --- shape 13: poly / Engrave (on the line) / depth 2 mm ---
G0 X70.124 Y16.855
G0 Z1.000
G1 Z-0.500 F100.0
G1 X68.705 Y13.005 F300.0
G1 X71.549 Y13.005 F300.0
G1 X70.124 Y16.855 F300.0
G1 Z-1.000 F100.0
G1 X68.705 Y13.005 F300.0
G1 X71.549 Y13.005 F300.0
G1 X70.124 Y16.855 F300.0
G1 Z-1.500 F100.0
G1 X68.705 Y13.005 F300.0
G1 X71.549 Y13.005 F300.0
G1 X70.124 Y16.855 F300.0
G1 Z-2.000 F100.0
G1 X68.705 Y13.005 F300.0
G1 X71.549 Y13.005 F300.0
G1 X70.124 Y16.855 F300.0
G0 Z5.000
; --- shape 14: poly / Engrave (on the line) / depth 2 mm ---
G0 X69.534 Y17.886
G0 Z1.000
G1 Z-0.500 F100.0
G1 X70.720 Y17.886 F300.0
G1 X73.668 Y10.150 F300.0
G1 X72.580 Y10.150 F300.0
G1 X71.876 Y12.135 F300.0
G1 X68.389 Y12.135 F300.0
G1 X67.684 Y10.150 F300.0
G1 X66.580 Y10.150 F300.0
G1 X69.534 Y17.886 F300.0
G1 Z-1.000 F100.0
G1 X70.720 Y17.886 F300.0
G1 X73.668 Y10.150 F300.0
G1 X72.580 Y10.150 F300.0
G1 X71.876 Y12.135 F300.0
G1 X68.389 Y12.135 F300.0
G1 X67.684 Y10.150 F300.0
G1 X66.580 Y10.150 F300.0
G1 X69.534 Y17.886 F300.0
G1 Z-1.500 F100.0
G1 X70.720 Y17.886 F300.0
G1 X73.668 Y10.150 F300.0
G1 X72.580 Y10.150 F300.0
G1 X71.876 Y12.135 F300.0
G1 X68.389 Y12.135 F300.0
G1 X67.684 Y10.150 F300.0
G1 X66.580 Y10.150 F300.0
G1 X69.534 Y17.886 F300.0
G1 Z-2.000 F100.0
G1 X70.720 Y17.886 F300.0
G1 X73.668 Y10.150 F300.0
G1 X72.580 Y10.150 F300.0
G1 X71.876 Y12.135 F300.0
G1 X68.389 Y12.135 F300.0
G1 X67.684 Y10.150 F300.0
G1 X66.580 Y10.150 F300.0
G1 X69.534 Y17.886 F300.0
G0 Z5.000
; --- shape 15: poly / Engrave (on the line) / depth 2 mm ---
G0 X81.886 Y11.254
G0 Z1.000
G1 Z-0.500 F100.0
G1 X81.886 Y13.332 F300.0
G1 X80.176 Y13.332 F300.0
G1 X80.176 Y14.192 F300.0
G1 X82.922 Y14.192 F300.0
G1 X82.922 Y10.870 F300.0
G1 X82.611 Y10.669 F300.0
G1 X82.285 Y10.493 F300.0
G1 X81.943 Y10.343 F300.0
G1 X81.585 Y10.220 F300.0
G1 X81.214 Y10.124 F300.0
G1 X80.830 Y10.055 F300.0
G1 X80.434 Y10.014 F300.0
G1 X80.026 Y10.000 F300.0
G1 X79.585 Y10.017 F300.0
G1 X79.169 Y10.066 F300.0
G1 X78.777 Y10.149 F300.0
G1 X78.410 Y10.265 F300.0
G1 X78.068 Y10.414 F300.0
G1 X77.750 Y10.596 F300.0
G1 X77.457 Y10.811 F300.0
G1 X77.189 Y11.060 F300.0
G1 X76.949 Y11.337 F300.0
G1 X76.741 Y11.641 F300.0
G1 X76.566 Y11.971 F300.0
G1 X76.422 Y12.327 F300.0
G1 X76.310 Y12.709 F300.0
G1 X76.230 Y13.117 F300.0
G1 X76.182 Y13.551 F300.0
G1 X76.166 Y14.010 F300.0
G1 X76.182 Y14.471 F300.0
G1 X76.230 Y14.906 F300.0
G1 X76.310 Y15.315 F300.0
G1 X76.422 Y15.698 F300.0
G1 X76.566 Y16.054 F300.0
G1 X76.741 Y16.384 F300.0
G1 X76.949 Y16.688 F300.0
G1 X77.189 Y16.966 F300.0
G1 X77.457 Y17.215 F300.0
G1 X77.750 Y17.430 F300.0
G1 X78.068 Y17.612 F300.0
G1 X78.410 Y17.761 F300.0
G1 X78.777 Y17.877 F300.0
G1 X79.169 Y17.960 F300.0
G1 X79.585 Y18.009 F300.0
G1 X80.026 Y18.026 F300.0
G1 X80.399 Y18.014 F300.0
G1 X80.764 Y17.979 F300.0
G1 X81.118 Y17.921 F300.0
G1 X81.464 Y17.839 F300.0
G1 X81.798 Y17.735 F300.0
G1 X82.119 Y17.609 F300.0
G1 X82.426 Y17.460 F300.0
G1 X82.720 Y17.290 F300.0
G1 X82.720 Y16.176 F300.0
G1 X82.426 Y16.407 F300.0
G1 X82.122 Y16.608 F300.0
G1 X81.809 Y16.778 F300.0
G1 X81.487 Y16.917 F300.0
G1 X81.156 Y17.026 F300.0
G1 X80.817 Y17.104 F300.0
G1 X80.470 Y17.150 F300.0
G1 X80.114 Y17.166 F300.0
G1 X79.770 Y17.153 F300.0
G1 X79.448 Y17.116 F300.0
G1 X79.149 Y17.054 F300.0
G1 X78.871 Y16.968 F300.0
G1 X78.616 Y16.856 F300.0
G1 X78.382 Y16.720 F300.0
G1 X78.171 Y16.559 F300.0
G1 X77.982 Y16.373 F300.0
G1 X77.815 Y16.163 F300.0
G1 X77.670 Y15.928 F300.0
G1 X77.548 Y15.669 F300.0
G1 X77.448 Y15.386 F300.0
G1 X77.370 Y15.079 F300.0
G1 X77.314 Y14.747 F300.0
G1 X77.281 Y14.391 F300.0
G1 X77.269 Y14.010 F300.0
G1 X77.281 Y13.631 F300.0
G1 X77.314 Y13.276 F300.0
G1 X77.370 Y12.945 F300.0
G1 X77.448 Y12.639 F300.0
G1 X77.548 Y12.356 F300.0
G1 X77.670 Y12.097 F300.0
G1 X77.815 Y11.863 F300.0
G1 X77.982 Y11.653 F300.0
G1 X78.171 Y11.467 F300.0
G1 X78.382 Y11.306 F300.0
G1 X78.616 Y11.170 F300.0
G1 X78.871 Y11.058 F300.0
G1 X79.149 Y10.972 F300.0
G1 X79.448 Y10.910 F300.0
G1 X79.770 Y10.872 F300.0
G1 X80.114 Y10.860 F300.0
G1 X80.639 Y10.884 F300.0
G1 X81.104 Y10.956 F300.0
G1 X81.517 Y11.078 F300.0
G1 X81.886 Y11.254 F300.0
G1 Z-1.000 F100.0
G1 X81.886 Y13.332 F300.0
G1 X80.176 Y13.332 F300.0
G1 X80.176 Y14.192 F300.0
G1 X82.922 Y14.192 F300.0
G1 X82.922 Y10.870 F300.0
G1 X82.611 Y10.669 F300.0
G1 X82.285 Y10.493 F300.0
G1 X81.943 Y10.343 F300.0
G1 X81.585 Y10.220 F300.0
G1 X81.214 Y10.124 F300.0
G1 X80.830 Y10.055 F300.0
G1 X80.434 Y10.014 F300.0
G1 X80.026 Y10.000 F300.0
G1 X79.585 Y10.017 F300.0
G1 X79.169 Y10.066 F300.0
G1 X78.777 Y10.149 F300.0
G1 X78.410 Y10.265 F300.0
G1 X78.068 Y10.414 F300.0
G1 X77.750 Y10.596 F300.0
G1 X77.457 Y10.811 F300.0
G1 X77.189 Y11.060 F300.0
G1 X76.949 Y11.337 F300.0
G1 X76.741 Y11.641 F300.0
G1 X76.566 Y11.971 F300.0
G1 X76.422 Y12.327 F300.0
G1 X76.310 Y12.709 F300.0
G1 X76.230 Y13.117 F300.0
G1 X76.182 Y13.551 F300.0
G1 X76.166 Y14.010 F300.0
G1 X76.182 Y14.471 F300.0
G1 X76.230 Y14.906 F300.0
G1 X76.310 Y15.315 F300.0
G1 X76.422 Y15.698 F300.0
G1 X76.566 Y16.054 F300.0
G1 X76.741 Y16.384 F300.0
G1 X76.949 Y16.688 F300.0
G1 X77.189 Y16.966 F300.0
G1 X77.457 Y17.215 F300.0
G1 X77.750 Y17.430 F300.0
G1 X78.068 Y17.612 F300.0
G1 X78.410 Y17.761 F300.0
G1 X78.777 Y17.877 F300.0
G1 X79.169 Y17.960 F300.0
G1 X79.585 Y18.009 F300.0
G1 X80.026 Y18.026 F300.0
G1 X80.399 Y18.014 F300.0
G1 X80.764 Y17.979 F300.0
G1 X81.118 Y17.921 F300.0
G1 X81.464 Y17.839 F300.0
G1 X81.798 Y17.735 F300.0
G1 X82.119 Y17.609 F300.0
G1 X82.426 Y17.460 F300.0
G1 X82.720 Y17.290 F300.0
G1 X82.720 Y16.176 F300.0
G1 X82.426 Y16.407 F300.0
G1 X82.122 Y16.608 F300.0
G1 X81.809 Y16.778 F300.0
G1 X81.487 Y16.917 F300.0
G1 X81.156 Y17.026 F300.0
G1 X80.817 Y17.104 F300.0
G1 X80.470 Y17.150 F300.0
G1 X80.114 Y17.166 F300.0
G1 X79.770 Y17.153 F300.0
G1 X79.448 Y17.116 F300.0
G1 X79.149 Y17.054 F300.0
G1 X78.871 Y16.968 F300.0
G1 X78.616 Y16.856 F300.0
G1 X78.382 Y16.720 F300.0
G1 X78.171 Y16.559 F300.0
G1 X77.982 Y16.373 F300.0
G1 X77.815 Y16.163 F300.0
G1 X77.670 Y15.928 F300.0
G1 X77.548 Y15.669 F300.0
G1 X77.448 Y15.386 F300.0
G1 X77.370 Y15.079 F300.0
G1 X77.314 Y14.747 F300.0
G1 X77.281 Y14.391 F300.0
G1 X77.269 Y14.010 F300.0
G1 X77.281 Y13.631 F300.0
G1 X77.314 Y13.276 F300.0
G1 X77.370 Y12.945 F300.0
G1 X77.448 Y12.639 F300.0
G1 X77.548 Y12.356 F300.0
G1 X77.670 Y12.097 F300.0
G1 X77.815 Y11.863 F300.0
G1 X77.982 Y11.653 F300.0
G1 X78.171 Y11.467 F300.0
G1 X78.382 Y11.306 F300.0
G1 X78.616 Y11.170 F300.0
G1 X78.871 Y11.058 F300.0
G1 X79.149 Y10.972 F300.0
G1 X79.448 Y10.910 F300.0
G1 X79.770 Y10.872 F300.0
G1 X80.114 Y10.860 F300.0
G1 X80.639 Y10.884 F300.0
G1 X81.104 Y10.956 F300.0
G1 X81.517 Y11.078 F300.0
G1 X81.886 Y11.254 F300.0
G1 Z-1.500 F100.0
G1 X81.886 Y13.332 F300.0
G1 X80.176 Y13.332 F300.0
G1 X80.176 Y14.192 F300.0
G1 X82.922 Y14.192 F300.0
G1 X82.922 Y10.870 F300.0
G1 X82.611 Y10.669 F300.0
G1 X82.285 Y10.493 F300.0
G1 X81.943 Y10.343 F300.0
G1 X81.585 Y10.220 F300.0
G1 X81.214 Y10.124 F300.0
G1 X80.830 Y10.055 F300.0
G1 X80.434 Y10.014 F300.0
G1 X80.026 Y10.000 F300.0
G1 X79.585 Y10.017 F300.0
G1 X79.169 Y10.066 F300.0
G1 X78.777 Y10.149 F300.0
G1 X78.410 Y10.265 F300.0
G1 X78.068 Y10.414 F300.0
G1 X77.750 Y10.596 F300.0
G1 X77.457 Y10.811 F300.0
G1 X77.189 Y11.060 F300.0
G1 X76.949 Y11.337 F300.0
G1 X76.741 Y11.641 F300.0
G1 X76.566 Y11.971 F300.0
G1 X76.422 Y12.327 F300.0
G1 X76.310 Y12.709 F300.0
G1 X76.230 Y13.117 F300.0
G1 X76.182 Y13.551 F300.0
G1 X76.166 Y14.010 F300.0
G1 X76.182 Y14.471 F300.0
G1 X76.230 Y14.906 F300.0
G1 X76.310 Y15.315 F300.0
G1 X76.422 Y15.698 F300.0
G1 X76.566 Y16.054 F300.0
G1 X76.741 Y16.384 F300.0
G1 X76.949 Y16.688 F300.0
G1 X77.189 Y16.966 F300.0
G1 X77.457 Y17.215 F300.0
G1 X77.750 Y17.430 F300.0
G1 X78.068 Y17.612 F300.0
G1 X78.410 Y17.761 F300.0
G1 X78.777 Y17.877 F300.0
G1 X79.169 Y17.960 F300.0
G1 X79.585 Y18.009 F300.0
G1 X80.026 Y18.026 F300.0
G1 X80.399 Y18.014 F300.0
G1 X80.764 Y17.979 F300.0
G1 X81.118 Y17.921 F300.0
G1 X81.464 Y17.839 F300.0
G1 X81.798 Y17.735 F300.0
G1 X82.119 Y17.609 F300.0
G1 X82.426 Y17.460 F300.0
G1 X82.720 Y17.290 F300.0
G1 X82.720 Y16.176 F300.0
G1 X82.426 Y16.407 F300.0
G1 X82.122 Y16.608 F300.0
G1 X81.809 Y16.778 F300.0
G1 X81.487 Y16.917 F300.0
G1 X81.156 Y17.026 F300.0
G1 X80.817 Y17.104 F300.0
G1 X80.470 Y17.150 F300.0
G1 X80.114 Y17.166 F300.0
G1 X79.770 Y17.153 F300.0
G1 X79.448 Y17.116 F300.0
G1 X79.149 Y17.054 F300.0
G1 X78.871 Y16.968 F300.0
G1 X78.616 Y16.856 F300.0
G1 X78.382 Y16.720 F300.0
G1 X78.171 Y16.559 F300.0
G1 X77.982 Y16.373 F300.0
G1 X77.815 Y16.163 F300.0
G1 X77.670 Y15.928 F300.0
G1 X77.548 Y15.669 F300.0
G1 X77.448 Y15.386 F300.0
G1 X77.370 Y15.079 F300.0
G1 X77.314 Y14.747 F300.0
G1 X77.281 Y14.391 F300.0
G1 X77.269 Y14.010 F300.0
G1 X77.281 Y13.631 F300.0
G1 X77.314 Y13.276 F300.0
G1 X77.370 Y12.945 F300.0
G1 X77.448 Y12.639 F300.0
G1 X77.548 Y12.356 F300.0
G1 X77.670 Y12.097 F300.0
G1 X77.815 Y11.863 F300.0
G1 X77.982 Y11.653 F300.0
G1 X78.171 Y11.467 F300.0
G1 X78.382 Y11.306 F300.0
G1 X78.616 Y11.170 F300.0
G1 X78.871 Y11.058 F300.0
G1 X79.149 Y10.972 F300.0
G1 X79.448 Y10.910 F300.0
G1 X79.770 Y10.872 F300.0
G1 X80.114 Y10.860 F300.0
G1 X80.639 Y10.884 F300.0
G1 X81.104 Y10.956 F300.0
G1 X81.517 Y11.078 F300.0
G1 X81.886 Y11.254 F300.0
G1 Z-2.000 F100.0
G1 X81.886 Y13.332 F300.0
G1 X80.176 Y13.332 F300.0
G1 X80.176 Y14.192 F300.0
G1 X82.922 Y14.192 F300.0
G1 X82.922 Y10.870 F300.0
G1 X82.611 Y10.669 F300.0
G1 X82.285 Y10.493 F300.0
G1 X81.943 Y10.343 F300.0
G1 X81.585 Y10.220 F300.0
G1 X81.214 Y10.124 F300.0
G1 X80.830 Y10.055 F300.0
G1 X80.434 Y10.014 F300.0
G1 X80.026 Y10.000 F300.0
G1 X79.585 Y10.017 F300.0
G1 X79.169 Y10.066 F300.0
G1 X78.777 Y10.149 F300.0
G1 X78.410 Y10.265 F300.0
G1 X78.068 Y10.414 F300.0
G1 X77.750 Y10.596 F300.0
G1 X77.457 Y10.811 F300.0
G1 X77.189 Y11.060 F300.0
G1 X76.949 Y11.337 F300.0
G1 X76.741 Y11.641 F300.0
G1 X76.566 Y11.971 F300.0
G1 X76.422 Y12.327 F300.0
G1 X76.310 Y12.709 F300.0
G1 X76.230 Y13.117 F300.0
G1 X76.182 Y13.551 F300.0
G1 X76.166 Y14.010 F300.0
G1 X76.182 Y14.471 F300.0
G1 X76.230 Y14.906 F300.0
G1 X76.310 Y15.315 F300.0
G1 X76.422 Y15.698 F300.0
G1 X76.566 Y16.054 F300.0
G1 X76.741 Y16.384 F300.0
G1 X76.949 Y16.688 F300.0
G1 X77.189 Y16.966 F300.0
G1 X77.457 Y17.215 F300.0
G1 X77.750 Y17.430 F300.0
G1 X78.068 Y17.612 F300.0
G1 X78.410 Y17.761 F300.0
G1 X78.777 Y17.877 F300.0
G1 X79.169 Y17.960 F300.0
G1 X79.585 Y18.009 F300.0
G1 X80.026 Y18.026 F300.0
G1 X80.399 Y18.014 F300.0
G1 X80.764 Y17.979 F300.0
G1 X81.118 Y17.921 F300.0
G1 X81.464 Y17.839 F300.0
G1 X81.798 Y17.735 F300.0
G1 X82.119 Y17.609 F300.0
G1 X82.426 Y17.460 F300.0
G1 X82.720 Y17.290 F300.0
G1 X82.720 Y16.176 F300.0
G1 X82.426 Y16.407 F300.0
G1 X82.122 Y16.608 F300.0
G1 X81.809 Y16.778 F300.0
G1 X81.487 Y16.917 F300.0
G1 X81.156 Y17.026 F300.0
G1 X80.817 Y17.104 F300.0
G1 X80.470 Y17.150 F300.0
G1 X80.114 Y17.166 F300.0
G1 X79.770 Y17.153 F300.0
G1 X79.448 Y17.116 F300.0
G1 X79.149 Y17.054 F300.0
G1 X78.871 Y16.968 F300.0
G1 X78.616 Y16.856 F300.0
G1 X78.382 Y16.720 F300.0
G1 X78.171 Y16.559 F300.0
G1 X77.982 Y16.373 F300.0
G1 X77.815 Y16.163 F300.0
G1 X77.670 Y15.928 F300.0
G1 X77.548 Y15.669 F300.0
G1 X77.448 Y15.386 F300.0
G1 X77.370 Y15.079 F300.0
G1 X77.314 Y14.747 F300.0
G1 X77.281 Y14.391 F300.0
G1 X77.269 Y14.010 F300.0
G1 X77.281 Y13.631 F300.0
G1 X77.314 Y13.276 F300.0
G1 X77.370 Y12.945 F300.0
G1 X77.448 Y12.639 F300.0
G1 X77.548 Y12.356 F300.0
G1 X77.670 Y12.097 F300.0
G1 X77.815 Y11.863 F300.0
G1 X77.982 Y11.653 F300.0
G1 X78.171 Y11.467 F300.0
G1 X78.382 Y11.306 F300.0
G1 X78.616 Y11.170 F300.0
G1 X78.871 Y11.058 F300.0
G1 X79.149 Y10.972 F300.0
G1 X79.448 Y10.910 F300.0
G1 X79.770 Y10.872 F300.0
G1 X80.114 Y10.860 F300.0
G1 X80.639 Y10.884 F300.0
G1 X81.104 Y10.956 F300.0
G1 X81.517 Y11.078 F300.0
G1 X81.886 Y11.254 F300.0
G0 Z5.000
; --- shape 16: poly / Engrave (on the line) / depth 2 mm ---
G0 X78.067 Y20.000
G0 Z1.000
G1 Z-0.500 F100.0
G1 X78.679 Y20.000 F300.0
G1 X78.724 Y19.868 F300.0
G1 X78.793 Y19.753 F300.0
G1 X78.886 Y19.655 F300.0
G1 X79.003 Y19.573 F300.0
G1 X79.142 Y19.508 F300.0
G1 X79.302 Y19.462 F300.0
G1 X79.485 Y19.434 F300.0
G1 X79.689 Y19.425 F300.0
G1 X79.891 Y19.434 F300.0
G1 X80.071 Y19.460 F300.0
G1 X80.229 Y19.505 F300.0
G1 X80.365 Y19.567 F300.0
G1 X80.480 Y19.648 F300.0
G1 X80.574 Y19.747 F300.0
G1 X80.648 Y19.864 F300.0
G1 X80.699 Y20.000 F300.0
G1 X81.311 Y20.000 F300.0
G1 X81.262 Y19.710 F300.0
G1 X81.168 Y19.458 F300.0
G1 X81.029 Y19.243 F300.0
G1 X80.845 Y19.065 F300.0
G1 X80.617 Y18.925 F300.0
G1 X80.348 Y18.826 F300.0
G1 X80.039 Y18.766 F300.0
G1 X79.689 Y18.746 F300.0
G1 X79.337 Y18.766 F300.0
G1 X79.027 Y18.825 F300.0
G1 X78.758 Y18.924 F300.0
G1 X78.531 Y19.062 F300.0
G1 X78.348 Y19.239 F300.0
G1 X78.209 Y19.455 F300.0
G1 X78.116 Y19.708 F300.0
G1 X78.067 Y20.000 F300.0
G1 Z-1.000 F100.0
G1 X78.679 Y20.000 F300.0
G1 X78.724 Y19.868 F300.0
G1 X78.793 Y19.753 F300.0
G1 X78.886 Y19.655 F300.0
G1 X79.003 Y19.573 F300.0
G1 X79.142 Y19.508 F300.0
G1 X79.302 Y19.462 F300.0
G1 X79.485 Y19.434 F300.0
G1 X79.689 Y19.425 F300.0
G1 X79.891 Y19.434 F300.0
G1 X80.071 Y19.460 F300.0
G1 X80.229 Y19.505 F300.0
G1 X80.365 Y19.567 F300.0
G1 X80.480 Y19.648 F300.0
G1 X80.574 Y19.747 F300.0
G1 X80.648 Y19.864 F300.0
G1 X80.699 Y20.000 F300.0
G1 X81.311 Y20.000 F300.0
G1 X81.262 Y19.710 F300.0
G1 X81.168 Y19.458 F300.0
G1 X81.029 Y19.243 F300.0
G1 X80.845 Y19.065 F300.0
G1 X80.617 Y18.925 F300.0
G1 X80.348 Y18.826 F300.0
G1 X80.039 Y18.766 F300.0
G1 X79.689 Y18.746 F300.0
G1 X79.337 Y18.766 F300.0
G1 X79.027 Y18.825 F300.0
G1 X78.758 Y18.924 F300.0
G1 X78.531 Y19.062 F300.0
G1 X78.348 Y19.239 F300.0
G1 X78.209 Y19.455 F300.0
G1 X78.116 Y19.708 F300.0
G1 X78.067 Y20.000 F300.0
G1 Z-1.500 F100.0
G1 X78.679 Y20.000 F300.0
G1 X78.724 Y19.868 F300.0
G1 X78.793 Y19.753 F300.0
G1 X78.886 Y19.655 F300.0
G1 X79.003 Y19.573 F300.0
G1 X79.142 Y19.508 F300.0
G1 X79.302 Y19.462 F300.0
G1 X79.485 Y19.434 F300.0
G1 X79.689 Y19.425 F300.0
G1 X79.891 Y19.434 F300.0
G1 X80.071 Y19.460 F300.0
G1 X80.229 Y19.505 F300.0
G1 X80.365 Y19.567 F300.0
G1 X80.480 Y19.648 F300.0
G1 X80.574 Y19.747 F300.0
G1 X80.648 Y19.864 F300.0
G1 X80.699 Y20.000 F300.0
G1 X81.311 Y20.000 F300.0
G1 X81.262 Y19.710 F300.0
G1 X81.168 Y19.458 F300.0
G1 X81.029 Y19.243 F300.0
G1 X80.845 Y19.065 F300.0
G1 X80.617 Y18.925 F300.0
G1 X80.348 Y18.826 F300.0
G1 X80.039 Y18.766 F300.0
G1 X79.689 Y18.746 F300.0
G1 X79.337 Y18.766 F300.0
G1 X79.027 Y18.825 F300.0
G1 X78.758 Y18.924 F300.0
G1 X78.531 Y19.062 F300.0
G1 X78.348 Y19.239 F300.0
G1 X78.209 Y19.455 F300.0
G1 X78.116 Y19.708 F300.0
G1 X78.067 Y20.000 F300.0
G1 Z-2.000 F100.0
G1 X78.679 Y20.000 F300.0
G1 X78.724 Y19.868 F300.0
G1 X78.793 Y19.753 F300.0
G1 X78.886 Y19.655 F300.0
G1 X79.003 Y19.573 F300.0
G1 X79.142 Y19.508 F300.0
G1 X79.302 Y19.462 F300.0
G1 X79.485 Y19.434 F300.0
G1 X79.689 Y19.425 F300.0
G1 X79.891 Y19.434 F300.0
G1 X80.071 Y19.460 F300.0
G1 X80.229 Y19.505 F300.0
G1 X80.365 Y19.567 F300.0
G1 X80.480 Y19.648 F300.0
G1 X80.574 Y19.747 F300.0
G1 X80.648 Y19.864 F300.0
G1 X80.699 Y20.000 F300.0
G1 X81.311 Y20.000 F300.0
G1 X81.262 Y19.710 F300.0
G1 X81.168 Y19.458 F300.0
G1 X81.029 Y19.243 F300.0
G1 X80.845 Y19.065 F300.0
G1 X80.617 Y18.925 F300.0
G1 X80.348 Y18.826 F300.0
G1 X80.039 Y18.766 F300.0
G1 X79.689 Y18.746 F300.0
G1 X79.337 Y18.766 F300.0
G1 X79.027 Y18.825 F300.0
G1 X78.758 Y18.924 F300.0
G1 X78.531 Y19.062 F300.0
G1 X78.348 Y19.239 F300.0
G1 X78.209 Y19.455 F300.0
G1 X78.116 Y19.708 F300.0
G1 X78.067 Y20.000 F300.0
G0 Z5.000
; --- shape 17: poly / Engrave (on the line) / depth 2 mm ---
G0 X89.974 Y17.176
G0 Z1.000
G1 Z-0.500 F100.0
G1 X89.696 Y17.163 F300.0
G1 X89.433 Y17.123 F300.0
G1 X89.185 Y17.057 F300.0
G1 X88.951 Y16.964 F300.0
G1 X88.732 Y16.844 F300.0
G1 X88.528 Y16.698 F300.0
G1 X88.338 Y16.526 F300.0
G1 X88.163 Y16.326 F300.0
G1 X88.006 Y16.104 F300.0
G1 X87.870 Y15.863 F300.0
G1 X87.754 Y15.602 F300.0
G1 X87.660 Y15.323 F300.0
G1 X87.587 Y15.023 F300.0
G1 X87.534 Y14.705 F300.0
G1 X87.503 Y14.367 F300.0
G1 X87.492 Y14.010 F300.0
G1 X87.503 Y13.655 F300.0
G1 X87.534 Y13.318 F300.0
G1 X87.587 Y13.000 F300.0
G1 X87.660 Y12.702 F300.0
G1 X87.754 Y12.423 F300.0
G1 X87.870 Y12.163 F300.0
G1 X88.006 Y11.921 F300.0
G1 X88.163 Y11.699 F300.0
G1 X88.338 Y11.500 F300.0
G1 X88.528 Y11.328 F300.0
G1 X88.732 Y11.182 F300.0
G1 X88.951 Y11.062 F300.0
G1 X89.185 Y10.969 F300.0
G1 X89.433 Y10.903 F300.0
G1 X89.696 Y10.863 F300.0
G1 X89.974 Y10.850 F300.0
G1 X90.252 Y10.863 F300.0
G1 X90.514 Y10.903 F300.0
G1 X90.762 Y10.969 F300.0
G1 X90.995 Y11.062 F300.0
G1 X91.214 Y11.182 F300.0
G1 X91.417 Y11.328 F300.0
G1 X91.606 Y11.500 F300.0
G1 X91.780 Y11.699 F300.0
G1 X91.936 Y11.921 F300.0
G1 X92.071 Y12.163 F300.0
G1 X92.186 Y12.423 F300.0
G1 X92.279 Y12.702 F300.0
G1 X92.352 Y13.000 F300.0
G1 X92.404 Y13.318 F300.0
G1 X92.435 Y13.655 F300.0
G1 X92.446 Y14.010 F300.0
G1 X92.435 Y14.367 F300.0
G1 X92.404 Y14.705 F300.0
G1 X92.352 Y15.023 F300.0
G1 X92.279 Y15.323 F300.0
G1 X92.186 Y15.602 F300.0
G1 X92.071 Y15.863 F300.0
G1 X91.936 Y16.104 F300.0
G1 X91.780 Y16.326 F300.0
G1 X91.606 Y16.526 F300.0
G1 X91.417 Y16.698 F300.0
G1 X91.214 Y16.844 F300.0
G1 X90.995 Y16.964 F300.0
G1 X90.762 Y17.057 F300.0
G1 X90.514 Y17.123 F300.0
G1 X90.252 Y17.163 F300.0
G1 X89.974 Y17.176 F300.0
G1 Z-1.000 F100.0
G1 X89.696 Y17.163 F300.0
G1 X89.433 Y17.123 F300.0
G1 X89.185 Y17.057 F300.0
G1 X88.951 Y16.964 F300.0
G1 X88.732 Y16.844 F300.0
G1 X88.528 Y16.698 F300.0
G1 X88.338 Y16.526 F300.0
G1 X88.163 Y16.326 F300.0
G1 X88.006 Y16.104 F300.0
G1 X87.870 Y15.863 F300.0
G1 X87.754 Y15.602 F300.0
G1 X87.660 Y15.323 F300.0
G1 X87.587 Y15.023 F300.0
G1 X87.534 Y14.705 F300.0
G1 X87.503 Y14.367 F300.0
G1 X87.492 Y14.010 F300.0
G1 X87.503 Y13.655 F300.0
G1 X87.534 Y13.318 F300.0
G1 X87.587 Y13.000 F300.0
G1 X87.660 Y12.702 F300.0
G1 X87.754 Y12.423 F300.0
G1 X87.870 Y12.163 F300.0
G1 X88.006 Y11.921 F300.0
G1 X88.163 Y11.699 F300.0
G1 X88.338 Y11.500 F300.0
G1 X88.528 Y11.328 F300.0
G1 X88.732 Y11.182 F300.0
G1 X88.951 Y11.062 F300.0
G1 X89.185 Y10.969 F300.0
G1 X89.433 Y10.903 F300.0
G1 X89.696 Y10.863 F300.0
G1 X89.974 Y10.850 F300.0
G1 X90.252 Y10.863 F300.0
G1 X90.514 Y10.903 F300.0
G1 X90.762 Y10.969 F300.0
G1 X90.995 Y11.062 F300.0
G1 X91.214 Y11.182 F300.0
G1 X91.417 Y11.328 F300.0
G1 X91.606 Y11.500 F300.0
G1 X91.780 Y11.699 F300.0
G1 X91.936 Y11.921 F300.0
G1 X92.071 Y12.163 F300.0
G1 X92.186 Y12.423 F300.0
G1 X92.279 Y12.702 F300.0
G1 X92.352 Y13.000 F300.0
G1 X92.404 Y13.318 F300.0
G1 X92.435 Y13.655 F300.0
G1 X92.446 Y14.010 F300.0
G1 X92.435 Y14.367 F300.0
G1 X92.404 Y14.705 F300.0
G1 X92.352 Y15.023 F300.0
G1 X92.279 Y15.323 F300.0
G1 X92.186 Y15.602 F300.0
G1 X92.071 Y15.863 F300.0
G1 X91.936 Y16.104 F300.0
G1 X91.780 Y16.326 F300.0
G1 X91.606 Y16.526 F300.0
G1 X91.417 Y16.698 F300.0
G1 X91.214 Y16.844 F300.0
G1 X90.995 Y16.964 F300.0
G1 X90.762 Y17.057 F300.0
G1 X90.514 Y17.123 F300.0
G1 X90.252 Y17.163 F300.0
G1 X89.974 Y17.176 F300.0
G1 Z-1.500 F100.0
G1 X89.696 Y17.163 F300.0
G1 X89.433 Y17.123 F300.0
G1 X89.185 Y17.057 F300.0
G1 X88.951 Y16.964 F300.0
G1 X88.732 Y16.844 F300.0
G1 X88.528 Y16.698 F300.0
G1 X88.338 Y16.526 F300.0
G1 X88.163 Y16.326 F300.0
G1 X88.006 Y16.104 F300.0
G1 X87.870 Y15.863 F300.0
G1 X87.754 Y15.602 F300.0
G1 X87.660 Y15.323 F300.0
G1 X87.587 Y15.023 F300.0
G1 X87.534 Y14.705 F300.0
G1 X87.503 Y14.367 F300.0
G1 X87.492 Y14.010 F300.0
G1 X87.503 Y13.655 F300.0
G1 X87.534 Y13.318 F300.0
G1 X87.587 Y13.000 F300.0
G1 X87.660 Y12.702 F300.0
G1 X87.754 Y12.423 F300.0
G1 X87.870 Y12.163 F300.0
G1 X88.006 Y11.921 F300.0
G1 X88.163 Y11.699 F300.0
G1 X88.338 Y11.500 F300.0
G1 X88.528 Y11.328 F300.0
G1 X88.732 Y11.182 F300.0
G1 X88.951 Y11.062 F300.0
G1 X89.185 Y10.969 F300.0
G1 X89.433 Y10.903 F300.0
G1 X89.696 Y10.863 F300.0
G1 X89.974 Y10.850 F300.0
G1 X90.252 Y10.863 F300.0
G1 X90.514 Y10.903 F300.0
G1 X90.762 Y10.969 F300.0
G1 X90.995 Y11.062 F300.0
G1 X91.214 Y11.182 F300.0
G1 X91.417 Y11.328 F300.0
G1 X91.606 Y11.500 F300.0
G1 X91.780 Y11.699 F300.0
G1 X91.936 Y11.921 F300.0
G1 X92.071 Y12.163 F300.0
G1 X92.186 Y12.423 F300.0
G1 X92.279 Y12.702 F300.0
G1 X92.352 Y13.000 F300.0
G1 X92.404 Y13.318 F300.0
G1 X92.435 Y13.655 F300.0
G1 X92.446 Y14.010 F300.0
G1 X92.435 Y14.367 F300.0
G1 X92.404 Y14.705 F300.0
G1 X92.352 Y15.023 F300.0
G1 X92.279 Y15.323 F300.0
G1 X92.186 Y15.602 F300.0
G1 X92.071 Y15.863 F300.0
G1 X91.936 Y16.104 F300.0
G1 X91.780 Y16.326 F300.0
G1 X91.606 Y16.526 F300.0
G1 X91.417 Y16.698 F300.0
G1 X91.214 Y16.844 F300.0
G1 X90.995 Y16.964 F300.0
G1 X90.762 Y17.057 F300.0
G1 X90.514 Y17.123 F300.0
G1 X90.252 Y17.163 F300.0
G1 X89.974 Y17.176 F300.0
G1 Z-2.000 F100.0
G1 X89.696 Y17.163 F300.0
G1 X89.433 Y17.123 F300.0
G1 X89.185 Y17.057 F300.0
G1 X88.951 Y16.964 F300.0
G1 X88.732 Y16.844 F300.0
G1 X88.528 Y16.698 F300.0
G1 X88.338 Y16.526 F300.0
G1 X88.163 Y16.326 F300.0
G1 X88.006 Y16.104 F300.0
G1 X87.870 Y15.863 F300.0
G1 X87.754 Y15.602 F300.0
G1 X87.660 Y15.323 F300.0
G1 X87.587 Y15.023 F300.0
G1 X87.534 Y14.705 F300.0
G1 X87.503 Y14.367 F300.0
G1 X87.492 Y14.010 F300.0
G1 X87.503 Y13.655 F300.0
G1 X87.534 Y13.318 F300.0
G1 X87.587 Y13.000 F300.0
G1 X87.660 Y12.702 F300.0
G1 X87.754 Y12.423 F300.0
G1 X87.870 Y12.163 F300.0
G1 X88.006 Y11.921 F300.0
G1 X88.163 Y11.699 F300.0
G1 X88.338 Y11.500 F300.0
G1 X88.528 Y11.328 F300.0
G1 X88.732 Y11.182 F300.0
G1 X88.951 Y11.062 F300.0
G1 X89.185 Y10.969 F300.0
G1 X89.433 Y10.903 F300.0
G1 X89.696 Y10.863 F300.0
G1 X89.974 Y10.850 F300.0
G1 X90.252 Y10.863 F300.0
G1 X90.514 Y10.903 F300.0
G1 X90.762 Y10.969 F300.0
G1 X90.995 Y11.062 F300.0
G1 X91.214 Y11.182 F300.0
G1 X91.417 Y11.328 F300.0
G1 X91.606 Y11.500 F300.0
G1 X91.780 Y11.699 F300.0
G1 X91.936 Y11.921 F300.0
G1 X92.071 Y12.163 F300.0
G1 X92.186 Y12.423 F300.0
G1 X92.279 Y12.702 F300.0
G1 X92.352 Y13.000 F300.0
G1 X92.404 Y13.318 F300.0
G1 X92.435 Y13.655 F300.0
G1 X92.446 Y14.010 F300.0
G1 X92.435 Y14.367 F300.0
G1 X92.404 Y14.705 F300.0
G1 X92.352 Y15.023 F300.0
G1 X92.279 Y15.323 F300.0
G1 X92.186 Y15.602 F300.0
G1 X92.071 Y15.863 F300.0
G1 X91.936 Y16.104 F300.0
G1 X91.780 Y16.326 F300.0
G1 X91.606 Y16.526 F300.0
G1 X91.417 Y16.698 F300.0
G1 X91.214 Y16.844 F300.0
G1 X90.995 Y16.964 F300.0
G1 X90.762 Y17.057 F300.0
G1 X90.514 Y17.123 F300.0
G1 X90.252 Y17.163 F300.0
G1 X89.974 Y17.176 F300.0
G0 Z5.000
; --- shape 18: poly / Engrave (on the line) / depth 2 mm ---
G0 X89.974 Y18.026
G0 Z1.000
G1 Z-0.500 F100.0
G1 X90.371 Y18.009 F300.0
G1 X90.747 Y17.958 F300.0
G1 X91.102 Y17.873 F300.0
G1 X91.438 Y17.753 F300.0
G1 X91.753 Y17.600 F300.0
G1 X92.047 Y17.412 F300.0
G1 X92.321 Y17.191 F300.0
G1 X92.575 Y16.935 F300.0
G1 X92.803 Y16.651 F300.0
G1 X93.001 Y16.343 F300.0
G1 X93.169 Y16.013 F300.0
G1 X93.306 Y15.659 F300.0
G1 X93.412 Y15.281 F300.0
G1 X93.488 Y14.881 F300.0
G1 X93.534 Y14.457 F300.0
G1 X93.549 Y14.010 F300.0
G1 X93.534 Y13.565 F300.0
G1 X93.488 Y13.142 F300.0
G1 X93.412 Y12.742 F300.0
G1 X93.306 Y12.366 F300.0
G1 X93.169 Y12.013 F300.0
G1 X93.001 Y11.682 F300.0
G1 X92.803 Y11.375 F300.0
G1 X92.575 Y11.091 F300.0
G1 X92.321 Y10.835 F300.0
G1 X92.047 Y10.614 F300.0
G1 X91.753 Y10.426 F300.0
G1 X91.438 Y10.273 F300.0
G1 X91.102 Y10.153 F300.0
G1 X90.747 Y10.068 F300.0
G1 X90.371 Y10.017 F300.0
G1 X89.974 Y10.000 F300.0
G1 X89.576 Y10.017 F300.0
G1 X89.199 Y10.068 F300.0
G1 X88.842 Y10.153 F300.0
G1 X88.506 Y10.272 F300.0
G1 X88.190 Y10.425 F300.0
G1 X87.895 Y10.612 F300.0
G1 X87.620 Y10.833 F300.0
G1 X87.365 Y11.088 F300.0
G1 X87.136 Y11.372 F300.0
G1 X86.938 Y11.679 F300.0
G1 X86.770 Y12.009 F300.0
G1 X86.633 Y12.363 F300.0
G1 X86.526 Y12.740 F300.0
G1 X86.450 Y13.140 F300.0
G1 X86.404 Y13.563 F300.0
G1 X86.389 Y14.010 F300.0
G1 X86.404 Y14.457 F300.0
G1 X86.450 Y14.881 F300.0
G1 X86.526 Y15.281 F300.0
G1 X86.633 Y15.659 F300.0
G1 X86.770 Y16.013 F300.0
G1 X86.938 Y16.343 F300.0
G1 X87.136 Y16.651 F300.0
G1 X87.365 Y16.935 F300.0
G1 X87.620 Y17.191 F300.0
G1 X87.895 Y17.412 F300.0
G1 X88.190 Y17.600 F300.0
G1 X88.506 Y17.753 F300.0
G1 X88.842 Y17.873 F300.0
G1 X89.199 Y17.958 F300.0
G1 X89.576 Y18.009 F300.0
G1 X89.974 Y18.026 F300.0
G1 Z-1.000 F100.0
G1 X90.371 Y18.009 F300.0
G1 X90.747 Y17.958 F300.0
G1 X91.102 Y17.873 F300.0
G1 X91.438 Y17.753 F300.0
G1 X91.753 Y17.600 F300.0
G1 X92.047 Y17.412 F300.0
G1 X92.321 Y17.191 F300.0
G1 X92.575 Y16.935 F300.0
G1 X92.803 Y16.651 F300.0
G1 X93.001 Y16.343 F300.0
G1 X93.169 Y16.013 F300.0
G1 X93.306 Y15.659 F300.0
G1 X93.412 Y15.281 F300.0
G1 X93.488 Y14.881 F300.0
G1 X93.534 Y14.457 F300.0
G1 X93.549 Y14.010 F300.0
G1 X93.534 Y13.565 F300.0
G1 X93.488 Y13.142 F300.0
G1 X93.412 Y12.742 F300.0
G1 X93.306 Y12.366 F300.0
G1 X93.169 Y12.013 F300.0
G1 X93.001 Y11.682 F300.0
G1 X92.803 Y11.375 F300.0
G1 X92.575 Y11.091 F300.0
G1 X92.321 Y10.835 F300.0
G1 X92.047 Y10.614 F300.0
G1 X91.753 Y10.426 F300.0
G1 X91.438 Y10.273 F300.0
G1 X91.102 Y10.153 F300.0
G1 X90.747 Y10.068 F300.0
G1 X90.371 Y10.017 F300.0
G1 X89.974 Y10.000 F300.0
G1 X89.576 Y10.017 F300.0
G1 X89.199 Y10.068 F300.0
G1 X88.842 Y10.153 F300.0
G1 X88.506 Y10.272 F300.0
G1 X88.190 Y10.425 F300.0
G1 X87.895 Y10.612 F300.0
G1 X87.620 Y10.833 F300.0
G1 X87.365 Y11.088 F300.0
G1 X87.136 Y11.372 F300.0
G1 X86.938 Y11.679 F300.0
G1 X86.770 Y12.009 F300.0
G1 X86.633 Y12.363 F300.0
G1 X86.526 Y12.740 F300.0
G1 X86.450 Y13.140 F300.0
G1 X86.404 Y13.563 F300.0
G1 X86.389 Y14.010 F300.0
G1 X86.404 Y14.457 F300.0
G1 X86.450 Y14.881 F300.0
G1 X86.526 Y15.281 F300.0
G1 X86.633 Y15.659 F300.0
G1 X86.770 Y16.013 F300.0
G1 X86.938 Y16.343 F300.0
G1 X87.136 Y16.651 F300.0
G1 X87.365 Y16.935 F300.0
G1 X87.620 Y17.191 F300.0
G1 X87.895 Y17.412 F300.0
G1 X88.190 Y17.600 F300.0
G1 X88.506 Y17.753 F300.0
G1 X88.842 Y17.873 F300.0
G1 X89.199 Y17.958 F300.0
G1 X89.576 Y18.009 F300.0
G1 X89.974 Y18.026 F300.0
G1 Z-1.500 F100.0
G1 X90.371 Y18.009 F300.0
G1 X90.747 Y17.958 F300.0
G1 X91.102 Y17.873 F300.0
G1 X91.438 Y17.753 F300.0
G1 X91.753 Y17.600 F300.0
G1 X92.047 Y17.412 F300.0
G1 X92.321 Y17.191 F300.0
G1 X92.575 Y16.935 F300.0
G1 X92.803 Y16.651 F300.0
G1 X93.001 Y16.343 F300.0
G1 X93.169 Y16.013 F300.0
G1 X93.306 Y15.659 F300.0
G1 X93.412 Y15.281 F300.0
G1 X93.488 Y14.881 F300.0
G1 X93.534 Y14.457 F300.0
G1 X93.549 Y14.010 F300.0
G1 X93.534 Y13.565 F300.0
G1 X93.488 Y13.142 F300.0
G1 X93.412 Y12.742 F300.0
G1 X93.306 Y12.366 F300.0
G1 X93.169 Y12.013 F300.0
G1 X93.001 Y11.682 F300.0
G1 X92.803 Y11.375 F300.0
G1 X92.575 Y11.091 F300.0
G1 X92.321 Y10.835 F300.0
G1 X92.047 Y10.614 F300.0
G1 X91.753 Y10.426 F300.0
G1 X91.438 Y10.273 F300.0
G1 X91.102 Y10.153 F300.0
G1 X90.747 Y10.068 F300.0
G1 X90.371 Y10.017 F300.0
G1 X89.974 Y10.000 F300.0
G1 X89.576 Y10.017 F300.0
G1 X89.199 Y10.068 F300.0
G1 X88.842 Y10.153 F300.0
G1 X88.506 Y10.272 F300.0
G1 X88.190 Y10.425 F300.0
G1 X87.895 Y10.612 F300.0
G1 X87.620 Y10.833 F300.0
G1 X87.365 Y11.088 F300.0
G1 X87.136 Y11.372 F300.0
G1 X86.938 Y11.679 F300.0
G1 X86.770 Y12.009 F300.0
G1 X86.633 Y12.363 F300.0
G1 X86.526 Y12.740 F300.0
G1 X86.450 Y13.140 F300.0
G1 X86.404 Y13.563 F300.0
G1 X86.389 Y14.010 F300.0
G1 X86.404 Y14.457 F300.0
G1 X86.450 Y14.881 F300.0
G1 X86.526 Y15.281 F300.0
G1 X86.633 Y15.659 F300.0
G1 X86.770 Y16.013 F300.0
G1 X86.938 Y16.343 F300.0
G1 X87.136 Y16.651 F300.0
G1 X87.365 Y16.935 F300.0
G1 X87.620 Y17.191 F300.0
G1 X87.895 Y17.412 F300.0
G1 X88.190 Y17.600 F300.0
G1 X88.506 Y17.753 F300.0
G1 X88.842 Y17.873 F300.0
G1 X89.199 Y17.958 F300.0
G1 X89.576 Y18.009 F300.0
G1 X89.974 Y18.026 F300.0
G1 Z-2.000 F100.0
G1 X90.371 Y18.009 F300.0
G1 X90.747 Y17.958 F300.0
G1 X91.102 Y17.873 F300.0
G1 X91.438 Y17.753 F300.0
G1 X91.753 Y17.600 F300.0
G1 X92.047 Y17.412 F300.0
G1 X92.321 Y17.191 F300.0
G1 X92.575 Y16.935 F300.0
G1 X92.803 Y16.651 F300.0
G1 X93.001 Y16.343 F300.0
G1 X93.169 Y16.013 F300.0
G1 X93.306 Y15.659 F300.0
G1 X93.412 Y15.281 F300.0
G1 X93.488 Y14.881 F300.0
G1 X93.534 Y14.457 F300.0
G1 X93.549 Y14.010 F300.0
G1 X93.534 Y13.565 F300.0
G1 X93.488 Y13.142 F300.0
G1 X93.412 Y12.742 F300.0
G1 X93.306 Y12.366 F300.0
G1 X93.169 Y12.013 F300.0
G1 X93.001 Y11.682 F300.0
G1 X92.803 Y11.375 F300.0
G1 X92.575 Y11.091 F300.0
G1 X92.321 Y10.835 F300.0
G1 X92.047 Y10.614 F300.0
G1 X91.753 Y10.426 F300.0
G1 X91.438 Y10.273 F300.0
G1 X91.102 Y10.153 F300.0
G1 X90.747 Y10.068 F300.0
G1 X90.371 Y10.017 F300.0
G1 X89.974 Y10.000 F300.0
G1 X89.576 Y10.017 F300.0
G1 X89.199 Y10.068 F300.0
G1 X88.842 Y10.153 F300.0
G1 X88.506 Y10.272 F300.0
G1 X88.190 Y10.425 F300.0
G1 X87.895 Y10.612 F300.0
G1 X87.620 Y10.833 F300.0
G1 X87.365 Y11.088 F300.0
G1 X87.136 Y11.372 F300.0
G1 X86.938 Y11.679 F300.0
G1 X86.770 Y12.009 F300.0
G1 X86.633 Y12.363 F300.0
G1 X86.526 Y12.740 F300.0
G1 X86.450 Y13.140 F300.0
G1 X86.404 Y13.563 F300.0
G1 X86.389 Y14.010 F300.0
G1 X86.404 Y14.457 F300.0
G1 X86.450 Y14.881 F300.0
G1 X86.526 Y15.281 F300.0
G1 X86.633 Y15.659 F300.0
G1 X86.770 Y16.013 F300.0
G1 X86.938 Y16.343 F300.0
G1 X87.136 Y16.651 F300.0
G1 X87.365 Y16.935 F300.0
G1 X87.620 Y17.191 F300.0
G1 X87.895 Y17.412 F300.0
G1 X88.190 Y17.600 F300.0
G1 X88.506 Y17.753 F300.0
G1 X88.842 Y17.873 F300.0
G1 X89.199 Y17.958 F300.0
G1 X89.576 Y18.009 F300.0
G1 X89.974 Y18.026 F300.0
G0 Z5.000
; --- shape 19: poly / Engrave (on the line) / depth 2 mm ---
G0 X97.187 Y17.886
G0 Z1.000
G1 Z-0.500 F100.0
G1 X98.233 Y17.886 F300.0
G1 X98.233 Y11.031 F300.0
G1 X102.000 Y11.031 F300.0
G1 X102.000 Y10.150 F300.0
G1 X97.187 Y10.150 F300.0
G1 X97.187 Y17.886 F300.0
G1 Z-1.000 F100.0
G1 X98.233 Y17.886 F300.0
G1 X98.233 Y11.031 F300.0
G1 X102.000 Y11.031 F300.0
G1 X102.000 Y10.150 F300.0
G1 X97.187 Y10.150 F300.0
G1 X97.187 Y17.886 F300.0
G1 Z-1.500 F100.0
G1 X98.233 Y17.886 F300.0
G1 X98.233 Y11.031 F300.0
G1 X102.000 Y11.031 F300.0
G1 X102.000 Y10.150 F300.0
G1 X97.187 Y10.150 F300.0
G1 X97.187 Y17.886 F300.0
G1 Z-2.000 F100.0
G1 X98.233 Y17.886 F300.0
G1 X98.233 Y11.031 F300.0
G1 X102.000 Y11.031 F300.0
G1 X102.000 Y10.150 F300.0
G1 X97.187 Y10.150 F300.0
G1 X97.187 Y17.886 F300.0
G0 Z5.000
; --- shape 20: poly / Engrave (on the line) / depth 2 mm ---
G0 X109.736 Y17.632
G0 Z1.000
G1 Z-0.500 F100.0
G1 X109.736 Y16.611 F300.0
G1 X109.157 Y16.860 F300.0
G1 X108.611 Y17.036 F300.0
G1 X108.092 Y17.141 F300.0
G1 X107.839 Y17.167 F300.0
G1 X107.591 Y17.176 F300.0
G1 X107.188 Y17.155 F300.0
G1 X106.834 Y17.093 F300.0
G1 X106.528 Y16.990 F300.0
G1 X106.272 Y16.845 F300.0
G1 X106.069 Y16.661 F300.0
G1 X105.924 Y16.443 F300.0
G1 X105.837 Y16.190 F300.0
G1 X105.808 Y15.902 F300.0
G1 X105.828 Y15.661 F300.0
G1 X105.885 Y15.451 F300.0
G1 X105.982 Y15.273 F300.0
G1 X106.117 Y15.127 F300.0
G1 X106.305 Y15.002 F300.0
G1 X106.563 Y14.891 F300.0
G1 X106.889 Y14.791 F300.0
G1 X107.285 Y14.705 F300.0
G1 X107.917 Y14.575 F300.0
G1 X108.464 Y14.443 F300.0
G1 X108.935 Y14.267 F300.0
G1 X109.328 Y14.050 F300.0
G1 X109.645 Y13.790 F300.0
G1 X109.889 Y13.485 F300.0
G1 X109.984 Y13.315 F300.0
G1 X110.063 Y13.133 F300.0
G1 X110.124 Y12.939 F300.0
G1 X110.167 Y12.733 F300.0
G1 X110.193 Y12.515 F300.0
G1 X110.202 Y12.285 F300.0
G1 X110.190 Y12.012 F300.0
G1 X110.155 Y11.757 F300.0
G1 X110.096 Y11.518 F300.0
G1 X110.014 Y11.297 F300.0
G1 X109.908 Y11.092 F300.0
G1 X109.778 Y10.904 F300.0
G1 X109.625 Y10.734 F300.0
G1 X109.448 Y10.580 F300.0
G1 X109.249 Y10.444 F300.0
G1 X109.027 Y10.326 F300.0
G1 X108.784 Y10.227 F300.0
G1 X108.519 Y10.145 F300.0
G1 X108.232 Y10.082 F300.0
G1 X107.922 Y10.036 F300.0
G1 X107.591 Y10.009 F300.0
G1 X107.238 Y10.000 F300.0
G1 X106.672 Y10.031 F300.0
G1 X106.070 Y10.124 F300.0
G1 X105.440 Y10.278 F300.0
G1 X104.788 Y10.492 F300.0
G1 X104.788 Y11.570 F300.0
G1 X105.418 Y11.256 F300.0
G1 X106.036 Y11.031 F300.0
G1 X106.341 Y10.952 F300.0
G1 X106.642 Y10.895 F300.0
G1 X106.942 Y10.861 F300.0
G1 X107.238 Y10.850 F300.0
G1 X107.661 Y10.872 F300.0
G1 X108.032 Y10.938 F300.0
G1 X108.353 Y11.048 F300.0
G1 X108.622 Y11.202 F300.0
G1 X108.835 Y11.397 F300.0
G1 X108.987 Y11.630 F300.0
G1 X109.078 Y11.900 F300.0
G1 X109.109 Y12.207 F300.0
G1 X109.087 Y12.477 F300.0
G1 X109.021 Y12.715 F300.0
G1 X108.912 Y12.922 F300.0
G1 X108.759 Y13.098 F300.0
G1 X108.556 Y13.249 F300.0
G1 X108.297 Y13.380 F300.0
G1 X107.982 Y13.490 F300.0
G1 X107.611 Y13.580 F300.0
G1 X106.974 Y13.705 F300.0
G1 X106.429 Y13.838 F300.0
G1 X105.965 Y14.004 F300.0
G1 X105.582 Y14.203 F300.0
G1 X105.280 Y14.435 F300.0
G1 X105.051 Y14.708 F300.0
G1 X104.887 Y15.030 F300.0
G1 X104.789 Y15.400 F300.0
G1 X104.765 Y15.603 F300.0
G1 X104.756 Y15.819 F300.0
G1 X104.768 Y16.068 F300.0
G1 X104.802 Y16.304 F300.0
G1 X104.858 Y16.527 F300.0
G1 X104.937 Y16.736 F300.0
G1 X105.039 Y16.931 F300.0
G1 X105.163 Y17.113 F300.0
G1 X105.310 Y17.281 F300.0
G1 X105.479 Y17.435 F300.0
G1 X105.669 Y17.574 F300.0
G1 X105.875 Y17.694 F300.0
G1 X106.098 Y17.795 F300.0
G1 X106.339 Y17.878 F300.0
G1 X106.596 Y17.943 F300.0
G1 X106.871 Y17.989 F300.0
G1 X107.163 Y18.017 F300.0
G1 X107.472 Y18.026 F300.0
G1 X108.021 Y18.001 F300.0
G1 X108.580 Y17.927 F300.0
G1 X109.152 Y17.804 F300.0
G1 X109.736 Y17.632 F300.0
G1 Z-1.000 F100.0
G1 X109.736 Y16.611 F300.0
G1 X109.157 Y16.860 F300.0
G1 X108.611 Y17.036 F300.0
G1 X108.092 Y17.141 F300.0
G1 X107.839 Y17.167 F300.0
G1 X107.591 Y17.176 F300.0
G1 X107.188 Y17.155 F300.0
G1 X106.834 Y17.093 F300.0
G1 X106.528 Y16.990 F300.0
G1 X106.272 Y16.845 F300.0
G1 X106.069 Y16.661 F300.0
G1 X105.924 Y16.443 F300.0
G1 X105.837 Y16.190 F300.0
G1 X105.808 Y15.902 F300.0
G1 X105.828 Y15.661 F300.0
G1 X105.885 Y15.451 F300.0
G1 X105.982 Y15.273 F300.0
G1 X106.117 Y15.127 F300.0
G1 X106.305 Y15.002 F300.0
G1 X106.563 Y14.891 F300.0
G1 X106.889 Y14.791 F300.0
G1 X107.285 Y14.705 F300.0
G1 X107.917 Y14.575 F300.0
G1 X108.464 Y14.443 F300.0
G1 X108.935 Y14.267 F300.0
G1 X109.328 Y14.050 F300.0
G1 X109.645 Y13.790 F300.0
G1 X109.889 Y13.485 F300.0
G1 X109.984 Y13.315 F300.0
G1 X110.063 Y13.133 F300.0
G1 X110.124 Y12.939 F300.0
G1 X110.167 Y12.733 F300.0
G1 X110.193 Y12.515 F300.0
G1 X110.202 Y12.285 F300.0
G1 X110.190 Y12.012 F300.0
G1 X110.155 Y11.757 F300.0
G1 X110.096 Y11.518 F300.0
G1 X110.014 Y11.297 F300.0
G1 X109.908 Y11.092 F300.0
G1 X109.778 Y10.904 F300.0
G1 X109.625 Y10.734 F300.0
G1 X109.448 Y10.580 F300.0
G1 X109.249 Y10.444 F300.0
G1 X109.027 Y10.326 F300.0
G1 X108.784 Y10.227 F300.0
G1 X108.519 Y10.145 F300.0
G1 X108.232 Y10.082 F300.0
G1 X107.922 Y10.036 F300.0
G1 X107.591 Y10.009 F300.0
G1 X107.238 Y10.000 F300.0
G1 X106.672 Y10.031 F300.0
G1 X106.070 Y10.124 F300.0
G1 X105.440 Y10.278 F300.0
G1 X104.788 Y10.492 F300.0
G1 X104.788 Y11.570 F300.0
G1 X105.418 Y11.256 F300.0
G1 X106.036 Y11.031 F300.0
G1 X106.341 Y10.952 F300.0
G1 X106.642 Y10.895 F300.0
G1 X106.942 Y10.861 F300.0
G1 X107.238 Y10.850 F300.0
G1 X107.661 Y10.872 F300.0
G1 X108.032 Y10.938 F300.0
G1 X108.353 Y11.048 F300.0
G1 X108.622 Y11.202 F300.0
G1 X108.835 Y11.397 F300.0
G1 X108.987 Y11.630 F300.0
G1 X109.078 Y11.900 F300.0
G1 X109.109 Y12.207 F300.0
G1 X109.087 Y12.477 F300.0
G1 X109.021 Y12.715 F300.0
G1 X108.912 Y12.922 F300.0
G1 X108.759 Y13.098 F300.0
G1 X108.556 Y13.249 F300.0
G1 X108.297 Y13.380 F300.0
G1 X107.982 Y13.490 F300.0
G1 X107.611 Y13.580 F300.0
G1 X106.974 Y13.705 F300.0
G1 X106.429 Y13.838 F300.0
G1 X105.965 Y14.004 F300.0
G1 X105.582 Y14.203 F300.0
G1 X105.280 Y14.435 F300.0
G1 X105.051 Y14.708 F300.0
G1 X104.887 Y15.030 F300.0
G1 X104.789 Y15.400 F300.0
G1 X104.765 Y15.603 F300.0
G1 X104.756 Y15.819 F300.0
G1 X104.768 Y16.068 F300.0
G1 X104.802 Y16.304 F300.0
G1 X104.858 Y16.527 F300.0
G1 X104.937 Y16.736 F300.0
G1 X105.039 Y16.931 F300.0
G1 X105.163 Y17.113 F300.0
G1 X105.310 Y17.281 F300.0
G1 X105.479 Y17.435 F300.0
G1 X105.669 Y17.574 F300.0
G1 X105.875 Y17.694 F300.0
G1 X106.098 Y17.795 F300.0
G1 X106.339 Y17.878 F300.0
G1 X106.596 Y17.943 F300.0
G1 X106.871 Y17.989 F300.0
G1 X107.163 Y18.017 F300.0
G1 X107.472 Y18.026 F300.0
G1 X108.021 Y18.001 F300.0
G1 X108.580 Y17.927 F300.0
G1 X109.152 Y17.804 F300.0
G1 X109.736 Y17.632 F300.0
G1 Z-1.500 F100.0
G1 X109.736 Y16.611 F300.0
G1 X109.157 Y16.860 F300.0
G1 X108.611 Y17.036 F300.0
G1 X108.092 Y17.141 F300.0
G1 X107.839 Y17.167 F300.0
G1 X107.591 Y17.176 F300.0
G1 X107.188 Y17.155 F300.0
G1 X106.834 Y17.093 F300.0
G1 X106.528 Y16.990 F300.0
G1 X106.272 Y16.845 F300.0
G1 X106.069 Y16.661 F300.0
G1 X105.924 Y16.443 F300.0
G1 X105.837 Y16.190 F300.0
G1 X105.808 Y15.902 F300.0
G1 X105.828 Y15.661 F300.0
G1 X105.885 Y15.451 F300.0
G1 X105.982 Y15.273 F300.0
G1 X106.117 Y15.127 F300.0
G1 X106.305 Y15.002 F300.0
G1 X106.563 Y14.891 F300.0
G1 X106.889 Y14.791 F300.0
G1 X107.285 Y14.705 F300.0
G1 X107.917 Y14.575 F300.0
G1 X108.464 Y14.443 F300.0
G1 X108.935 Y14.267 F300.0
G1 X109.328 Y14.050 F300.0
G1 X109.645 Y13.790 F300.0
G1 X109.889 Y13.485 F300.0
G1 X109.984 Y13.315 F300.0
G1 X110.063 Y13.133 F300.0
G1 X110.124 Y12.939 F300.0
G1 X110.167 Y12.733 F300.0
G1 X110.193 Y12.515 F300.0
G1 X110.202 Y12.285 F300.0
G1 X110.190 Y12.012 F300.0
G1 X110.155 Y11.757 F300.0
G1 X110.096 Y11.518 F300.0
G1 X110.014 Y11.297 F300.0
G1 X109.908 Y11.092 F300.0
G1 X109.778 Y10.904 F300.0
G1 X109.625 Y10.734 F300.0
G1 X109.448 Y10.580 F300.0
G1 X109.249 Y10.444 F300.0
G1 X109.027 Y10.326 F300.0
G1 X108.784 Y10.227 F300.0
G1 X108.519 Y10.145 F300.0
G1 X108.232 Y10.082 F300.0
G1 X107.922 Y10.036 F300.0
G1 X107.591 Y10.009 F300.0
G1 X107.238 Y10.000 F300.0
G1 X106.672 Y10.031 F300.0
G1 X106.070 Y10.124 F300.0
G1 X105.440 Y10.278 F300.0
G1 X104.788 Y10.492 F300.0
G1 X104.788 Y11.570 F300.0
G1 X105.418 Y11.256 F300.0
G1 X106.036 Y11.031 F300.0
G1 X106.341 Y10.952 F300.0
G1 X106.642 Y10.895 F300.0
G1 X106.942 Y10.861 F300.0
G1 X107.238 Y10.850 F300.0
G1 X107.661 Y10.872 F300.0
G1 X108.032 Y10.938 F300.0
G1 X108.353 Y11.048 F300.0
G1 X108.622 Y11.202 F300.0
G1 X108.835 Y11.397 F300.0
G1 X108.987 Y11.630 F300.0
G1 X109.078 Y11.900 F300.0
G1 X109.109 Y12.207 F300.0
G1 X109.087 Y12.477 F300.0
G1 X109.021 Y12.715 F300.0
G1 X108.912 Y12.922 F300.0
G1 X108.759 Y13.098 F300.0
G1 X108.556 Y13.249 F300.0
G1 X108.297 Y13.380 F300.0
G1 X107.982 Y13.490 F300.0
G1 X107.611 Y13.580 F300.0
G1 X106.974 Y13.705 F300.0
G1 X106.429 Y13.838 F300.0
G1 X105.965 Y14.004 F300.0
G1 X105.582 Y14.203 F300.0
G1 X105.280 Y14.435 F300.0
G1 X105.051 Y14.708 F300.0
G1 X104.887 Y15.030 F300.0
G1 X104.789 Y15.400 F300.0
G1 X104.765 Y15.603 F300.0
G1 X104.756 Y15.819 F300.0
G1 X104.768 Y16.068 F300.0
G1 X104.802 Y16.304 F300.0
G1 X104.858 Y16.527 F300.0
G1 X104.937 Y16.736 F300.0
G1 X105.039 Y16.931 F300.0
G1 X105.163 Y17.113 F300.0
G1 X105.310 Y17.281 F300.0
G1 X105.479 Y17.435 F300.0
G1 X105.669 Y17.574 F300.0
G1 X105.875 Y17.694 F300.0
G1 X106.098 Y17.795 F300.0
G1 X106.339 Y17.878 F300.0
G1 X106.596 Y17.943 F300.0
G1 X106.871 Y17.989 F300.0
G1 X107.163 Y18.017 F300.0
G1 X107.472 Y18.026 F300.0
G1 X108.021 Y18.001 F300.0
G1 X108.580 Y17.927 F300.0
G1 X109.152 Y17.804 F300.0
G1 X109.736 Y17.632 F300.0
G1 Z-2.000 F100.0
G1 X109.736 Y16.611 F300.0
G1 X109.157 Y16.860 F300.0
G1 X108.611 Y17.036 F300.0
G1 X108.092 Y17.141 F300.0
G1 X107.839 Y17.167 F300.0
G1 X107.591 Y17.176 F300.0
G1 X107.188 Y17.155 F300.0
G1 X106.834 Y17.093 F300.0
G1 X106.528 Y16.990 F300.0
G1 X106.272 Y16.845 F300.0
G1 X106.069 Y16.661 F300.0
G1 X105.924 Y16.443 F300.0
G1 X105.837 Y16.190 F300.0
G1 X105.808 Y15.902 F300.0
G1 X105.828 Y15.661 F300.0
G1 X105.885 Y15.451 F300.0
G1 X105.982 Y15.273 F300.0
G1 X106.117 Y15.127 F300.0
G1 X106.305 Y15.002 F300.0
G1 X106.563 Y14.891 F300.0
G1 X106.889 Y14.791 F300.0
G1 X107.285 Y14.705 F300.0
G1 X107.917 Y14.575 F300.0
G1 X108.464 Y14.443 F300.0
G1 X108.935 Y14.267 F300.0
G1 X109.328 Y14.050 F300.0
G1 X109.645 Y13.790 F300.0
G1 X109.889 Y13.485 F300.0
G1 X109.984 Y13.315 F300.0
G1 X110.063 Y13.133 F300.0
G1 X110.124 Y12.939 F300.0
G1 X110.167 Y12.733 F300.0
G1 X110.193 Y12.515 F300.0
G1 X110.202 Y12.285 F300.0
G1 X110.190 Y12.012 F300.0
G1 X110.155 Y11.757 F300.0
G1 X110.096 Y11.518 F300.0
G1 X110.014 Y11.297 F300.0
G1 X109.908 Y11.092 F300.0
G1 X109.778 Y10.904 F300.0
G1 X109.625 Y10.734 F300.0
G1 X109.448 Y10.580 F300.0
G1 X109.249 Y10.444 F300.0
G1 X109.027 Y10.326 F300.0
G1 X108.784 Y10.227 F300.0
G1 X108.519 Y10.145 F300.0
G1 X108.232 Y10.082 F300.0
G1 X107.922 Y10.036 F300.0
G1 X107.591 Y10.009 F300.0
G1 X107.238 Y10.000 F300.0
G1 X106.672 Y10.031 F300.0
G1 X106.070 Y10.124 F300.0
G1 X105.440 Y10.278 F300.0
G1 X104.788 Y10.492 F300.0
G1 X104.788 Y11.570 F300.0
G1 X105.418 Y11.256 F300.0
G1 X106.036 Y11.031 F300.0
G1 X106.341 Y10.952 F300.0
G1 X106.642 Y10.895 F300.0
G1 X106.942 Y10.861 F300.0
G1 X107.238 Y10.850 F300.0
G1 X107.661 Y10.872 F300.0
G1 X108.032 Y10.938 F300.0
G1 X108.353 Y11.048 F300.0
G1 X108.622 Y11.202 F300.0
G1 X108.835 Y11.397 F300.0
G1 X108.987 Y11.630 F300.0
G1 X109.078 Y11.900 F300.0
G1 X109.109 Y12.207 F300.0
G1 X109.087 Y12.477 F300.0
G1 X109.021 Y12.715 F300.0
G1 X108.912 Y12.922 F300.0
G1 X108.759 Y13.098 F300.0
G1 X108.556 Y13.249 F300.0
G1 X108.297 Y13.380 F300.0
G1 X107.982 Y13.490 F300.0
G1 X107.611 Y13.580 F300.0
G1 X106.974 Y13.705 F300.0
G1 X106.429 Y13.838 F300.0
G1 X105.965 Y14.004 F300.0
G1 X105.582 Y14.203 F300.0
G1 X105.280 Y14.435 F300.0
G1 X105.051 Y14.708 F300.0
G1 X104.887 Y15.030 F300.0
G1 X104.789 Y15.400 F300.0
G1 X104.765 Y15.603 F300.0
G1 X104.756 Y15.819 F300.0
G1 X104.768 Y16.068 F300.0
G1 X104.802 Y16.304 F300.0
G1 X104.858 Y16.527 F300.0
G1 X104.937 Y16.736 F300.0
G1 X105.039 Y16.931 F300.0
G1 X105.163 Y17.113 F300.0
G1 X105.310 Y17.281 F300.0
G1 X105.479 Y17.435 F300.0
G1 X105.669 Y17.574 F300.0
G1 X105.875 Y17.694 F300.0
G1 X106.098 Y17.795 F300.0
G1 X106.339 Y17.878 F300.0
G1 X106.596 Y17.943 F300.0
G1 X106.871 Y17.989 F300.0
G1 X107.163 Y18.017 F300.0
G1 X107.472 Y18.026 F300.0
G1 X108.021 Y18.001 F300.0
G1 X108.580 Y17.927 F300.0
G1 X109.152 Y17.804 F300.0
G1 X109.736 Y17.632 F300.0
G0 Z5.000
; --- shape 21: poly / Engrave (on the line) / depth 2 mm ---
G0 X113.715 Y17.886
G0 Z1.000
G1 Z-0.500 F100.0
G1 X114.767 Y17.886 F300.0
G1 X114.767 Y13.187 F300.0
G1 X114.795 Y12.608 F300.0
G1 X114.880 Y12.117 F300.0
G1 X114.943 Y11.904 F300.0
G1 X115.020 Y11.713 F300.0
G1 X115.112 Y11.544 F300.0
G1 X115.218 Y11.396 F300.0
G1 X115.339 Y11.268 F300.0
G1 X115.478 Y11.157 F300.0
G1 X115.634 Y11.063 F300.0
G1 X115.808 Y10.986 F300.0
G1 X116.000 Y10.927 F300.0
G1 X116.209 Y10.884 F300.0
G1 X116.435 Y10.858 F300.0
G1 X116.679 Y10.850 F300.0
G1 X116.921 Y10.858 F300.0
G1 X117.147 Y10.884 F300.0
G1 X117.355 Y10.927 F300.0
G1 X117.545 Y10.986 F300.0
G1 X117.719 Y11.063 F300.0
G1 X117.875 Y11.157 F300.0
G1 X118.013 Y11.268 F300.0
G1 X118.135 Y11.396 F300.0
G1 X118.240 Y11.544 F300.0
G1 X118.332 Y11.713 F300.0
G1 X118.409 Y11.904 F300.0
G1 X118.473 Y12.117 F300.0
G1 X118.557 Y12.608 F300.0
G1 X118.585 Y13.187 F300.0
G1 X118.585 Y17.886 F300.0
G1 X119.637 Y17.886 F300.0
G1 X119.637 Y13.057 F300.0
G1 X119.626 Y12.690 F300.0
G1 X119.591 Y12.347 F300.0
G1 X119.532 Y12.026 F300.0
G1 X119.450 Y11.729 F300.0
G1 X119.345 Y11.455 F300.0
G1 X119.216 Y11.204 F300.0
G1 X119.064 Y10.977 F300.0
G1 X118.889 Y10.772 F300.0
G1 X118.690 Y10.591 F300.0
G1 X118.470 Y10.434 F300.0
G1 X118.227 Y10.302 F300.0
G1 X117.962 Y10.193 F300.0
G1 X117.674 Y10.109 F300.0
G1 X117.365 Y10.048 F300.0
G1 X117.033 Y10.012 F300.0
G1 X116.679 Y10.000 F300.0
G1 X116.323 Y10.012 F300.0
G1 X115.990 Y10.048 F300.0
G1 X115.680 Y10.109 F300.0
G1 X115.392 Y10.193 F300.0
G1 X115.126 Y10.302 F300.0
G1 X114.883 Y10.434 F300.0
G1 X114.662 Y10.591 F300.0
G1 X114.464 Y10.772 F300.0
G1 X114.288 Y10.977 F300.0
G1 X114.136 Y11.204 F300.0
G1 X114.007 Y11.455 F300.0
G1 X113.902 Y11.729 F300.0
G1 X113.820 Y12.026 F300.0
G1 X113.762 Y12.347 F300.0
G1 X113.727 Y12.690 F300.0
G1 X113.715 Y13.057 F300.0
G1 X113.715 Y17.886 F300.0
G1 Z-1.000 F100.0
G1 X114.767 Y17.886 F300.0
G1 X114.767 Y13.187 F300.0
G1 X114.795 Y12.608 F300.0
G1 X114.880 Y12.117 F300.0
G1 X114.943 Y11.904 F300.0
G1 X115.020 Y11.713 F300.0
G1 X115.112 Y11.544 F300.0
G1 X115.218 Y11.396 F300.0
G1 X115.339 Y11.268 F300.0
G1 X115.478 Y11.157 F300.0
G1 X115.634 Y11.063 F300.0
G1 X115.808 Y10.986 F300.0
G1 X116.000 Y10.927 F300.0
G1 X116.209 Y10.884 F300.0
G1 X116.435 Y10.858 F300.0
G1 X116.679 Y10.850 F300.0
G1 X116.921 Y10.858 F300.0
G1 X117.147 Y10.884 F300.0
G1 X117.355 Y10.927 F300.0
G1 X117.545 Y10.986 F300.0
G1 X117.719 Y11.063 F300.0
G1 X117.875 Y11.157 F300.0
G1 X118.013 Y11.268 F300.0
G1 X118.135 Y11.396 F300.0
G1 X118.240 Y11.544 F300.0
G1 X118.332 Y11.713 F300.0
G1 X118.409 Y11.904 F300.0
G1 X118.473 Y12.117 F300.0
G1 X118.557 Y12.608 F300.0
G1 X118.585 Y13.187 F300.0
G1 X118.585 Y17.886 F300.0
G1 X119.637 Y17.886 F300.0
G1 X119.637 Y13.057 F300.0
G1 X119.626 Y12.690 F300.0
G1 X119.591 Y12.347 F300.0
G1 X119.532 Y12.026 F300.0
G1 X119.450 Y11.729 F300.0
G1 X119.345 Y11.455 F300.0
G1 X119.216 Y11.204 F300.0
G1 X119.064 Y10.977 F300.0
G1 X118.889 Y10.772 F300.0
G1 X118.690 Y10.591 F300.0
G1 X118.470 Y10.434 F300.0
G1 X118.227 Y10.302 F300.0
G1 X117.962 Y10.193 F300.0
G1 X117.674 Y10.109 F300.0
G1 X117.365 Y10.048 F300.0
G1 X117.033 Y10.012 F300.0
G1 X116.679 Y10.000 F300.0
G1 X116.323 Y10.012 F300.0
G1 X115.990 Y10.048 F300.0
G1 X115.680 Y10.109 F300.0
G1 X115.392 Y10.193 F300.0
G1 X115.126 Y10.302 F300.0
G1 X114.883 Y10.434 F300.0
G1 X114.662 Y10.591 F300.0
G1 X114.464 Y10.772 F300.0
G1 X114.288 Y10.977 F300.0
G1 X114.136 Y11.204 F300.0
G1 X114.007 Y11.455 F300.0
G1 X113.902 Y11.729 F300.0
G1 X113.820 Y12.026 F300.0
G1 X113.762 Y12.347 F300.0
G1 X113.727 Y12.690 F300.0
G1 X113.715 Y13.057 F300.0
G1 X113.715 Y17.886 F300.0
G1 Z-1.500 F100.0
G1 X114.767 Y17.886 F300.0
G1 X114.767 Y13.187 F300.0
G1 X114.795 Y12.608 F300.0
G1 X114.880 Y12.117 F300.0
G1 X114.943 Y11.904 F300.0
G1 X115.020 Y11.713 F300.0
G1 X115.112 Y11.544 F300.0
G1 X115.218 Y11.396 F300.0
G1 X115.339 Y11.268 F300.0
G1 X115.478 Y11.157 F300.0
G1 X115.634 Y11.063 F300.0
G1 X115.808 Y10.986 F300.0
G1 X116.000 Y10.927 F300.0
G1 X116.209 Y10.884 F300.0
G1 X116.435 Y10.858 F300.0
G1 X116.679 Y10.850 F300.0
G1 X116.921 Y10.858 F300.0
G1 X117.147 Y10.884 F300.0
G1 X117.355 Y10.927 F300.0
G1 X117.545 Y10.986 F300.0
G1 X117.719 Y11.063 F300.0
G1 X117.875 Y11.157 F300.0
G1 X118.013 Y11.268 F300.0
G1 X118.135 Y11.396 F300.0
G1 X118.240 Y11.544 F300.0
G1 X118.332 Y11.713 F300.0
G1 X118.409 Y11.904 F300.0
G1 X118.473 Y12.117 F300.0
G1 X118.557 Y12.608 F300.0
G1 X118.585 Y13.187 F300.0
G1 X118.585 Y17.886 F300.0
G1 X119.637 Y17.886 F300.0
G1 X119.637 Y13.057 F300.0
G1 X119.626 Y12.690 F300.0
G1 X119.591 Y12.347 F300.0
G1 X119.532 Y12.026 F300.0
G1 X119.450 Y11.729 F300.0
G1 X119.345 Y11.455 F300.0
G1 X119.216 Y11.204 F300.0
G1 X119.064 Y10.977 F300.0
G1 X118.889 Y10.772 F300.0
G1 X118.690 Y10.591 F300.0
G1 X118.470 Y10.434 F300.0
G1 X118.227 Y10.302 F300.0
G1 X117.962 Y10.193 F300.0
G1 X117.674 Y10.109 F300.0
G1 X117.365 Y10.048 F300.0
G1 X117.033 Y10.012 F300.0
G1 X116.679 Y10.000 F300.0
G1 X116.323 Y10.012 F300.0
G1 X115.990 Y10.048 F300.0
G1 X115.680 Y10.109 F300.0
G1 X115.392 Y10.193 F300.0
G1 X115.126 Y10.302 F300.0
G1 X114.883 Y10.434 F300.0
G1 X114.662 Y10.591 F300.0
G1 X114.464 Y10.772 F300.0
G1 X114.288 Y10.977 F300.0
G1 X114.136 Y11.204 F300.0
G1 X114.007 Y11.455 F300.0
G1 X113.902 Y11.729 F300.0
G1 X113.820 Y12.026 F300.0
G1 X113.762 Y12.347 F300.0
G1 X113.727 Y12.690 F300.0
G1 X113.715 Y13.057 F300.0
G1 X113.715 Y17.886 F300.0
G1 Z-2.000 F100.0
G1 X114.767 Y17.886 F300.0
G1 X114.767 Y13.187 F300.0
G1 X114.795 Y12.608 F300.0
G1 X114.880 Y12.117 F300.0
G1 X114.943 Y11.904 F300.0
G1 X115.020 Y11.713 F300.0
G1 X115.112 Y11.544 F300.0
G1 X115.218 Y11.396 F300.0
G1 X115.339 Y11.268 F300.0
G1 X115.478 Y11.157 F300.0
G1 X115.634 Y11.063 F300.0
G1 X115.808 Y10.986 F300.0
G1 X116.000 Y10.927 F300.0
G1 X116.209 Y10.884 F300.0
G1 X116.435 Y10.858 F300.0
G1 X116.679 Y10.850 F300.0
G1 X116.921 Y10.858 F300.0
G1 X117.147 Y10.884 F300.0
G1 X117.355 Y10.927 F300.0
G1 X117.545 Y10.986 F300.0
G1 X117.719 Y11.063 F300.0
G1 X117.875 Y11.157 F300.0
G1 X118.013 Y11.268 F300.0
G1 X118.135 Y11.396 F300.0
G1 X118.240 Y11.544 F300.0
G1 X118.332 Y11.713 F300.0
G1 X118.409 Y11.904 F300.0
G1 X118.473 Y12.117 F300.0
G1 X118.557 Y12.608 F300.0
G1 X118.585 Y13.187 F300.0
G1 X118.585 Y17.886 F300.0
G1 X119.637 Y17.886 F300.0
G1 X119.637 Y13.057 F300.0
G1 X119.626 Y12.690 F300.0
G1 X119.591 Y12.347 F300.0
G1 X119.532 Y12.026 F300.0
G1 X119.450 Y11.729 F300.0
G1 X119.345 Y11.455 F300.0
G1 X119.216 Y11.204 F300.0
G1 X119.064 Y10.977 F300.0
G1 X118.889 Y10.772 F300.0
G1 X118.690 Y10.591 F300.0
G1 X118.470 Y10.434 F300.0
G1 X118.227 Y10.302 F300.0
G1 X117.962 Y10.193 F300.0
G1 X117.674 Y10.109 F300.0
G1 X117.365 Y10.048 F300.0
G1 X117.033 Y10.012 F300.0
G1 X116.679 Y10.000 F300.0
G1 X116.323 Y10.012 F300.0
G1 X115.990 Y10.048 F300.0
G1 X115.680 Y10.109 F300.0
G1 X115.392 Y10.193 F300.0
G1 X115.126 Y10.302 F300.0
G1 X114.883 Y10.434 F300.0
G1 X114.662 Y10.591 F300.0
G1 X114.464 Y10.772 F300.0
G1 X114.288 Y10.977 F300.0
G1 X114.136 Y11.204 F300.0
G1 X114.007 Y11.455 F300.0
G1 X113.902 Y11.729 F300.0
G1 X113.820 Y12.026 F300.0
G1 X113.762 Y12.347 F300.0
G1 X113.727 Y12.690 F300.0
G1 X113.715 Y13.057 F300.0
G1 X113.715 Y17.886 F300.0
G0 Z5.000
; --- shape 22: poly / Engrave (on the line) / depth 2 mm ---
G0 X123.601 Y17.886
G0 Z1.000
G1 Z-0.500 F100.0
G1 X125.010 Y17.886 F300.0
G1 X128.440 Y11.415 F300.0
G1 X128.440 Y17.886 F300.0
G1 X129.456 Y17.886 F300.0
G1 X129.456 Y10.150 F300.0
G1 X128.047 Y10.150 F300.0
G1 X124.617 Y16.622 F300.0
G1 X124.617 Y10.150 F300.0
G1 X123.601 Y10.150 F300.0
G1 X123.601 Y17.886 F300.0
G1 Z-1.000 F100.0
G1 X125.010 Y17.886 F300.0
G1 X128.440 Y11.415 F300.0
G1 X128.440 Y17.886 F300.0
G1 X129.456 Y17.886 F300.0
G1 X129.456 Y10.150 F300.0
G1 X128.047 Y10.150 F300.0
G1 X124.617 Y16.622 F300.0
G1 X124.617 Y10.150 F300.0
G1 X123.601 Y10.150 F300.0
G1 X123.601 Y17.886 F300.0
G1 Z-1.500 F100.0
G1 X125.010 Y17.886 F300.0
G1 X128.440 Y11.415 F300.0
G1 X128.440 Y17.886 F300.0
G1 X129.456 Y17.886 F300.0
G1 X129.456 Y10.150 F300.0
G1 X128.047 Y10.150 F300.0
G1 X124.617 Y16.622 F300.0
G1 X124.617 Y10.150 F300.0
G1 X123.601 Y10.150 F300.0
G1 X123.601 Y17.886 F300.0
G1 Z-2.000 F100.0
G1 X125.010 Y17.886 F300.0
G1 X128.440 Y11.415 F300.0
G1 X128.440 Y17.886 F300.0
G1 X129.456 Y17.886 F300.0
G1 X129.456 Y10.150 F300.0
G1 X128.047 Y10.150 F300.0
G1 X124.617 Y16.622 F300.0
G1 X124.617 Y10.150 F300.0
G1 X123.601 Y10.150 F300.0
G1 X123.601 Y17.886 F300.0
G0 Z5.000
M5
G0 Z5.000
G0 X0 Y0
M2
