; cncctl CAD/CAM — grblHAL G-code
; tool dia 10 mm, depth 2 mm, stepdown 1 mm
G21
G90
G17
G94
G0 Z5.000
; --- shape 1: circle / Pocket (clear inside) / depth 8 mm ---
G0 X28.850 Y20.000
G0 Z1.000
G1 Z-1.000 F100.0
G1 X28.848 Y20.200 F400.0
G1 X28.841 Y20.400 F400.0
G1 X28.830 Y20.600 F400.0
G1 X28.814 Y20.799 F400.0
G1 X28.794 Y20.998 F400.0
G1 X28.769 Y21.196 F400.0
G1 X28.739 Y21.394 F400.0
G1 X28.706 Y21.591 F400.0
G1 X28.668 Y21.788 F400.0
G1 X28.625 Y21.983 F400.0
G1 X28.578 Y22.178 F400.0
G1 X28.526 Y22.371 F400.0
G1 X28.471 Y22.563 F400.0
G1 X28.411 Y22.754 F400.0
G1 X28.346 Y22.943 F400.0
G1 X28.278 Y23.131 F400.0
G1 X28.205 Y23.317 F400.0
G1 X28.128 Y23.502 F400.0
G1 X28.046 Y23.685 F400.0
G1 X27.961 Y23.866 F400.0
G1 X27.872 Y24.045 F400.0
G1 X27.778 Y24.221 F400.0
G1 X27.681 Y24.396 F400.0
G1 X27.580 Y24.569 F400.0
G1 X27.474 Y24.739 F400.0
G1 X27.365 Y24.906 F400.0
G1 X27.253 Y25.072 F400.0
G1 X27.136 Y25.234 F400.0
G1 X27.016 Y25.394 F400.0
G1 X26.892 Y25.551 F400.0
G1 X26.765 Y25.706 F400.0
G1 X26.635 Y25.857 F400.0
G1 X26.500 Y26.006 F400.0
G1 X26.363 Y26.151 F400.0
G1 X26.222 Y26.293 F400.0
G1 X26.079 Y26.432 F400.0
G1 X25.932 Y26.568 F400.0
G1 X25.782 Y26.700 F400.0
G1 X25.629 Y26.829 F400.0
G1 X25.473 Y26.955 F400.0
G1 X25.315 Y27.077 F400.0
G1 X25.153 Y27.195 F400.0
G1 X24.989 Y27.310 F400.0
G1 X24.823 Y27.420 F400.0
G1 X24.654 Y27.528 F400.0
G1 X24.483 Y27.631 F400.0
G1 X24.309 Y27.730 F400.0
G1 X24.133 Y27.826 F400.0
G1 X23.955 Y27.917 F400.0
G1 X23.775 Y28.004 F400.0
G1 X23.594 Y28.088 F400.0
G1 X23.410 Y28.167 F400.0
G1 X23.224 Y28.242 F400.0
G1 X23.037 Y28.312 F400.0
G1 X22.849 Y28.379 F400.0
G1 X22.659 Y28.441 F400.0
G1 X22.467 Y28.499 F400.0
G1 X22.274 Y28.553 F400.0
G1 X22.081 Y28.602 F400.0
G1 X21.886 Y28.647 F400.0
G1 X21.690 Y28.687 F400.0
G1 X21.493 Y28.723 F400.0
G1 X21.295 Y28.755 F400.0
G1 X21.097 Y28.782 F400.0
G1 X20.899 Y28.804 F400.0
G1 X20.699 Y28.822 F400.0
G1 X20.500 Y28.836 F400.0
G1 X20.300 Y28.845 F400.0
G1 X20.100 Y28.849 F400.0
G1 X19.900 Y28.849 F400.0
G1 X19.700 Y28.845 F400.0
G1 X19.500 Y28.836 F400.0
G1 X19.301 Y28.822 F400.0
G1 X19.101 Y28.804 F400.0
G1 X18.903 Y28.782 F400.0
G1 X18.705 Y28.755 F400.0
G1 X18.507 Y28.723 F400.0
G1 X18.310 Y28.687 F400.0
G1 X18.114 Y28.647 F400.0
G1 X17.919 Y28.602 F400.0
G1 X17.726 Y28.553 F400.0
G1 X17.533 Y28.499 F400.0
G1 X17.341 Y28.441 F400.0
G1 X17.151 Y28.379 F400.0
G1 X16.963 Y28.312 F400.0
G1 X16.776 Y28.242 F400.0
G1 X16.590 Y28.167 F400.0
G1 X16.406 Y28.088 F400.0
G1 X16.225 Y28.004 F400.0
G1 X16.045 Y27.917 F400.0
G1 X15.867 Y27.826 F400.0
G1 X15.691 Y27.730 F400.0
G1 X15.517 Y27.631 F400.0
G1 X15.346 Y27.528 F400.0
G1 X15.177 Y27.420 F400.0
G1 X15.011 Y27.310 F400.0
G1 X14.847 Y27.195 F400.0
G1 X14.685 Y27.077 F400.0
G1 X14.527 Y26.955 F400.0
G1 X14.371 Y26.829 F400.0
G1 X14.218 Y26.700 F400.0
G1 X14.068 Y26.568 F400.0
G1 X13.921 Y26.432 F400.0
G1 X13.778 Y26.293 F400.0
G1 X13.637 Y26.151 F400.0
G1 X13.500 Y26.006 F400.0
G1 X13.365 Y25.857 F400.0
G1 X13.235 Y25.706 F400.0
G1 X13.108 Y25.551 F400.0
G1 X12.984 Y25.394 F400.0
G1 X12.864 Y25.234 F400.0
G1 X12.747 Y25.072 F400.0
G1 X12.635 Y24.906 F400.0
G1 X12.526 Y24.739 F400.0
G1 X12.420 Y24.569 F400.0
G1 X12.319 Y24.396 F400.0
G1 X12.222 Y24.221 F400.0
G1 X12.128 Y24.045 F400.0
G1 X12.039 Y23.866 F400.0
G1 X11.954 Y23.685 F400.0
G1 X11.872 Y23.502 F400.0
G1 X11.795 Y23.317 F400.0
G1 X11.722 Y23.131 F400.0
G1 X11.654 Y22.943 F400.0
G1 X11.589 Y22.754 F400.0
G1 X11.529 Y22.563 F400.0
G1 X11.474 Y22.371 F400.0
G1 X11.422 Y22.178 F400.0
G1 X11.375 Y21.983 F400.0
G1 X11.332 Y21.788 F400.0
G1 X11.294 Y21.591 F400.0
G1 X11.261 Y21.394 F400.0
G1 X11.231 Y21.196 F400.0
G1 X11.206 Y20.998 F400.0
G1 X11.186 Y20.799 F400.0
G1 X11.170 Y20.600 F400.0
G1 X11.159 Y20.400 F400.0
G1 X11.152 Y20.200 F400.0
G1 X11.150 Y20.000 F400.0
G1 X11.152 Y19.800 F400.0
G1 X11.159 Y19.600 F400.0
G1 X11.170 Y19.400 F400.0
G1 X11.186 Y19.201 F400.0
G1 X11.206 Y19.002 F400.0
G1 X11.231 Y18.804 F400.0
G1 X11.261 Y18.606 F400.0
G1 X11.294 Y18.409 F400.0
G1 X11.332 Y18.212 F400.0
G1 X11.375 Y18.017 F400.0
G1 X11.422 Y17.822 F400.0
G1 X11.474 Y17.629 F400.0
G1 X11.529 Y17.437 F400.0
G1 X11.589 Y17.246 F400.0
G1 X11.654 Y17.057 F400.0
G1 X11.722 Y16.869 F400.0
G1 X11.795 Y16.683 F400.0
G1 X11.872 Y16.498 F400.0
G1 X11.954 Y16.315 F400.0
G1 X12.039 Y16.134 F400.0
G1 X12.128 Y15.955 F400.0
G1 X12.222 Y15.779 F400.0
G1 X12.319 Y15.604 F400.0
G1 X12.420 Y15.431 F400.0
G1 X12.526 Y15.261 F400.0
G1 X12.635 Y15.094 F400.0
G1 X12.747 Y14.928 F400.0
G1 X12.864 Y14.766 F400.0
G1 X12.984 Y14.606 F400.0
G1 X13.108 Y14.449 F400.0
G1 X13.235 Y14.294 F400.0
G1 X13.365 Y14.143 F400.0
G1 X13.500 Y13.994 F400.0
G1 X13.637 Y13.849 F400.0
G1 X13.778 Y13.707 F400.0
G1 X13.921 Y13.568 F400.0
G1 X14.068 Y13.432 F400.0
G1 X14.218 Y13.300 F400.0
G1 X14.371 Y13.171 F400.0
G1 X14.527 Y13.045 F400.0
G1 X14.685 Y12.923 F400.0
G1 X14.847 Y12.805 F400.0
G1 X15.011 Y12.690 F400.0
G1 X15.177 Y12.580 F400.0
G1 X15.346 Y12.472 F400.0
G1 X15.517 Y12.369 F400.0
G1 X15.691 Y12.270 F400.0
G1 X15.867 Y12.174 F400.0
G1 X16.045 Y12.083 F400.0
G1 X16.225 Y11.996 F400.0
G1 X16.406 Y11.912 F400.0
G1 X16.590 Y11.833 F400.0
G1 X16.776 Y11.758 F400.0
G1 X16.963 Y11.688 F400.0
G1 X17.151 Y11.621 F400.0
G1 X17.341 Y11.559 F400.0
G1 X17.533 Y11.501 F400.0
G1 X17.726 Y11.447 F400.0
G1 X17.919 Y11.398 F400.0
G1 X18.114 Y11.353 F400.0
G1 X18.310 Y11.313 F400.0
G1 X18.507 Y11.277 F400.0
G1 X18.705 Y11.245 F400.0
G1 X18.903 Y11.218 F400.0
G1 X19.101 Y11.196 F400.0
G1 X19.301 Y11.178 F400.0
G1 X19.500 Y11.164 F400.0
G1 X19.700 Y11.155 F400.0
G1 X19.900 Y11.151 F400.0
G1 X20.100 Y11.151 F400.0
G1 X20.300 Y11.155 F400.0
G1 X20.500 Y11.164 F400.0
G1 X20.699 Y11.178 F400.0
G1 X20.899 Y11.196 F400.0
G1 X21.097 Y11.218 F400.0
G1 X21.295 Y11.245 F400.0
G1 X21.493 Y11.277 F400.0
G1 X21.690 Y11.313 F400.0
G1 X21.886 Y11.353 F400.0
G1 X22.081 Y11.398 F400.0
G1 X22.274 Y11.447 F400.0
G1 X22.467 Y11.501 F400.0
G1 X22.659 Y11.559 F400.0
G1 X22.849 Y11.621 F400.0
G1 X23.037 Y11.688 F400.0
G1 X23.224 Y11.758 F400.0
G1 X23.410 Y11.833 F400.0
G1 X23.594 Y11.912 F400.0
G1 X23.775 Y11.996 F400.0
G1 X23.955 Y12.083 F400.0
G1 X24.133 Y12.174 F400.0
G1 X24.309 Y12.270 F400.0
G1 X24.483 Y12.369 F400.0
G1 X24.654 Y12.472 F400.0
G1 X24.823 Y12.580 F400.0
G1 X24.989 Y12.690 F400.0
G1 X25.153 Y12.805 F400.0
G1 X25.315 Y12.923 F400.0
G1 X25.473 Y13.045 F400.0
G1 X25.629 Y13.171 F400.0
G1 X25.782 Y13.300 F400.0
G1 X25.932 Y13.432 F400.0
G1 X26.079 Y13.568 F400.0
G1 X26.222 Y13.707 F400.0
G1 X26.363 Y13.849 F400.0
G1 X26.500 Y13.994 F400.0
G1 X26.635 Y14.143 F400.0
G1 X26.765 Y14.294 F400.0
G1 X26.892 Y14.449 F400.0
G1 X27.016 Y14.606 F400.0
G1 X27.136 Y14.766 F400.0
G1 X27.253 Y14.928 F400.0
G1 X27.365 Y15.094 F400.0
G1 X27.474 Y15.261 F400.0
G1 X27.580 Y15.431 F400.0
G1 X27.681 Y15.604 F400.0
G1 X27.778 Y15.779 F400.0
G1 X27.872 Y15.955 F400.0
G1 X27.961 Y16.134 F400.0
G1 X28.046 Y16.315 F400.0
G1 X28.128 Y16.498 F400.0
G1 X28.205 Y16.683 F400.0
G1 X28.278 Y16.869 F400.0
G1 X28.346 Y17.057 F400.0
G1 X28.411 Y17.246 F400.0
G1 X28.471 Y17.437 F400.0
G1 X28.526 Y17.629 F400.0
G1 X28.578 Y17.822 F400.0
G1 X28.625 Y18.017 F400.0
G1 X28.668 Y18.212 F400.0
G1 X28.706 Y18.409 F400.0
G1 X28.739 Y18.606 F400.0
G1 X28.769 Y18.804 F400.0
G1 X28.794 Y19.002 F400.0
G1 X28.814 Y19.201 F400.0
G1 X28.830 Y19.400 F400.0
G1 X28.841 Y19.600 F400.0
G1 X28.848 Y19.800 F400.0
G1 X28.850 Y20.000 F400.0
G0 Z1.000
G0 X28.850 Y20.000
G1 Z-2.000 F100.0
G1 X28.848 Y20.200 F400.0
G1 X28.841 Y20.400 F400.0
G1 X28.830 Y20.600 F400.0
G1 X28.814 Y20.799 F400.0
G1 X28.794 Y20.998 F400.0
G1 X28.769 Y21.196 F400.0
G1 X28.739 Y21.394 F400.0
G1 X28.706 Y21.591 F400.0
G1 X28.668 Y21.788 F400.0
G1 X28.625 Y21.983 F400.0
G1 X28.578 Y22.178 F400.0
G1 X28.526 Y22.371 F400.0
G1 X28.471 Y22.563 F400.0
G1 X28.411 Y22.754 F400.0
G1 X28.346 Y22.943 F400.0
G1 X28.278 Y23.131 F400.0
G1 X28.205 Y23.317 F400.0
G1 X28.128 Y23.502 F400.0
G1 X28.046 Y23.685 F400.0
G1 X27.961 Y23.866 F400.0
G1 X27.872 Y24.045 F400.0
G1 X27.778 Y24.221 F400.0
G1 X27.681 Y24.396 F400.0
G1 X27.580 Y24.569 F400.0
G1 X27.474 Y24.739 F400.0
G1 X27.365 Y24.906 F400.0
G1 X27.253 Y25.072 F400.0
G1 X27.136 Y25.234 F400.0
G1 X27.016 Y25.394 F400.0
G1 X26.892 Y25.551 F400.0
G1 X26.765 Y25.706 F400.0
G1 X26.635 Y25.857 F400.0
G1 X26.500 Y26.006 F400.0
G1 X26.363 Y26.151 F400.0
G1 X26.222 Y26.293 F400.0
G1 X26.079 Y26.432 F400.0
G1 X25.932 Y26.568 F400.0
G1 X25.782 Y26.700 F400.0
G1 X25.629 Y26.829 F400.0
G1 X25.473 Y26.955 F400.0
G1 X25.315 Y27.077 F400.0
G1 X25.153 Y27.195 F400.0
G1 X24.989 Y27.310 F400.0
G1 X24.823 Y27.420 F400.0
G1 X24.654 Y27.528 F400.0
G1 X24.483 Y27.631 F400.0
G1 X24.309 Y27.730 F400.0
G1 X24.133 Y27.826 F400.0
G1 X23.955 Y27.917 F400.0
G1 X23.775 Y28.004 F400.0
G1 X23.594 Y28.088 F400.0
G1 X23.410 Y28.167 F400.0
G1 X23.224 Y28.242 F400.0
G1 X23.037 Y28.312 F400.0
G1 X22.849 Y28.379 F400.0
G1 X22.659 Y28.441 F400.0
G1 X22.467 Y28.499 F400.0
G1 X22.274 Y28.553 F400.0
G1 X22.081 Y28.602 F400.0
G1 X21.886 Y28.647 F400.0
G1 X21.690 Y28.687 F400.0
G1 X21.493 Y28.723 F400.0
G1 X21.295 Y28.755 F400.0
G1 X21.097 Y28.782 F400.0
G1 X20.899 Y28.804 F400.0
G1 X20.699 Y28.822 F400.0
G1 X20.500 Y28.836 F400.0
G1 X20.300 Y28.845 F400.0
G1 X20.100 Y28.849 F400.0
G1 X19.900 Y28.849 F400.0
G1 X19.700 Y28.845 F400.0
G1 X19.500 Y28.836 F400.0
G1 X19.301 Y28.822 F400.0
G1 X19.101 Y28.804 F400.0
G1 X18.903 Y28.782 F400.0
G1 X18.705 Y28.755 F400.0
G1 X18.507 Y28.723 F400.0
G1 X18.310 Y28.687 F400.0
G1 X18.114 Y28.647 F400.0
G1 X17.919 Y28.602 F400.0
G1 X17.726 Y28.553 F400.0
G1 X17.533 Y28.499 F400.0
G1 X17.341 Y28.441 F400.0
G1 X17.151 Y28.379 F400.0
G1 X16.963 Y28.312 F400.0
G1 X16.776 Y28.242 F400.0
G1 X16.590 Y28.167 F400.0
G1 X16.406 Y28.088 F400.0
G1 X16.225 Y28.004 F400.0
G1 X16.045 Y27.917 F400.0
G1 X15.867 Y27.826 F400.0
G1 X15.691 Y27.730 F400.0
G1 X15.517 Y27.631 F400.0
G1 X15.346 Y27.528 F400.0
G1 X15.177 Y27.420 F400.0
G1 X15.011 Y27.310 F400.0
G1 X14.847 Y27.195 F400.0
G1 X14.685 Y27.077 F400.0
G1 X14.527 Y26.955 F400.0
G1 X14.371 Y26.829 F400.0
G1 X14.218 Y26.700 F400.0
G1 X14.068 Y26.568 F400.0
G1 X13.921 Y26.432 F400.0
G1 X13.778 Y26.293 F400.0
G1 X13.637 Y26.151 F400.0
G1 X13.500 Y26.006 F400.0
G1 X13.365 Y25.857 F400.0
G1 X13.235 Y25.706 F400.0
G1 X13.108 Y25.551 F400.0
G1 X12.984 Y25.394 F400.0
G1 X12.864 Y25.234 F400.0
G1 X12.747 Y25.072 F400.0
G1 X12.635 Y24.906 F400.0
G1 X12.526 Y24.739 F400.0
G1 X12.420 Y24.569 F400.0
G1 X12.319 Y24.396 F400.0
G1 X12.222 Y24.221 F400.0
G1 X12.128 Y24.045 F400.0
G1 X12.039 Y23.866 F400.0
G1 X11.954 Y23.685 F400.0
G1 X11.872 Y23.502 F400.0
G1 X11.795 Y23.317 F400.0
G1 X11.722 Y23.131 F400.0
G1 X11.654 Y22.943 F400.0
G1 X11.589 Y22.754 F400.0
G1 X11.529 Y22.563 F400.0
G1 X11.474 Y22.371 F400.0
G1 X11.422 Y22.178 F400.0
G1 X11.375 Y21.983 F400.0
G1 X11.332 Y21.788 F400.0
G1 X11.294 Y21.591 F400.0
G1 X11.261 Y21.394 F400.0
G1 X11.231 Y21.196 F400.0
G1 X11.206 Y20.998 F400.0
G1 X11.186 Y20.799 F400.0
G1 X11.170 Y20.600 F400.0
G1 X11.159 Y20.400 F400.0
G1 X11.152 Y20.200 F400.0
G1 X11.150 Y20.000 F400.0
G1 X11.152 Y19.800 F400.0
G1 X11.159 Y19.600 F400.0
G1 X11.170 Y19.400 F400.0
G1 X11.186 Y19.201 F400.0
G1 X11.206 Y19.002 F400.0
G1 X11.231 Y18.804 F400.0
G1 X11.261 Y18.606 F400.0
G1 X11.294 Y18.409 F400.0
G1 X11.332 Y18.212 F400.0
G1 X11.375 Y18.017 F400.0
G1 X11.422 Y17.822 F400.0
G1 X11.474 Y17.629 F400.0
G1 X11.529 Y17.437 F400.0
G1 X11.589 Y17.246 F400.0
G1 X11.654 Y17.057 F400.0
G1 X11.722 Y16.869 F400.0
G1 X11.795 Y16.683 F400.0
G1 X11.872 Y16.498 F400.0
G1 X11.954 Y16.315 F400.0
G1 X12.039 Y16.134 F400.0
G1 X12.128 Y15.955 F400.0
G1 X12.222 Y15.779 F400.0
G1 X12.319 Y15.604 F400.0
G1 X12.420 Y15.431 F400.0
G1 X12.526 Y15.261 F400.0
G1 X12.635 Y15.094 F400.0
G1 X12.747 Y14.928 F400.0
G1 X12.864 Y14.766 F400.0
G1 X12.984 Y14.606 F400.0
G1 X13.108 Y14.449 F400.0
G1 X13.235 Y14.294 F400.0
G1 X13.365 Y14.143 F400.0
G1 X13.500 Y13.994 F400.0
G1 X13.637 Y13.849 F400.0
G1 X13.778 Y13.707 F400.0
G1 X13.921 Y13.568 F400.0
G1 X14.068 Y13.432 F400.0
G1 X14.218 Y13.300 F400.0
G1 X14.371 Y13.171 F400.0
G1 X14.527 Y13.045 F400.0
G1 X14.685 Y12.923 F400.0
G1 X14.847 Y12.805 F400.0
G1 X15.011 Y12.690 F400.0
G1 X15.177 Y12.580 F400.0
G1 X15.346 Y12.472 F400.0
G1 X15.517 Y12.369 F400.0
G1 X15.691 Y12.270 F400.0
G1 X15.867 Y12.174 F400.0
G1 X16.045 Y12.083 F400.0
G1 X16.225 Y11.996 F400.0
G1 X16.406 Y11.912 F400.0
G1 X16.590 Y11.833 F400.0
G1 X16.776 Y11.758 F400.0
G1 X16.963 Y11.688 F400.0
G1 X17.151 Y11.621 F400.0
G1 X17.341 Y11.559 F400.0
G1 X17.533 Y11.501 F400.0
G1 X17.726 Y11.447 F400.0
G1 X17.919 Y11.398 F400.0
G1 X18.114 Y11.353 F400.0
G1 X18.310 Y11.313 F400.0
G1 X18.507 Y11.277 F400.0
G1 X18.705 Y11.245 F400.0
G1 X18.903 Y11.218 F400.0
G1 X19.101 Y11.196 F400.0
G1 X19.301 Y11.178 F400.0
G1 X19.500 Y11.164 F400.0
G1 X19.700 Y11.155 F400.0
G1 X19.900 Y11.151 F400.0
G1 X20.100 Y11.151 F400.0
G1 X20.300 Y11.155 F400.0
G1 X20.500 Y11.164 F400.0
G1 X20.699 Y11.178 F400.0
G1 X20.899 Y11.196 F400.0
G1 X21.097 Y11.218 F400.0
G1 X21.295 Y11.245 F400.0
G1 X21.493 Y11.277 F400.0
G1 X21.690 Y11.313 F400.0
G1 X21.886 Y11.353 F400.0
G1 X22.081 Y11.398 F400.0
G1 X22.274 Y11.447 F400.0
G1 X22.467 Y11.501 F400.0
G1 X22.659 Y11.559 F400.0
G1 X22.849 Y11.621 F400.0
G1 X23.037 Y11.688 F400.0
G1 X23.224 Y11.758 F400.0
G1 X23.410 Y11.833 F400.0
G1 X23.594 Y11.912 F400.0
G1 X23.775 Y11.996 F400.0
G1 X23.955 Y12.083 F400.0
G1 X24.133 Y12.174 F400.0
G1 X24.309 Y12.270 F400.0
G1 X24.483 Y12.369 F400.0
G1 X24.654 Y12.472 F400.0
G1 X24.823 Y12.580 F400.0
G1 X24.989 Y12.690 F400.0
G1 X25.153 Y12.805 F400.0
G1 X25.315 Y12.923 F400.0
G1 X25.473 Y13.045 F400.0
G1 X25.629 Y13.171 F400.0
G1 X25.782 Y13.300 F400.0
G1 X25.932 Y13.432 F400.0
G1 X26.079 Y13.568 F400.0
G1 X26.222 Y13.707 F400.0
G1 X26.363 Y13.849 F400.0
G1 X26.500 Y13.994 F400.0
G1 X26.635 Y14.143 F400.0
G1 X26.765 Y14.294 F400.0
G1 X26.892 Y14.449 F400.0
G1 X27.016 Y14.606 F400.0
G1 X27.136 Y14.766 F400.0
G1 X27.253 Y14.928 F400.0
G1 X27.365 Y15.094 F400.0
G1 X27.474 Y15.261 F400.0
G1 X27.580 Y15.431 F400.0
G1 X27.681 Y15.604 F400.0
G1 X27.778 Y15.779 F400.0
G1 X27.872 Y15.955 F400.0
G1 X27.961 Y16.134 F400.0
G1 X28.046 Y16.315 F400.0
G1 X28.128 Y16.498 F400.0
G1 X28.205 Y16.683 F400.0
G1 X28.278 Y16.869 F400.0
G1 X28.346 Y17.057 F400.0
G1 X28.411 Y17.246 F400.0
G1 X28.471 Y17.437 F400.0
G1 X28.526 Y17.629 F400.0
G1 X28.578 Y17.822 F400.0
G1 X28.625 Y18.017 F400.0
G1 X28.668 Y18.212 F400.0
G1 X28.706 Y18.409 F400.0
G1 X28.739 Y18.606 F400.0
G1 X28.769 Y18.804 F400.0
G1 X28.794 Y19.002 F400.0
G1 X28.814 Y19.201 F400.0
G1 X28.830 Y19.400 F400.0
G1 X28.841 Y19.600 F400.0
G1 X28.848 Y19.800 F400.0
G1 X28.850 Y20.000 F400.0
G0 Z1.000
G0 X28.850 Y20.000
G1 Z-3.000 F100.0
G1 X28.848 Y20.200 F400.0
G1 X28.841 Y20.400 F400.0
G1 X28.830 Y20.600 F400.0
G1 X28.814 Y20.799 F400.0
G1 X28.794 Y20.998 F400.0
G1 X28.769 Y21.196 F400.0
G1 X28.739 Y21.394 F400.0
G1 X28.706 Y21.591 F400.0
G1 X28.668 Y21.788 F400.0
G1 X28.625 Y21.983 F400.0
G1 X28.578 Y22.178 F400.0
G1 X28.526 Y22.371 F400.0
G1 X28.471 Y22.563 F400.0
G1 X28.411 Y22.754 F400.0
G1 X28.346 Y22.943 F400.0
G1 X28.278 Y23.131 F400.0
G1 X28.205 Y23.317 F400.0
G1 X28.128 Y23.502 F400.0
G1 X28.046 Y23.685 F400.0
G1 X27.961 Y23.866 F400.0
G1 X27.872 Y24.045 F400.0
G1 X27.778 Y24.221 F400.0
G1 X27.681 Y24.396 F400.0
G1 X27.580 Y24.569 F400.0
G1 X27.474 Y24.739 F400.0
G1 X27.365 Y24.906 F400.0
G1 X27.253 Y25.072 F400.0
G1 X27.136 Y25.234 F400.0
G1 X27.016 Y25.394 F400.0
G1 X26.892 Y25.551 F400.0
G1 X26.765 Y25.706 F400.0
G1 X26.635 Y25.857 F400.0
G1 X26.500 Y26.006 F400.0
G1 X26.363 Y26.151 F400.0
G1 X26.222 Y26.293 F400.0
G1 X26.079 Y26.432 F400.0
G1 X25.932 Y26.568 F400.0
G1 X25.782 Y26.700 F400.0
G1 X25.629 Y26.829 F400.0
G1 X25.473 Y26.955 F400.0
G1 X25.315 Y27.077 F400.0
G1 X25.153 Y27.195 F400.0
G1 X24.989 Y27.310 F400.0
G1 X24.823 Y27.420 F400.0
G1 X24.654 Y27.528 F400.0
G1 X24.483 Y27.631 F400.0
G1 X24.309 Y27.730 F400.0
G1 X24.133 Y27.826 F400.0
G1 X23.955 Y27.917 F400.0
G1 X23.775 Y28.004 F400.0
G1 X23.594 Y28.088 F400.0
G1 X23.410 Y28.167 F400.0
G1 X23.224 Y28.242 F400.0
G1 X23.037 Y28.312 F400.0
G1 X22.849 Y28.379 F400.0
G1 X22.659 Y28.441 F400.0
G1 X22.467 Y28.499 F400.0
G1 X22.274 Y28.553 F400.0
G1 X22.081 Y28.602 F400.0
G1 X21.886 Y28.647 F400.0
G1 X21.690 Y28.687 F400.0
G1 X21.493 Y28.723 F400.0
G1 X21.295 Y28.755 F400.0
G1 X21.097 Y28.782 F400.0
G1 X20.899 Y28.804 F400.0
G1 X20.699 Y28.822 F400.0
G1 X20.500 Y28.836 F400.0
G1 X20.300 Y28.845 F400.0
G1 X20.100 Y28.849 F400.0
G1 X19.900 Y28.849 F400.0
G1 X19.700 Y28.845 F400.0
G1 X19.500 Y28.836 F400.0
G1 X19.301 Y28.822 F400.0
G1 X19.101 Y28.804 F400.0
G1 X18.903 Y28.782 F400.0
G1 X18.705 Y28.755 F400.0
G1 X18.507 Y28.723 F400.0
G1 X18.310 Y28.687 F400.0
G1 X18.114 Y28.647 F400.0
G1 X17.919 Y28.602 F400.0
G1 X17.726 Y28.553 F400.0
G1 X17.533 Y28.499 F400.0
G1 X17.341 Y28.441 F400.0
G1 X17.151 Y28.379 F400.0
G1 X16.963 Y28.312 F400.0
G1 X16.776 Y28.242 F400.0
G1 X16.590 Y28.167 F400.0
G1 X16.406 Y28.088 F400.0
G1 X16.225 Y28.004 F400.0
G1 X16.045 Y27.917 F400.0
G1 X15.867 Y27.826 F400.0
G1 X15.691 Y27.730 F400.0
G1 X15.517 Y27.631 F400.0
G1 X15.346 Y27.528 F400.0
G1 X15.177 Y27.420 F400.0
G1 X15.011 Y27.310 F400.0
G1 X14.847 Y27.195 F400.0
G1 X14.685 Y27.077 F400.0
G1 X14.527 Y26.955 F400.0
G1 X14.371 Y26.829 F400.0
G1 X14.218 Y26.700 F400.0
G1 X14.068 Y26.568 F400.0
G1 X13.921 Y26.432 F400.0
G1 X13.778 Y26.293 F400.0
G1 X13.637 Y26.151 F400.0
G1 X13.500 Y26.006 F400.0
G1 X13.365 Y25.857 F400.0
G1 X13.235 Y25.706 F400.0
G1 X13.108 Y25.551 F400.0
G1 X12.984 Y25.394 F400.0
G1 X12.864 Y25.234 F400.0
G1 X12.747 Y25.072 F400.0
G1 X12.635 Y24.906 F400.0
G1 X12.526 Y24.739 F400.0
G1 X12.420 Y24.569 F400.0
G1 X12.319 Y24.396 F400.0
G1 X12.222 Y24.221 F400.0
G1 X12.128 Y24.045 F400.0
G1 X12.039 Y23.866 F400.0
G1 X11.954 Y23.685 F400.0
G1 X11.872 Y23.502 F400.0
G1 X11.795 Y23.317 F400.0
G1 X11.722 Y23.131 F400.0
G1 X11.654 Y22.943 F400.0
G1 X11.589 Y22.754 F400.0
G1 X11.529 Y22.563 F400.0
G1 X11.474 Y22.371 F400.0
G1 X11.422 Y22.178 F400.0
G1 X11.375 Y21.983 F400.0
G1 X11.332 Y21.788 F400.0
G1 X11.294 Y21.591 F400.0
G1 X11.261 Y21.394 F400.0
G1 X11.231 Y21.196 F400.0
G1 X11.206 Y20.998 F400.0
G1 X11.186 Y20.799 F400.0
G1 X11.170 Y20.600 F400.0
G1 X11.159 Y20.400 F400.0
G1 X11.152 Y20.200 F400.0
G1 X11.150 Y20.000 F400.0
G1 X11.152 Y19.800 F400.0
G1 X11.159 Y19.600 F400.0
G1 X11.170 Y19.400 F400.0
G1 X11.186 Y19.201 F400.0
G1 X11.206 Y19.002 F400.0
G1 X11.231 Y18.804 F400.0
G1 X11.261 Y18.606 F400.0
G1 X11.294 Y18.409 F400.0
G1 X11.332 Y18.212 F400.0
G1 X11.375 Y18.017 F400.0
G1 X11.422 Y17.822 F400.0
G1 X11.474 Y17.629 F400.0
G1 X11.529 Y17.437 F400.0
G1 X11.589 Y17.246 F400.0
G1 X11.654 Y17.057 F400.0
G1 X11.722 Y16.869 F400.0
G1 X11.795 Y16.683 F400.0
G1 X11.872 Y16.498 F400.0
G1 X11.954 Y16.315 F400.0
G1 X12.039 Y16.134 F400.0
G1 X12.128 Y15.955 F400.0
G1 X12.222 Y15.779 F400.0
G1 X12.319 Y15.604 F400.0
G1 X12.420 Y15.431 F400.0
G1 X12.526 Y15.261 F400.0
G1 X12.635 Y15.094 F400.0
G1 X12.747 Y14.928 F400.0
G1 X12.864 Y14.766 F400.0
G1 X12.984 Y14.606 F400.0
G1 X13.108 Y14.449 F400.0
G1 X13.235 Y14.294 F400.0
G1 X13.365 Y14.143 F400.0
G1 X13.500 Y13.994 F400.0
G1 X13.637 Y13.849 F400.0
G1 X13.778 Y13.707 F400.0
G1 X13.921 Y13.568 F400.0
G1 X14.068 Y13.432 F400.0
G1 X14.218 Y13.300 F400.0
G1 X14.371 Y13.171 F400.0
G1 X14.527 Y13.045 F400.0
G1 X14.685 Y12.923 F400.0
G1 X14.847 Y12.805 F400.0
G1 X15.011 Y12.690 F400.0
G1 X15.177 Y12.580 F400.0
G1 X15.346 Y12.472 F400.0
G1 X15.517 Y12.369 F400.0
G1 X15.691 Y12.270 F400.0
G1 X15.867 Y12.174 F400.0
G1 X16.045 Y12.083 F400.0
G1 X16.225 Y11.996 F400.0
G1 X16.406 Y11.912 F400.0
G1 X16.590 Y11.833 F400.0
G1 X16.776 Y11.758 F400.0
G1 X16.963 Y11.688 F400.0
G1 X17.151 Y11.621 F400.0
G1 X17.341 Y11.559 F400.0
G1 X17.533 Y11.501 F400.0
G1 X17.726 Y11.447 F400.0
G1 X17.919 Y11.398 F400.0
G1 X18.114 Y11.353 F400.0
G1 X18.310 Y11.313 F400.0
G1 X18.507 Y11.277 F400.0
G1 X18.705 Y11.245 F400.0
G1 X18.903 Y11.218 F400.0
G1 X19.101 Y11.196 F400.0
G1 X19.301 Y11.178 F400.0
G1 X19.500 Y11.164 F400.0
G1 X19.700 Y11.155 F400.0
G1 X19.900 Y11.151 F400.0
G1 X20.100 Y11.151 F400.0
G1 X20.300 Y11.155 F400.0
G1 X20.500 Y11.164 F400.0
G1 X20.699 Y11.178 F400.0
G1 X20.899 Y11.196 F400.0
G1 X21.097 Y11.218 F400.0
G1 X21.295 Y11.245 F400.0
G1 X21.493 Y11.277 F400.0
G1 X21.690 Y11.313 F400.0
G1 X21.886 Y11.353 F400.0
G1 X22.081 Y11.398 F400.0
G1 X22.274 Y11.447 F400.0
G1 X22.467 Y11.501 F400.0
G1 X22.659 Y11.559 F400.0
G1 X22.849 Y11.621 F400.0
G1 X23.037 Y11.688 F400.0
G1 X23.224 Y11.758 F400.0
G1 X23.410 Y11.833 F400.0
G1 X23.594 Y11.912 F400.0
G1 X23.775 Y11.996 F400.0
G1 X23.955 Y12.083 F400.0
G1 X24.133 Y12.174 F400.0
G1 X24.309 Y12.270 F400.0
G1 X24.483 Y12.369 F400.0
G1 X24.654 Y12.472 F400.0
G1 X24.823 Y12.580 F400.0
G1 X24.989 Y12.690 F400.0
G1 X25.153 Y12.805 F400.0
G1 X25.315 Y12.923 F400.0
G1 X25.473 Y13.045 F400.0
G1 X25.629 Y13.171 F400.0
G1 X25.782 Y13.300 F400.0
G1 X25.932 Y13.432 F400.0
G1 X26.079 Y13.568 F400.0
G1 X26.222 Y13.707 F400.0
G1 X26.363 Y13.849 F400.0
G1 X26.500 Y13.994 F400.0
G1 X26.635 Y14.143 F400.0
G1 X26.765 Y14.294 F400.0
G1 X26.892 Y14.449 F400.0
G1 X27.016 Y14.606 F400.0
G1 X27.136 Y14.766 F400.0
G1 X27.253 Y14.928 F400.0
G1 X27.365 Y15.094 F400.0
G1 X27.474 Y15.261 F400.0
G1 X27.580 Y15.431 F400.0
G1 X27.681 Y15.604 F400.0
G1 X27.778 Y15.779 F400.0
G1 X27.872 Y15.955 F400.0
G1 X27.961 Y16.134 F400.0
G1 X28.046 Y16.315 F400.0
G1 X28.128 Y16.498 F400.0
G1 X28.205 Y16.683 F400.0
G1 X28.278 Y16.869 F400.0
G1 X28.346 Y17.057 F400.0
G1 X28.411 Y17.246 F400.0
G1 X28.471 Y17.437 F400.0
G1 X28.526 Y17.629 F400.0
G1 X28.578 Y17.822 F400.0
G1 X28.625 Y18.017 F400.0
G1 X28.668 Y18.212 F400.0
G1 X28.706 Y18.409 F400.0
G1 X28.739 Y18.606 F400.0
G1 X28.769 Y18.804 F400.0
G1 X28.794 Y19.002 F400.0
G1 X28.814 Y19.201 F400.0
G1 X28.830 Y19.400 F400.0
G1 X28.841 Y19.600 F400.0
G1 X28.848 Y19.800 F400.0
G1 X28.850 Y20.000 F400.0
G0 Z1.000
G0 X28.850 Y20.000
G1 Z-4.000 F100.0
G1 X28.848 Y20.200 F400.0
G1 X28.841 Y20.400 F400.0
G1 X28.830 Y20.600 F400.0
G1 X28.814 Y20.799 F400.0
G1 X28.794 Y20.998 F400.0
G1 X28.769 Y21.196 F400.0
G1 X28.739 Y21.394 F400.0
G1 X28.706 Y21.591 F400.0
G1 X28.668 Y21.788 F400.0
G1 X28.625 Y21.983 F400.0
G1 X28.578 Y22.178 F400.0
G1 X28.526 Y22.371 F400.0
G1 X28.471 Y22.563 F400.0
G1 X28.411 Y22.754 F400.0
G1 X28.346 Y22.943 F400.0
G1 X28.278 Y23.131 F400.0
G1 X28.205 Y23.317 F400.0
G1 X28.128 Y23.502 F400.0
G1 X28.046 Y23.685 F400.0
G1 X27.961 Y23.866 F400.0
G1 X27.872 Y24.045 F400.0
G1 X27.778 Y24.221 F400.0
G1 X27.681 Y24.396 F400.0
G1 X27.580 Y24.569 F400.0
G1 X27.474 Y24.739 F400.0
G1 X27.365 Y24.906 F400.0
G1 X27.253 Y25.072 F400.0
G1 X27.136 Y25.234 F400.0
G1 X27.016 Y25.394 F400.0
G1 X26.892 Y25.551 F400.0
G1 X26.765 Y25.706 F400.0
G1 X26.635 Y25.857 F400.0
G1 X26.500 Y26.006 F400.0
G1 X26.363 Y26.151 F400.0
G1 X26.222 Y26.293 F400.0
G1 X26.079 Y26.432 F400.0
G1 X25.932 Y26.568 F400.0
G1 X25.782 Y26.700 F400.0
G1 X25.629 Y26.829 F400.0
G1 X25.473 Y26.955 F400.0
G1 X25.315 Y27.077 F400.0
G1 X25.153 Y27.195 F400.0
G1 X24.989 Y27.310 F400.0
G1 X24.823 Y27.420 F400.0
G1 X24.654 Y27.528 F400.0
G1 X24.483 Y27.631 F400.0
G1 X24.309 Y27.730 F400.0
G1 X24.133 Y27.826 F400.0
G1 X23.955 Y27.917 F400.0
G1 X23.775 Y28.004 F400.0
G1 X23.594 Y28.088 F400.0
G1 X23.410 Y28.167 F400.0
G1 X23.224 Y28.242 F400.0
G1 X23.037 Y28.312 F400.0
G1 X22.849 Y28.379 F400.0
G1 X22.659 Y28.441 F400.0
G1 X22.467 Y28.499 F400.0
G1 X22.274 Y28.553 F400.0
G1 X22.081 Y28.602 F400.0
G1 X21.886 Y28.647 F400.0
G1 X21.690 Y28.687 F400.0
G1 X21.493 Y28.723 F400.0
G1 X21.295 Y28.755 F400.0
G1 X21.097 Y28.782 F400.0
G1 X20.899 Y28.804 F400.0
G1 X20.699 Y28.822 F400.0
G1 X20.500 Y28.836 F400.0
G1 X20.300 Y28.845 F400.0
G1 X20.100 Y28.849 F400.0
G1 X19.900 Y28.849 F400.0
G1 X19.700 Y28.845 F400.0
G1 X19.500 Y28.836 F400.0
G1 X19.301 Y28.822 F400.0
G1 X19.101 Y28.804 F400.0
G1 X18.903 Y28.782 F400.0
G1 X18.705 Y28.755 F400.0
G1 X18.507 Y28.723 F400.0
G1 X18.310 Y28.687 F400.0
G1 X18.114 Y28.647 F400.0
G1 X17.919 Y28.602 F400.0
G1 X17.726 Y28.553 F400.0
G1 X17.533 Y28.499 F400.0
G1 X17.341 Y28.441 F400.0
G1 X17.151 Y28.379 F400.0
G1 X16.963 Y28.312 F400.0
G1 X16.776 Y28.242 F400.0
G1 X16.590 Y28.167 F400.0
G1 X16.406 Y28.088 F400.0
G1 X16.225 Y28.004 F400.0
G1 X16.045 Y27.917 F400.0
G1 X15.867 Y27.826 F400.0
G1 X15.691 Y27.730 F400.0
G1 X15.517 Y27.631 F400.0
G1 X15.346 Y27.528 F400.0
G1 X15.177 Y27.420 F400.0
G1 X15.011 Y27.310 F400.0
G1 X14.847 Y27.195 F400.0
G1 X14.685 Y27.077 F400.0
G1 X14.527 Y26.955 F400.0
G1 X14.371 Y26.829 F400.0
G1 X14.218 Y26.700 F400.0
G1 X14.068 Y26.568 F400.0
G1 X13.921 Y26.432 F400.0
G1 X13.778 Y26.293 F400.0
G1 X13.637 Y26.151 F400.0
G1 X13.500 Y26.006 F400.0
G1 X13.365 Y25.857 F400.0
G1 X13.235 Y25.706 F400.0
G1 X13.108 Y25.551 F400.0
G1 X12.984 Y25.394 F400.0
G1 X12.864 Y25.234 F400.0
G1 X12.747 Y25.072 F400.0
G1 X12.635 Y24.906 F400.0
G1 X12.526 Y24.739 F400.0
G1 X12.420 Y24.569 F400.0
G1 X12.319 Y24.396 F400.0
G1 X12.222 Y24.221 F400.0
G1 X12.128 Y24.045 F400.0
G1 X12.039 Y23.866 F400.0
G1 X11.954 Y23.685 F400.0
G1 X11.872 Y23.502 F400.0
G1 X11.795 Y23.317 F400.0
G1 X11.722 Y23.131 F400.0
G1 X11.654 Y22.943 F400.0
G1 X11.589 Y22.754 F400.0
G1 X11.529 Y22.563 F400.0
G1 X11.474 Y22.371 F400.0
G1 X11.422 Y22.178 F400.0
G1 X11.375 Y21.983 F400.0
G1 X11.332 Y21.788 F400.0
G1 X11.294 Y21.591 F400.0
G1 X11.261 Y21.394 F400.0
G1 X11.231 Y21.196 F400.0
G1 X11.206 Y20.998 F400.0
G1 X11.186 Y20.799 F400.0
G1 X11.170 Y20.600 F400.0
G1 X11.159 Y20.400 F400.0
G1 X11.152 Y20.200 F400.0
G1 X11.150 Y20.000 F400.0
G1 X11.152 Y19.800 F400.0
G1 X11.159 Y19.600 F400.0
G1 X11.170 Y19.400 F400.0
G1 X11.186 Y19.201 F400.0
G1 X11.206 Y19.002 F400.0
G1 X11.231 Y18.804 F400.0
G1 X11.261 Y18.606 F400.0
G1 X11.294 Y18.409 F400.0
G1 X11.332 Y18.212 F400.0
G1 X11.375 Y18.017 F400.0
G1 X11.422 Y17.822 F400.0
G1 X11.474 Y17.629 F400.0
G1 X11.529 Y17.437 F400.0
G1 X11.589 Y17.246 F400.0
G1 X11.654 Y17.057 F400.0
G1 X11.722 Y16.869 F400.0
G1 X11.795 Y16.683 F400.0
G1 X11.872 Y16.498 F400.0
G1 X11.954 Y16.315 F400.0
G1 X12.039 Y16.134 F400.0
G1 X12.128 Y15.955 F400.0
G1 X12.222 Y15.779 F400.0
G1 X12.319 Y15.604 F400.0
G1 X12.420 Y15.431 F400.0
G1 X12.526 Y15.261 F400.0
G1 X12.635 Y15.094 F400.0
G1 X12.747 Y14.928 F400.0
G1 X12.864 Y14.766 F400.0
G1 X12.984 Y14.606 F400.0
G1 X13.108 Y14.449 F400.0
G1 X13.235 Y14.294 F400.0
G1 X13.365 Y14.143 F400.0
G1 X13.500 Y13.994 F400.0
G1 X13.637 Y13.849 F400.0
G1 X13.778 Y13.707 F400.0
G1 X13.921 Y13.568 F400.0
G1 X14.068 Y13.432 F400.0
G1 X14.218 Y13.300 F400.0
G1 X14.371 Y13.171 F400.0
G1 X14.527 Y13.045 F400.0
G1 X14.685 Y12.923 F400.0
G1 X14.847 Y12.805 F400.0
G1 X15.011 Y12.690 F400.0
G1 X15.177 Y12.580 F400.0
G1 X15.346 Y12.472 F400.0
G1 X15.517 Y12.369 F400.0
G1 X15.691 Y12.270 F400.0
G1 X15.867 Y12.174 F400.0
G1 X16.045 Y12.083 F400.0
G1 X16.225 Y11.996 F400.0
G1 X16.406 Y11.912 F400.0
G1 X16.590 Y11.833 F400.0
G1 X16.776 Y11.758 F400.0
G1 X16.963 Y11.688 F400.0
G1 X17.151 Y11.621 F400.0
G1 X17.341 Y11.559 F400.0
G1 X17.533 Y11.501 F400.0
G1 X17.726 Y11.447 F400.0
G1 X17.919 Y11.398 F400.0
G1 X18.114 Y11.353 F400.0
G1 X18.310 Y11.313 F400.0
G1 X18.507 Y11.277 F400.0
G1 X18.705 Y11.245 F400.0
G1 X18.903 Y11.218 F400.0
G1 X19.101 Y11.196 F400.0
G1 X19.301 Y11.178 F400.0
G1 X19.500 Y11.164 F400.0
G1 X19.700 Y11.155 F400.0
G1 X19.900 Y11.151 F400.0
G1 X20.100 Y11.151 F400.0
G1 X20.300 Y11.155 F400.0
G1 X20.500 Y11.164 F400.0
G1 X20.699 Y11.178 F400.0
G1 X20.899 Y11.196 F400.0
G1 X21.097 Y11.218 F400.0
G1 X21.295 Y11.245 F400.0
G1 X21.493 Y11.277 F400.0
G1 X21.690 Y11.313 F400.0
G1 X21.886 Y11.353 F400.0
G1 X22.081 Y11.398 F400.0
G1 X22.274 Y11.447 F400.0
G1 X22.467 Y11.501 F400.0
G1 X22.659 Y11.559 F400.0
G1 X22.849 Y11.621 F400.0
G1 X23.037 Y11.688 F400.0
G1 X23.224 Y11.758 F400.0
G1 X23.410 Y11.833 F400.0
G1 X23.594 Y11.912 F400.0
G1 X23.775 Y11.996 F400.0
G1 X23.955 Y12.083 F400.0
G1 X24.133 Y12.174 F400.0
G1 X24.309 Y12.270 F400.0
G1 X24.483 Y12.369 F400.0
G1 X24.654 Y12.472 F400.0
G1 X24.823 Y12.580 F400.0
G1 X24.989 Y12.690 F400.0
G1 X25.153 Y12.805 F400.0
G1 X25.315 Y12.923 F400.0
G1 X25.473 Y13.045 F400.0
G1 X25.629 Y13.171 F400.0
G1 X25.782 Y13.300 F400.0
G1 X25.932 Y13.432 F400.0
G1 X26.079 Y13.568 F400.0
G1 X26.222 Y13.707 F400.0
G1 X26.363 Y13.849 F400.0
G1 X26.500 Y13.994 F400.0
G1 X26.635 Y14.143 F400.0
G1 X26.765 Y14.294 F400.0
G1 X26.892 Y14.449 F400.0
G1 X27.016 Y14.606 F400.0
G1 X27.136 Y14.766 F400.0
G1 X27.253 Y14.928 F400.0
G1 X27.365 Y15.094 F400.0
G1 X27.474 Y15.261 F400.0
G1 X27.580 Y15.431 F400.0
G1 X27.681 Y15.604 F400.0
G1 X27.778 Y15.779 F400.0
G1 X27.872 Y15.955 F400.0
G1 X27.961 Y16.134 F400.0
G1 X28.046 Y16.315 F400.0
G1 X28.128 Y16.498 F400.0
G1 X28.205 Y16.683 F400.0
G1 X28.278 Y16.869 F400.0
G1 X28.346 Y17.057 F400.0
G1 X28.411 Y17.246 F400.0
G1 X28.471 Y17.437 F400.0
G1 X28.526 Y17.629 F400.0
G1 X28.578 Y17.822 F400.0
G1 X28.625 Y18.017 F400.0
G1 X28.668 Y18.212 F400.0
G1 X28.706 Y18.409 F400.0
G1 X28.739 Y18.606 F400.0
G1 X28.769 Y18.804 F400.0
G1 X28.794 Y19.002 F400.0
G1 X28.814 Y19.201 F400.0
G1 X28.830 Y19.400 F400.0
G1 X28.841 Y19.600 F400.0
G1 X28.848 Y19.800 F400.0
G1 X28.850 Y20.000 F400.0
G0 Z1.000
G0 X28.850 Y20.000
G1 Z-5.000 F100.0
G1 X28.848 Y20.200 F400.0
G1 X28.841 Y20.400 F400.0
G1 X28.830 Y20.600 F400.0
G1 X28.814 Y20.799 F400.0
G1 X28.794 Y20.998 F400.0
G1 X28.769 Y21.196 F400.0
G1 X28.739 Y21.394 F400.0
G1 X28.706 Y21.591 F400.0
G1 X28.668 Y21.788 F400.0
G1 X28.625 Y21.983 F400.0
G1 X28.578 Y22.178 F400.0
G1 X28.526 Y22.371 F400.0
G1 X28.471 Y22.563 F400.0
G1 X28.411 Y22.754 F400.0
G1 X28.346 Y22.943 F400.0
G1 X28.278 Y23.131 F400.0
G1 X28.205 Y23.317 F400.0
G1 X28.128 Y23.502 F400.0
G1 X28.046 Y23.685 F400.0
G1 X27.961 Y23.866 F400.0
G1 X27.872 Y24.045 F400.0
G1 X27.778 Y24.221 F400.0
G1 X27.681 Y24.396 F400.0
G1 X27.580 Y24.569 F400.0
G1 X27.474 Y24.739 F400.0
G1 X27.365 Y24.906 F400.0
G1 X27.253 Y25.072 F400.0
G1 X27.136 Y25.234 F400.0
G1 X27.016 Y25.394 F400.0
G1 X26.892 Y25.551 F400.0
G1 X26.765 Y25.706 F400.0
G1 X26.635 Y25.857 F400.0
G1 X26.500 Y26.006 F400.0
G1 X26.363 Y26.151 F400.0
G1 X26.222 Y26.293 F400.0
G1 X26.079 Y26.432 F400.0
G1 X25.932 Y26.568 F400.0
G1 X25.782 Y26.700 F400.0
G1 X25.629 Y26.829 F400.0
G1 X25.473 Y26.955 F400.0
G1 X25.315 Y27.077 F400.0
G1 X25.153 Y27.195 F400.0
G1 X24.989 Y27.310 F400.0
G1 X24.823 Y27.420 F400.0
G1 X24.654 Y27.528 F400.0
G1 X24.483 Y27.631 F400.0
G1 X24.309 Y27.730 F400.0
G1 X24.133 Y27.826 F400.0
G1 X23.955 Y27.917 F400.0
G1 X23.775 Y28.004 F400.0
G1 X23.594 Y28.088 F400.0
G1 X23.410 Y28.167 F400.0
G1 X23.224 Y28.242 F400.0
G1 X23.037 Y28.312 F400.0
G1 X22.849 Y28.379 F400.0
G1 X22.659 Y28.441 F400.0
G1 X22.467 Y28.499 F400.0
G1 X22.274 Y28.553 F400.0
G1 X22.081 Y28.602 F400.0
G1 X21.886 Y28.647 F400.0
G1 X21.690 Y28.687 F400.0
G1 X21.493 Y28.723 F400.0
G1 X21.295 Y28.755 F400.0
G1 X21.097 Y28.782 F400.0
G1 X20.899 Y28.804 F400.0
G1 X20.699 Y28.822 F400.0
G1 X20.500 Y28.836 F400.0
G1 X20.300 Y28.845 F400.0
G1 X20.100 Y28.849 F400.0
G1 X19.900 Y28.849 F400.0
G1 X19.700 Y28.845 F400.0
G1 X19.500 Y28.836 F400.0
G1 X19.301 Y28.822 F400.0
G1 X19.101 Y28.804 F400.0
G1 X18.903 Y28.782 F400.0
G1 X18.705 Y28.755 F400.0
G1 X18.507 Y28.723 F400.0
G1 X18.310 Y28.687 F400.0
G1 X18.114 Y28.647 F400.0
G1 X17.919 Y28.602 F400.0
G1 X17.726 Y28.553 F400.0
G1 X17.533 Y28.499 F400.0
G1 X17.341 Y28.441 F400.0
G1 X17.151 Y28.379 F400.0
G1 X16.963 Y28.312 F400.0
G1 X16.776 Y28.242 F400.0
G1 X16.590 Y28.167 F400.0
G1 X16.406 Y28.088 F400.0
G1 X16.225 Y28.004 F400.0
G1 X16.045 Y27.917 F400.0
G1 X15.867 Y27.826 F400.0
G1 X15.691 Y27.730 F400.0
G1 X15.517 Y27.631 F400.0
G1 X15.346 Y27.528 F400.0
G1 X15.177 Y27.420 F400.0
G1 X15.011 Y27.310 F400.0
G1 X14.847 Y27.195 F400.0
G1 X14.685 Y27.077 F400.0
G1 X14.527 Y26.955 F400.0
G1 X14.371 Y26.829 F400.0
G1 X14.218 Y26.700 F400.0
G1 X14.068 Y26.568 F400.0
G1 X13.921 Y26.432 F400.0
G1 X13.778 Y26.293 F400.0
G1 X13.637 Y26.151 F400.0
G1 X13.500 Y26.006 F400.0
G1 X13.365 Y25.857 F400.0
G1 X13.235 Y25.706 F400.0
G1 X13.108 Y25.551 F400.0
G1 X12.984 Y25.394 F400.0
G1 X12.864 Y25.234 F400.0
G1 X12.747 Y25.072 F400.0
G1 X12.635 Y24.906 F400.0
G1 X12.526 Y24.739 F400.0
G1 X12.420 Y24.569 F400.0
G1 X12.319 Y24.396 F400.0
G1 X12.222 Y24.221 F400.0
G1 X12.128 Y24.045 F400.0
G1 X12.039 Y23.866 F400.0
G1 X11.954 Y23.685 F400.0
G1 X11.872 Y23.502 F400.0
G1 X11.795 Y23.317 F400.0
G1 X11.722 Y23.131 F400.0
G1 X11.654 Y22.943 F400.0
G1 X11.589 Y22.754 F400.0
G1 X11.529 Y22.563 F400.0
G1 X11.474 Y22.371 F400.0
G1 X11.422 Y22.178 F400.0
G1 X11.375 Y21.983 F400.0
G1 X11.332 Y21.788 F400.0
G1 X11.294 Y21.591 F400.0
G1 X11.261 Y21.394 F400.0
G1 X11.231 Y21.196 F400.0
G1 X11.206 Y20.998 F400.0
G1 X11.186 Y20.799 F400.0
G1 X11.170 Y20.600 F400.0
G1 X11.159 Y20.400 F400.0
G1 X11.152 Y20.200 F400.0
G1 X11.150 Y20.000 F400.0
G1 X11.152 Y19.800 F400.0
G1 X11.159 Y19.600 F400.0
G1 X11.170 Y19.400 F400.0
G1 X11.186 Y19.201 F400.0
G1 X11.206 Y19.002 F400.0
G1 X11.231 Y18.804 F400.0
G1 X11.261 Y18.606 F400.0
G1 X11.294 Y18.409 F400.0
G1 X11.332 Y18.212 F400.0
G1 X11.375 Y18.017 F400.0
G1 X11.422 Y17.822 F400.0
G1 X11.474 Y17.629 F400.0
G1 X11.529 Y17.437 F400.0
G1 X11.589 Y17.246 F400.0
G1 X11.654 Y17.057 F400.0
G1 X11.722 Y16.869 F400.0
G1 X11.795 Y16.683 F400.0
G1 X11.872 Y16.498 F400.0
G1 X11.954 Y16.315 F400.0
G1 X12.039 Y16.134 F400.0
G1 X12.128 Y15.955 F400.0
G1 X12.222 Y15.779 F400.0
G1 X12.319 Y15.604 F400.0
G1 X12.420 Y15.431 F400.0
G1 X12.526 Y15.261 F400.0
G1 X12.635 Y15.094 F400.0
G1 X12.747 Y14.928 F400.0
G1 X12.864 Y14.766 F400.0
G1 X12.984 Y14.606 F400.0
G1 X13.108 Y14.449 F400.0
G1 X13.235 Y14.294 F400.0
G1 X13.365 Y14.143 F400.0
G1 X13.500 Y13.994 F400.0
G1 X13.637 Y13.849 F400.0
G1 X13.778 Y13.707 F400.0
G1 X13.921 Y13.568 F400.0
G1 X14.068 Y13.432 F400.0
G1 X14.218 Y13.300 F400.0
G1 X14.371 Y13.171 F400.0
G1 X14.527 Y13.045 F400.0
G1 X14.685 Y12.923 F400.0
G1 X14.847 Y12.805 F400.0
G1 X15.011 Y12.690 F400.0
G1 X15.177 Y12.580 F400.0
G1 X15.346 Y12.472 F400.0
G1 X15.517 Y12.369 F400.0
G1 X15.691 Y12.270 F400.0
G1 X15.867 Y12.174 F400.0
G1 X16.045 Y12.083 F400.0
G1 X16.225 Y11.996 F400.0
G1 X16.406 Y11.912 F400.0
G1 X16.590 Y11.833 F400.0
G1 X16.776 Y11.758 F400.0
G1 X16.963 Y11.688 F400.0
G1 X17.151 Y11.621 F400.0
G1 X17.341 Y11.559 F400.0
G1 X17.533 Y11.501 F400.0
G1 X17.726 Y11.447 F400.0
G1 X17.919 Y11.398 F400.0
G1 X18.114 Y11.353 F400.0
G1 X18.310 Y11.313 F400.0
G1 X18.507 Y11.277 F400.0
G1 X18.705 Y11.245 F400.0
G1 X18.903 Y11.218 F400.0
G1 X19.101 Y11.196 F400.0
G1 X19.301 Y11.178 F400.0
G1 X19.500 Y11.164 F400.0
G1 X19.700 Y11.155 F400.0
G1 X19.900 Y11.151 F400.0
G1 X20.100 Y11.151 F400.0
G1 X20.300 Y11.155 F400.0
G1 X20.500 Y11.164 F400.0
G1 X20.699 Y11.178 F400.0
G1 X20.899 Y11.196 F400.0
G1 X21.097 Y11.218 F400.0
G1 X21.295 Y11.245 F400.0
G1 X21.493 Y11.277 F400.0
G1 X21.690 Y11.313 F400.0
G1 X21.886 Y11.353 F400.0
G1 X22.081 Y11.398 F400.0
G1 X22.274 Y11.447 F400.0
G1 X22.467 Y11.501 F400.0
G1 X22.659 Y11.559 F400.0
G1 X22.849 Y11.621 F400.0
G1 X23.037 Y11.688 F400.0
G1 X23.224 Y11.758 F400.0
G1 X23.410 Y11.833 F400.0
G1 X23.594 Y11.912 F400.0
G1 X23.775 Y11.996 F400.0
G1 X23.955 Y12.083 F400.0
G1 X24.133 Y12.174 F400.0
G1 X24.309 Y12.270 F400.0
G1 X24.483 Y12.369 F400.0
G1 X24.654 Y12.472 F400.0
G1 X24.823 Y12.580 F400.0
G1 X24.989 Y12.690 F400.0
G1 X25.153 Y12.805 F400.0
G1 X25.315 Y12.923 F400.0
G1 X25.473 Y13.045 F400.0
G1 X25.629 Y13.171 F400.0
G1 X25.782 Y13.300 F400.0
G1 X25.932 Y13.432 F400.0
G1 X26.079 Y13.568 F400.0
G1 X26.222 Y13.707 F400.0
G1 X26.363 Y13.849 F400.0
G1 X26.500 Y13.994 F400.0
G1 X26.635 Y14.143 F400.0
G1 X26.765 Y14.294 F400.0
G1 X26.892 Y14.449 F400.0
G1 X27.016 Y14.606 F400.0
G1 X27.136 Y14.766 F400.0
G1 X27.253 Y14.928 F400.0
G1 X27.365 Y15.094 F400.0
G1 X27.474 Y15.261 F400.0
G1 X27.580 Y15.431 F400.0
G1 X27.681 Y15.604 F400.0
G1 X27.778 Y15.779 F400.0
G1 X27.872 Y15.955 F400.0
G1 X27.961 Y16.134 F400.0
G1 X28.046 Y16.315 F400.0
G1 X28.128 Y16.498 F400.0
G1 X28.205 Y16.683 F400.0
G1 X28.278 Y16.869 F400.0
G1 X28.346 Y17.057 F400.0
G1 X28.411 Y17.246 F400.0
G1 X28.471 Y17.437 F400.0
G1 X28.526 Y17.629 F400.0
G1 X28.578 Y17.822 F400.0
G1 X28.625 Y18.017 F400.0
G1 X28.668 Y18.212 F400.0
G1 X28.706 Y18.409 F400.0
G1 X28.739 Y18.606 F400.0
G1 X28.769 Y18.804 F400.0
G1 X28.794 Y19.002 F400.0
G1 X28.814 Y19.201 F400.0
G1 X28.830 Y19.400 F400.0
G1 X28.841 Y19.600 F400.0
G1 X28.848 Y19.800 F400.0
G1 X28.850 Y20.000 F400.0
G0 Z1.000
G0 X28.850 Y20.000
G1 Z-6.000 F100.0
G1 X28.848 Y20.200 F400.0
G1 X28.841 Y20.400 F400.0
G1 X28.830 Y20.600 F400.0
G1 X28.814 Y20.799 F400.0
G1 X28.794 Y20.998 F400.0
G1 X28.769 Y21.196 F400.0
G1 X28.739 Y21.394 F400.0
G1 X28.706 Y21.591 F400.0
G1 X28.668 Y21.788 F400.0
G1 X28.625 Y21.983 F400.0
G1 X28.578 Y22.178 F400.0
G1 X28.526 Y22.371 F400.0
G1 X28.471 Y22.563 F400.0
G1 X28.411 Y22.754 F400.0
G1 X28.346 Y22.943 F400.0
G1 X28.278 Y23.131 F400.0
G1 X28.205 Y23.317 F400.0
G1 X28.128 Y23.502 F400.0
G1 X28.046 Y23.685 F400.0
G1 X27.961 Y23.866 F400.0
G1 X27.872 Y24.045 F400.0
G1 X27.778 Y24.221 F400.0
G1 X27.681 Y24.396 F400.0
G1 X27.580 Y24.569 F400.0
G1 X27.474 Y24.739 F400.0
G1 X27.365 Y24.906 F400.0
G1 X27.253 Y25.072 F400.0
G1 X27.136 Y25.234 F400.0
G1 X27.016 Y25.394 F400.0
G1 X26.892 Y25.551 F400.0
G1 X26.765 Y25.706 F400.0
G1 X26.635 Y25.857 F400.0
G1 X26.500 Y26.006 F400.0
G1 X26.363 Y26.151 F400.0
G1 X26.222 Y26.293 F400.0
G1 X26.079 Y26.432 F400.0
G1 X25.932 Y26.568 F400.0
G1 X25.782 Y26.700 F400.0
G1 X25.629 Y26.829 F400.0
G1 X25.473 Y26.955 F400.0
G1 X25.315 Y27.077 F400.0
G1 X25.153 Y27.195 F400.0
G1 X24.989 Y27.310 F400.0
G1 X24.823 Y27.420 F400.0
G1 X24.654 Y27.528 F400.0
G1 X24.483 Y27.631 F400.0
G1 X24.309 Y27.730 F400.0
G1 X24.133 Y27.826 F400.0
G1 X23.955 Y27.917 F400.0
G1 X23.775 Y28.004 F400.0
G1 X23.594 Y28.088 F400.0
G1 X23.410 Y28.167 F400.0
G1 X23.224 Y28.242 F400.0
G1 X23.037 Y28.312 F400.0
G1 X22.849 Y28.379 F400.0
G1 X22.659 Y28.441 F400.0
G1 X22.467 Y28.499 F400.0
G1 X22.274 Y28.553 F400.0
G1 X22.081 Y28.602 F400.0
G1 X21.886 Y28.647 F400.0
G1 X21.690 Y28.687 F400.0
G1 X21.493 Y28.723 F400.0
G1 X21.295 Y28.755 F400.0
G1 X21.097 Y28.782 F400.0
G1 X20.899 Y28.804 F400.0
G1 X20.699 Y28.822 F400.0
G1 X20.500 Y28.836 F400.0
G1 X20.300 Y28.845 F400.0
G1 X20.100 Y28.849 F400.0
G1 X19.900 Y28.849 F400.0
G1 X19.700 Y28.845 F400.0
G1 X19.500 Y28.836 F400.0
G1 X19.301 Y28.822 F400.0
G1 X19.101 Y28.804 F400.0
G1 X18.903 Y28.782 F400.0
G1 X18.705 Y28.755 F400.0
G1 X18.507 Y28.723 F400.0
G1 X18.310 Y28.687 F400.0
G1 X18.114 Y28.647 F400.0
G1 X17.919 Y28.602 F400.0
G1 X17.726 Y28.553 F400.0
G1 X17.533 Y28.499 F400.0
G1 X17.341 Y28.441 F400.0
G1 X17.151 Y28.379 F400.0
G1 X16.963 Y28.312 F400.0
G1 X16.776 Y28.242 F400.0
G1 X16.590 Y28.167 F400.0
G1 X16.406 Y28.088 F400.0
G1 X16.225 Y28.004 F400.0
G1 X16.045 Y27.917 F400.0
G1 X15.867 Y27.826 F400.0
G1 X15.691 Y27.730 F400.0
G1 X15.517 Y27.631 F400.0
G1 X15.346 Y27.528 F400.0
G1 X15.177 Y27.420 F400.0
G1 X15.011 Y27.310 F400.0
G1 X14.847 Y27.195 F400.0
G1 X14.685 Y27.077 F400.0
G1 X14.527 Y26.955 F400.0
G1 X14.371 Y26.829 F400.0
G1 X14.218 Y26.700 F400.0
G1 X14.068 Y26.568 F400.0
G1 X13.921 Y26.432 F400.0
G1 X13.778 Y26.293 F400.0
G1 X13.637 Y26.151 F400.0
G1 X13.500 Y26.006 F400.0
G1 X13.365 Y25.857 F400.0
G1 X13.235 Y25.706 F400.0
G1 X13.108 Y25.551 F400.0
G1 X12.984 Y25.394 F400.0
G1 X12.864 Y25.234 F400.0
G1 X12.747 Y25.072 F400.0
G1 X12.635 Y24.906 F400.0
G1 X12.526 Y24.739 F400.0
G1 X12.420 Y24.569 F400.0
G1 X12.319 Y24.396 F400.0
G1 X12.222 Y24.221 F400.0
G1 X12.128 Y24.045 F400.0
G1 X12.039 Y23.866 F400.0
G1 X11.954 Y23.685 F400.0
G1 X11.872 Y23.502 F400.0
G1 X11.795 Y23.317 F400.0
G1 X11.722 Y23.131 F400.0
G1 X11.654 Y22.943 F400.0
G1 X11.589 Y22.754 F400.0
G1 X11.529 Y22.563 F400.0
G1 X11.474 Y22.371 F400.0
G1 X11.422 Y22.178 F400.0
G1 X11.375 Y21.983 F400.0
G1 X11.332 Y21.788 F400.0
G1 X11.294 Y21.591 F400.0
G1 X11.261 Y21.394 F400.0
G1 X11.231 Y21.196 F400.0
G1 X11.206 Y20.998 F400.0
G1 X11.186 Y20.799 F400.0
G1 X11.170 Y20.600 F400.0
G1 X11.159 Y20.400 F400.0
G1 X11.152 Y20.200 F400.0
G1 X11.150 Y20.000 F400.0
G1 X11.152 Y19.800 F400.0
G1 X11.159 Y19.600 F400.0
G1 X11.170 Y19.400 F400.0
G1 X11.186 Y19.201 F400.0
G1 X11.206 Y19.002 F400.0
G1 X11.231 Y18.804 F400.0
G1 X11.261 Y18.606 F400.0
G1 X11.294 Y18.409 F400.0
G1 X11.332 Y18.212 F400.0
G1 X11.375 Y18.017 F400.0
G1 X11.422 Y17.822 F400.0
G1 X11.474 Y17.629 F400.0
G1 X11.529 Y17.437 F400.0
G1 X11.589 Y17.246 F400.0
G1 X11.654 Y17.057 F400.0
G1 X11.722 Y16.869 F400.0
G1 X11.795 Y16.683 F400.0
G1 X11.872 Y16.498 F400.0
G1 X11.954 Y16.315 F400.0
G1 X12.039 Y16.134 F400.0
G1 X12.128 Y15.955 F400.0
G1 X12.222 Y15.779 F400.0
G1 X12.319 Y15.604 F400.0
G1 X12.420 Y15.431 F400.0
G1 X12.526 Y15.261 F400.0
G1 X12.635 Y15.094 F400.0
G1 X12.747 Y14.928 F400.0
G1 X12.864 Y14.766 F400.0
G1 X12.984 Y14.606 F400.0
G1 X13.108 Y14.449 F400.0
G1 X13.235 Y14.294 F400.0
G1 X13.365 Y14.143 F400.0
G1 X13.500 Y13.994 F400.0
G1 X13.637 Y13.849 F400.0
G1 X13.778 Y13.707 F400.0
G1 X13.921 Y13.568 F400.0
G1 X14.068 Y13.432 F400.0
G1 X14.218 Y13.300 F400.0
G1 X14.371 Y13.171 F400.0
G1 X14.527 Y13.045 F400.0
G1 X14.685 Y12.923 F400.0
G1 X14.847 Y12.805 F400.0
G1 X15.011 Y12.690 F400.0
G1 X15.177 Y12.580 F400.0
G1 X15.346 Y12.472 F400.0
G1 X15.517 Y12.369 F400.0
G1 X15.691 Y12.270 F400.0
G1 X15.867 Y12.174 F400.0
G1 X16.045 Y12.083 F400.0
G1 X16.225 Y11.996 F400.0
G1 X16.406 Y11.912 F400.0
G1 X16.590 Y11.833 F400.0
G1 X16.776 Y11.758 F400.0
G1 X16.963 Y11.688 F400.0
G1 X17.151 Y11.621 F400.0
G1 X17.341 Y11.559 F400.0
G1 X17.533 Y11.501 F400.0
G1 X17.726 Y11.447 F400.0
G1 X17.919 Y11.398 F400.0
G1 X18.114 Y11.353 F400.0
G1 X18.310 Y11.313 F400.0
G1 X18.507 Y11.277 F400.0
G1 X18.705 Y11.245 F400.0
G1 X18.903 Y11.218 F400.0
G1 X19.101 Y11.196 F400.0
G1 X19.301 Y11.178 F400.0
G1 X19.500 Y11.164 F400.0
G1 X19.700 Y11.155 F400.0
G1 X19.900 Y11.151 F400.0
G1 X20.100 Y11.151 F400.0
G1 X20.300 Y11.155 F400.0
G1 X20.500 Y11.164 F400.0
G1 X20.699 Y11.178 F400.0
G1 X20.899 Y11.196 F400.0
G1 X21.097 Y11.218 F400.0
G1 X21.295 Y11.245 F400.0
G1 X21.493 Y11.277 F400.0
G1 X21.690 Y11.313 F400.0
G1 X21.886 Y11.353 F400.0
G1 X22.081 Y11.398 F400.0
G1 X22.274 Y11.447 F400.0
G1 X22.467 Y11.501 F400.0
G1 X22.659 Y11.559 F400.0
G1 X22.849 Y11.621 F400.0
G1 X23.037 Y11.688 F400.0
G1 X23.224 Y11.758 F400.0
G1 X23.410 Y11.833 F400.0
G1 X23.594 Y11.912 F400.0
G1 X23.775 Y11.996 F400.0
G1 X23.955 Y12.083 F400.0
G1 X24.133 Y12.174 F400.0
G1 X24.309 Y12.270 F400.0
G1 X24.483 Y12.369 F400.0
G1 X24.654 Y12.472 F400.0
G1 X24.823 Y12.580 F400.0
G1 X24.989 Y12.690 F400.0
G1 X25.153 Y12.805 F400.0
G1 X25.315 Y12.923 F400.0
G1 X25.473 Y13.045 F400.0
G1 X25.629 Y13.171 F400.0
G1 X25.782 Y13.300 F400.0
G1 X25.932 Y13.432 F400.0
G1 X26.079 Y13.568 F400.0
G1 X26.222 Y13.707 F400.0
G1 X26.363 Y13.849 F400.0
G1 X26.500 Y13.994 F400.0
G1 X26.635 Y14.143 F400.0
G1 X26.765 Y14.294 F400.0
G1 X26.892 Y14.449 F400.0
G1 X27.016 Y14.606 F400.0
G1 X27.136 Y14.766 F400.0
G1 X27.253 Y14.928 F400.0
G1 X27.365 Y15.094 F400.0
G1 X27.474 Y15.261 F400.0
G1 X27.580 Y15.431 F400.0
G1 X27.681 Y15.604 F400.0
G1 X27.778 Y15.779 F400.0
G1 X27.872 Y15.955 F400.0
G1 X27.961 Y16.134 F400.0
G1 X28.046 Y16.315 F400.0
G1 X28.128 Y16.498 F400.0
G1 X28.205 Y16.683 F400.0
G1 X28.278 Y16.869 F400.0
G1 X28.346 Y17.057 F400.0
G1 X28.411 Y17.246 F400.0
G1 X28.471 Y17.437 F400.0
G1 X28.526 Y17.629 F400.0
G1 X28.578 Y17.822 F400.0
G1 X28.625 Y18.017 F400.0
G1 X28.668 Y18.212 F400.0
G1 X28.706 Y18.409 F400.0
G1 X28.739 Y18.606 F400.0
G1 X28.769 Y18.804 F400.0
G1 X28.794 Y19.002 F400.0
G1 X28.814 Y19.201 F400.0
G1 X28.830 Y19.400 F400.0
G1 X28.841 Y19.600 F400.0
G1 X28.848 Y19.800 F400.0
G1 X28.850 Y20.000 F400.0
G0 Z1.000
G0 X28.850 Y20.000
G1 Z-7.000 F100.0
G1 X28.848 Y20.200 F400.0
G1 X28.841 Y20.400 F400.0
G1 X28.830 Y20.600 F400.0
G1 X28.814 Y20.799 F400.0
G1 X28.794 Y20.998 F400.0
G1 X28.769 Y21.196 F400.0
G1 X28.739 Y21.394 F400.0
G1 X28.706 Y21.591 F400.0
G1 X28.668 Y21.788 F400.0
G1 X28.625 Y21.983 F400.0
G1 X28.578 Y22.178 F400.0
G1 X28.526 Y22.371 F400.0
G1 X28.471 Y22.563 F400.0
G1 X28.411 Y22.754 F400.0
G1 X28.346 Y22.943 F400.0
G1 X28.278 Y23.131 F400.0
G1 X28.205 Y23.317 F400.0
G1 X28.128 Y23.502 F400.0
G1 X28.046 Y23.685 F400.0
G1 X27.961 Y23.866 F400.0
G1 X27.872 Y24.045 F400.0
G1 X27.778 Y24.221 F400.0
G1 X27.681 Y24.396 F400.0
G1 X27.580 Y24.569 F400.0
G1 X27.474 Y24.739 F400.0
G1 X27.365 Y24.906 F400.0
G1 X27.253 Y25.072 F400.0
G1 X27.136 Y25.234 F400.0
G1 X27.016 Y25.394 F400.0
G1 X26.892 Y25.551 F400.0
G1 X26.765 Y25.706 F400.0
G1 X26.635 Y25.857 F400.0
G1 X26.500 Y26.006 F400.0
G1 X26.363 Y26.151 F400.0
G1 X26.222 Y26.293 F400.0
G1 X26.079 Y26.432 F400.0
G1 X25.932 Y26.568 F400.0
G1 X25.782 Y26.700 F400.0
G1 X25.629 Y26.829 F400.0
G1 X25.473 Y26.955 F400.0
G1 X25.315 Y27.077 F400.0
G1 X25.153 Y27.195 F400.0
G1 X24.989 Y27.310 F400.0
G1 X24.823 Y27.420 F400.0
G1 X24.654 Y27.528 F400.0
G1 X24.483 Y27.631 F400.0
G1 X24.309 Y27.730 F400.0
G1 X24.133 Y27.826 F400.0
G1 X23.955 Y27.917 F400.0
G1 X23.775 Y28.004 F400.0
G1 X23.594 Y28.088 F400.0
G1 X23.410 Y28.167 F400.0
G1 X23.224 Y28.242 F400.0
G1 X23.037 Y28.312 F400.0
G1 X22.849 Y28.379 F400.0
G1 X22.659 Y28.441 F400.0
G1 X22.467 Y28.499 F400.0
G1 X22.274 Y28.553 F400.0
G1 X22.081 Y28.602 F400.0
G1 X21.886 Y28.647 F400.0
G1 X21.690 Y28.687 F400.0
G1 X21.493 Y28.723 F400.0
G1 X21.295 Y28.755 F400.0
G1 X21.097 Y28.782 F400.0
G1 X20.899 Y28.804 F400.0
G1 X20.699 Y28.822 F400.0
G1 X20.500 Y28.836 F400.0
G1 X20.300 Y28.845 F400.0
G1 X20.100 Y28.849 F400.0
G1 X19.900 Y28.849 F400.0
G1 X19.700 Y28.845 F400.0
G1 X19.500 Y28.836 F400.0
G1 X19.301 Y28.822 F400.0
G1 X19.101 Y28.804 F400.0
G1 X18.903 Y28.782 F400.0
G1 X18.705 Y28.755 F400.0
G1 X18.507 Y28.723 F400.0
G1 X18.310 Y28.687 F400.0
G1 X18.114 Y28.647 F400.0
G1 X17.919 Y28.602 F400.0
G1 X17.726 Y28.553 F400.0
G1 X17.533 Y28.499 F400.0
G1 X17.341 Y28.441 F400.0
G1 X17.151 Y28.379 F400.0
G1 X16.963 Y28.312 F400.0
G1 X16.776 Y28.242 F400.0
G1 X16.590 Y28.167 F400.0
G1 X16.406 Y28.088 F400.0
G1 X16.225 Y28.004 F400.0
G1 X16.045 Y27.917 F400.0
G1 X15.867 Y27.826 F400.0
G1 X15.691 Y27.730 F400.0
G1 X15.517 Y27.631 F400.0
G1 X15.346 Y27.528 F400.0
G1 X15.177 Y27.420 F400.0
G1 X15.011 Y27.310 F400.0
G1 X14.847 Y27.195 F400.0
G1 X14.685 Y27.077 F400.0
G1 X14.527 Y26.955 F400.0
G1 X14.371 Y26.829 F400.0
G1 X14.218 Y26.700 F400.0
G1 X14.068 Y26.568 F400.0
G1 X13.921 Y26.432 F400.0
G1 X13.778 Y26.293 F400.0
G1 X13.637 Y26.151 F400.0
G1 X13.500 Y26.006 F400.0
G1 X13.365 Y25.857 F400.0
G1 X13.235 Y25.706 F400.0
G1 X13.108 Y25.551 F400.0
G1 X12.984 Y25.394 F400.0
G1 X12.864 Y25.234 F400.0
G1 X12.747 Y25.072 F400.0
G1 X12.635 Y24.906 F400.0
G1 X12.526 Y24.739 F400.0
G1 X12.420 Y24.569 F400.0
G1 X12.319 Y24.396 F400.0
G1 X12.222 Y24.221 F400.0
G1 X12.128 Y24.045 F400.0
G1 X12.039 Y23.866 F400.0
G1 X11.954 Y23.685 F400.0
G1 X11.872 Y23.502 F400.0
G1 X11.795 Y23.317 F400.0
G1 X11.722 Y23.131 F400.0
G1 X11.654 Y22.943 F400.0
G1 X11.589 Y22.754 F400.0
G1 X11.529 Y22.563 F400.0
G1 X11.474 Y22.371 F400.0
G1 X11.422 Y22.178 F400.0
G1 X11.375 Y21.983 F400.0
G1 X11.332 Y21.788 F400.0
G1 X11.294 Y21.591 F400.0
G1 X11.261 Y21.394 F400.0
G1 X11.231 Y21.196 F400.0
G1 X11.206 Y20.998 F400.0
G1 X11.186 Y20.799 F400.0
G1 X11.170 Y20.600 F400.0
G1 X11.159 Y20.400 F400.0
G1 X11.152 Y20.200 F400.0
G1 X11.150 Y20.000 F400.0
G1 X11.152 Y19.800 F400.0
G1 X11.159 Y19.600 F400.0
G1 X11.170 Y19.400 F400.0
G1 X11.186 Y19.201 F400.0
G1 X11.206 Y19.002 F400.0
G1 X11.231 Y18.804 F400.0
G1 X11.261 Y18.606 F400.0
G1 X11.294 Y18.409 F400.0
G1 X11.332 Y18.212 F400.0
G1 X11.375 Y18.017 F400.0
G1 X11.422 Y17.822 F400.0
G1 X11.474 Y17.629 F400.0
G1 X11.529 Y17.437 F400.0
G1 X11.589 Y17.246 F400.0
G1 X11.654 Y17.057 F400.0
G1 X11.722 Y16.869 F400.0
G1 X11.795 Y16.683 F400.0
G1 X11.872 Y16.498 F400.0
G1 X11.954 Y16.315 F400.0
G1 X12.039 Y16.134 F400.0
G1 X12.128 Y15.955 F400.0
G1 X12.222 Y15.779 F400.0
G1 X12.319 Y15.604 F400.0
G1 X12.420 Y15.431 F400.0
G1 X12.526 Y15.261 F400.0
G1 X12.635 Y15.094 F400.0
G1 X12.747 Y14.928 F400.0
G1 X12.864 Y14.766 F400.0
G1 X12.984 Y14.606 F400.0
G1 X13.108 Y14.449 F400.0
G1 X13.235 Y14.294 F400.0
G1 X13.365 Y14.143 F400.0
G1 X13.500 Y13.994 F400.0
G1 X13.637 Y13.849 F400.0
G1 X13.778 Y13.707 F400.0
G1 X13.921 Y13.568 F400.0
G1 X14.068 Y13.432 F400.0
G1 X14.218 Y13.300 F400.0
G1 X14.371 Y13.171 F400.0
G1 X14.527 Y13.045 F400.0
G1 X14.685 Y12.923 F400.0
G1 X14.847 Y12.805 F400.0
G1 X15.011 Y12.690 F400.0
G1 X15.177 Y12.580 F400.0
G1 X15.346 Y12.472 F400.0
G1 X15.517 Y12.369 F400.0
G1 X15.691 Y12.270 F400.0
G1 X15.867 Y12.174 F400.0
G1 X16.045 Y12.083 F400.0
G1 X16.225 Y11.996 F400.0
G1 X16.406 Y11.912 F400.0
G1 X16.590 Y11.833 F400.0
G1 X16.776 Y11.758 F400.0
G1 X16.963 Y11.688 F400.0
G1 X17.151 Y11.621 F400.0
G1 X17.341 Y11.559 F400.0
G1 X17.533 Y11.501 F400.0
G1 X17.726 Y11.447 F400.0
G1 X17.919 Y11.398 F400.0
G1 X18.114 Y11.353 F400.0
G1 X18.310 Y11.313 F400.0
G1 X18.507 Y11.277 F400.0
G1 X18.705 Y11.245 F400.0
G1 X18.903 Y11.218 F400.0
G1 X19.101 Y11.196 F400.0
G1 X19.301 Y11.178 F400.0
G1 X19.500 Y11.164 F400.0
G1 X19.700 Y11.155 F400.0
G1 X19.900 Y11.151 F400.0
G1 X20.100 Y11.151 F400.0
G1 X20.300 Y11.155 F400.0
G1 X20.500 Y11.164 F400.0
G1 X20.699 Y11.178 F400.0
G1 X20.899 Y11.196 F400.0
G1 X21.097 Y11.218 F400.0
G1 X21.295 Y11.245 F400.0
G1 X21.493 Y11.277 F400.0
G1 X21.690 Y11.313 F400.0
G1 X21.886 Y11.353 F400.0
G1 X22.081 Y11.398 F400.0
G1 X22.274 Y11.447 F400.0
G1 X22.467 Y11.501 F400.0
G1 X22.659 Y11.559 F400.0
G1 X22.849 Y11.621 F400.0
G1 X23.037 Y11.688 F400.0
G1 X23.224 Y11.758 F400.0
G1 X23.410 Y11.833 F400.0
G1 X23.594 Y11.912 F400.0
G1 X23.775 Y11.996 F400.0
G1 X23.955 Y12.083 F400.0
G1 X24.133 Y12.174 F400.0
G1 X24.309 Y12.270 F400.0
G1 X24.483 Y12.369 F400.0
G1 X24.654 Y12.472 F400.0
G1 X24.823 Y12.580 F400.0
G1 X24.989 Y12.690 F400.0
G1 X25.153 Y12.805 F400.0
G1 X25.315 Y12.923 F400.0
G1 X25.473 Y13.045 F400.0
G1 X25.629 Y13.171 F400.0
G1 X25.782 Y13.300 F400.0
G1 X25.932 Y13.432 F400.0
G1 X26.079 Y13.568 F400.0
G1 X26.222 Y13.707 F400.0
G1 X26.363 Y13.849 F400.0
G1 X26.500 Y13.994 F400.0
G1 X26.635 Y14.143 F400.0
G1 X26.765 Y14.294 F400.0
G1 X26.892 Y14.449 F400.0
G1 X27.016 Y14.606 F400.0
G1 X27.136 Y14.766 F400.0
G1 X27.253 Y14.928 F400.0
G1 X27.365 Y15.094 F400.0
G1 X27.474 Y15.261 F400.0
G1 X27.580 Y15.431 F400.0
G1 X27.681 Y15.604 F400.0
G1 X27.778 Y15.779 F400.0
G1 X27.872 Y15.955 F400.0
G1 X27.961 Y16.134 F400.0
G1 X28.046 Y16.315 F400.0
G1 X28.128 Y16.498 F400.0
G1 X28.205 Y16.683 F400.0
G1 X28.278 Y16.869 F400.0
G1 X28.346 Y17.057 F400.0
G1 X28.411 Y17.246 F400.0
G1 X28.471 Y17.437 F400.0
G1 X28.526 Y17.629 F400.0
G1 X28.578 Y17.822 F400.0
G1 X28.625 Y18.017 F400.0
G1 X28.668 Y18.212 F400.0
G1 X28.706 Y18.409 F400.0
G1 X28.739 Y18.606 F400.0
G1 X28.769 Y18.804 F400.0
G1 X28.794 Y19.002 F400.0
G1 X28.814 Y19.201 F400.0
G1 X28.830 Y19.400 F400.0
G1 X28.841 Y19.600 F400.0
G1 X28.848 Y19.800 F400.0
G1 X28.850 Y20.000 F400.0
G0 Z1.000
G0 X28.850 Y20.000
G1 Z-8.000 F100.0
G1 X28.848 Y20.200 F400.0
G1 X28.841 Y20.400 F400.0
G1 X28.830 Y20.600 F400.0
G1 X28.814 Y20.799 F400.0
G1 X28.794 Y20.998 F400.0
G1 X28.769 Y21.196 F400.0
G1 X28.739 Y21.394 F400.0
G1 X28.706 Y21.591 F400.0
G1 X28.668 Y21.788 F400.0
G1 X28.625 Y21.983 F400.0
G1 X28.578 Y22.178 F400.0
G1 X28.526 Y22.371 F400.0
G1 X28.471 Y22.563 F400.0
G1 X28.411 Y22.754 F400.0
G1 X28.346 Y22.943 F400.0
G1 X28.278 Y23.131 F400.0
G1 X28.205 Y23.317 F400.0
G1 X28.128 Y23.502 F400.0
G1 X28.046 Y23.685 F400.0
G1 X27.961 Y23.866 F400.0
G1 X27.872 Y24.045 F400.0
G1 X27.778 Y24.221 F400.0
G1 X27.681 Y24.396 F400.0
G1 X27.580 Y24.569 F400.0
G1 X27.474 Y24.739 F400.0
G1 X27.365 Y24.906 F400.0
G1 X27.253 Y25.072 F400.0
G1 X27.136 Y25.234 F400.0
G1 X27.016 Y25.394 F400.0
G1 X26.892 Y25.551 F400.0
G1 X26.765 Y25.706 F400.0
G1 X26.635 Y25.857 F400.0
G1 X26.500 Y26.006 F400.0
G1 X26.363 Y26.151 F400.0
G1 X26.222 Y26.293 F400.0
G1 X26.079 Y26.432 F400.0
G1 X25.932 Y26.568 F400.0
G1 X25.782 Y26.700 F400.0
G1 X25.629 Y26.829 F400.0
G1 X25.473 Y26.955 F400.0
G1 X25.315 Y27.077 F400.0
G1 X25.153 Y27.195 F400.0
G1 X24.989 Y27.310 F400.0
G1 X24.823 Y27.420 F400.0
G1 X24.654 Y27.528 F400.0
G1 X24.483 Y27.631 F400.0
G1 X24.309 Y27.730 F400.0
G1 X24.133 Y27.826 F400.0
G1 X23.955 Y27.917 F400.0
G1 X23.775 Y28.004 F400.0
G1 X23.594 Y28.088 F400.0
G1 X23.410 Y28.167 F400.0
G1 X23.224 Y28.242 F400.0
G1 X23.037 Y28.312 F400.0
G1 X22.849 Y28.379 F400.0
G1 X22.659 Y28.441 F400.0
G1 X22.467 Y28.499 F400.0
G1 X22.274 Y28.553 F400.0
G1 X22.081 Y28.602 F400.0
G1 X21.886 Y28.647 F400.0
G1 X21.690 Y28.687 F400.0
G1 X21.493 Y28.723 F400.0
G1 X21.295 Y28.755 F400.0
G1 X21.097 Y28.782 F400.0
G1 X20.899 Y28.804 F400.0
G1 X20.699 Y28.822 F400.0
G1 X20.500 Y28.836 F400.0
G1 X20.300 Y28.845 F400.0
G1 X20.100 Y28.849 F400.0
G1 X19.900 Y28.849 F400.0
G1 X19.700 Y28.845 F400.0
G1 X19.500 Y28.836 F400.0
G1 X19.301 Y28.822 F400.0
G1 X19.101 Y28.804 F400.0
G1 X18.903 Y28.782 F400.0
G1 X18.705 Y28.755 F400.0
G1 X18.507 Y28.723 F400.0
G1 X18.310 Y28.687 F400.0
G1 X18.114 Y28.647 F400.0
G1 X17.919 Y28.602 F400.0
G1 X17.726 Y28.553 F400.0
G1 X17.533 Y28.499 F400.0
G1 X17.341 Y28.441 F400.0
G1 X17.151 Y28.379 F400.0
G1 X16.963 Y28.312 F400.0
G1 X16.776 Y28.242 F400.0
G1 X16.590 Y28.167 F400.0
G1 X16.406 Y28.088 F400.0
G1 X16.225 Y28.004 F400.0
G1 X16.045 Y27.917 F400.0
G1 X15.867 Y27.826 F400.0
G1 X15.691 Y27.730 F400.0
G1 X15.517 Y27.631 F400.0
G1 X15.346 Y27.528 F400.0
G1 X15.177 Y27.420 F400.0
G1 X15.011 Y27.310 F400.0
G1 X14.847 Y27.195 F400.0
G1 X14.685 Y27.077 F400.0
G1 X14.527 Y26.955 F400.0
G1 X14.371 Y26.829 F400.0
G1 X14.218 Y26.700 F400.0
G1 X14.068 Y26.568 F400.0
G1 X13.921 Y26.432 F400.0
G1 X13.778 Y26.293 F400.0
G1 X13.637 Y26.151 F400.0
G1 X13.500 Y26.006 F400.0
G1 X13.365 Y25.857 F400.0
G1 X13.235 Y25.706 F400.0
G1 X13.108 Y25.551 F400.0
G1 X12.984 Y25.394 F400.0
G1 X12.864 Y25.234 F400.0
G1 X12.747 Y25.072 F400.0
G1 X12.635 Y24.906 F400.0
G1 X12.526 Y24.739 F400.0
G1 X12.420 Y24.569 F400.0
G1 X12.319 Y24.396 F400.0
G1 X12.222 Y24.221 F400.0
G1 X12.128 Y24.045 F400.0
G1 X12.039 Y23.866 F400.0
G1 X11.954 Y23.685 F400.0
G1 X11.872 Y23.502 F400.0
G1 X11.795 Y23.317 F400.0
G1 X11.722 Y23.131 F400.0
G1 X11.654 Y22.943 F400.0
G1 X11.589 Y22.754 F400.0
G1 X11.529 Y22.563 F400.0
G1 X11.474 Y22.371 F400.0
G1 X11.422 Y22.178 F400.0
G1 X11.375 Y21.983 F400.0
G1 X11.332 Y21.788 F400.0
G1 X11.294 Y21.591 F400.0
G1 X11.261 Y21.394 F400.0
G1 X11.231 Y21.196 F400.0
G1 X11.206 Y20.998 F400.0
G1 X11.186 Y20.799 F400.0
G1 X11.170 Y20.600 F400.0
G1 X11.159 Y20.400 F400.0
G1 X11.152 Y20.200 F400.0
G1 X11.150 Y20.000 F400.0
G1 X11.152 Y19.800 F400.0
G1 X11.159 Y19.600 F400.0
G1 X11.170 Y19.400 F400.0
G1 X11.186 Y19.201 F400.0
G1 X11.206 Y19.002 F400.0
G1 X11.231 Y18.804 F400.0
G1 X11.261 Y18.606 F400.0
G1 X11.294 Y18.409 F400.0
G1 X11.332 Y18.212 F400.0
G1 X11.375 Y18.017 F400.0
G1 X11.422 Y17.822 F400.0
G1 X11.474 Y17.629 F400.0
G1 X11.529 Y17.437 F400.0
G1 X11.589 Y17.246 F400.0
G1 X11.654 Y17.057 F400.0
G1 X11.722 Y16.869 F400.0
G1 X11.795 Y16.683 F400.0
G1 X11.872 Y16.498 F400.0
G1 X11.954 Y16.315 F400.0
G1 X12.039 Y16.134 F400.0
G1 X12.128 Y15.955 F400.0
G1 X12.222 Y15.779 F400.0
G1 X12.319 Y15.604 F400.0
G1 X12.420 Y15.431 F400.0
G1 X12.526 Y15.261 F400.0
G1 X12.635 Y15.094 F400.0
G1 X12.747 Y14.928 F400.0
G1 X12.864 Y14.766 F400.0
G1 X12.984 Y14.606 F400.0
G1 X13.108 Y14.449 F400.0
G1 X13.235 Y14.294 F400.0
G1 X13.365 Y14.143 F400.0
G1 X13.500 Y13.994 F400.0
G1 X13.637 Y13.849 F400.0
G1 X13.778 Y13.707 F400.0
G1 X13.921 Y13.568 F400.0
G1 X14.068 Y13.432 F400.0
G1 X14.218 Y13.300 F400.0
G1 X14.371 Y13.171 F400.0
G1 X14.527 Y13.045 F400.0
G1 X14.685 Y12.923 F400.0
G1 X14.847 Y12.805 F400.0
G1 X15.011 Y12.690 F400.0
G1 X15.177 Y12.580 F400.0
G1 X15.346 Y12.472 F400.0
G1 X15.517 Y12.369 F400.0
G1 X15.691 Y12.270 F400.0
G1 X15.867 Y12.174 F400.0
G1 X16.045 Y12.083 F400.0
G1 X16.225 Y11.996 F400.0
G1 X16.406 Y11.912 F400.0
G1 X16.590 Y11.833 F400.0
G1 X16.776 Y11.758 F400.0
G1 X16.963 Y11.688 F400.0
G1 X17.151 Y11.621 F400.0
G1 X17.341 Y11.559 F400.0
G1 X17.533 Y11.501 F400.0
G1 X17.726 Y11.447 F400.0
G1 X17.919 Y11.398 F400.0
G1 X18.114 Y11.353 F400.0
G1 X18.310 Y11.313 F400.0
G1 X18.507 Y11.277 F400.0
G1 X18.705 Y11.245 F400.0
G1 X18.903 Y11.218 F400.0
G1 X19.101 Y11.196 F400.0
G1 X19.301 Y11.178 F400.0
G1 X19.500 Y11.164 F400.0
G1 X19.700 Y11.155 F400.0
G1 X19.900 Y11.151 F400.0
G1 X20.100 Y11.151 F400.0
G1 X20.300 Y11.155 F400.0
G1 X20.500 Y11.164 F400.0
G1 X20.699 Y11.178 F400.0
G1 X20.899 Y11.196 F400.0
G1 X21.097 Y11.218 F400.0
G1 X21.295 Y11.245 F400.0
G1 X21.493 Y11.277 F400.0
G1 X21.690 Y11.313 F400.0
G1 X21.886 Y11.353 F400.0
G1 X22.081 Y11.398 F400.0
G1 X22.274 Y11.447 F400.0
G1 X22.467 Y11.501 F400.0
G1 X22.659 Y11.559 F400.0
G1 X22.849 Y11.621 F400.0
G1 X23.037 Y11.688 F400.0
G1 X23.224 Y11.758 F400.0
G1 X23.410 Y11.833 F400.0
G1 X23.594 Y11.912 F400.0
G1 X23.775 Y11.996 F400.0
G1 X23.955 Y12.083 F400.0
G1 X24.133 Y12.174 F400.0
G1 X24.309 Y12.270 F400.0
G1 X24.483 Y12.369 F400.0
G1 X24.654 Y12.472 F400.0
G1 X24.823 Y12.580 F400.0
G1 X24.989 Y12.690 F400.0
G1 X25.153 Y12.805 F400.0
G1 X25.315 Y12.923 F400.0
G1 X25.473 Y13.045 F400.0
G1 X25.629 Y13.171 F400.0
G1 X25.782 Y13.300 F400.0
G1 X25.932 Y13.432 F400.0
G1 X26.079 Y13.568 F400.0
G1 X26.222 Y13.707 F400.0
G1 X26.363 Y13.849 F400.0
G1 X26.500 Y13.994 F400.0
G1 X26.635 Y14.143 F400.0
G1 X26.765 Y14.294 F400.0
G1 X26.892 Y14.449 F400.0
G1 X27.016 Y14.606 F400.0
G1 X27.136 Y14.766 F400.0
G1 X27.253 Y14.928 F400.0
G1 X27.365 Y15.094 F400.0
G1 X27.474 Y15.261 F400.0
G1 X27.580 Y15.431 F400.0
G1 X27.681 Y15.604 F400.0
G1 X27.778 Y15.779 F400.0
G1 X27.872 Y15.955 F400.0
G1 X27.961 Y16.134 F400.0
G1 X28.046 Y16.315 F400.0
G1 X28.128 Y16.498 F400.0
G1 X28.205 Y16.683 F400.0
G1 X28.278 Y16.869 F400.0
G1 X28.346 Y17.057 F400.0
G1 X28.411 Y17.246 F400.0
G1 X28.471 Y17.437 F400.0
G1 X28.526 Y17.629 F400.0
G1 X28.578 Y17.822 F400.0
G1 X28.625 Y18.017 F400.0
G1 X28.668 Y18.212 F400.0
G1 X28.706 Y18.409 F400.0
G1 X28.739 Y18.606 F400.0
G1 X28.769 Y18.804 F400.0
G1 X28.794 Y19.002 F400.0
G1 X28.814 Y19.201 F400.0
G1 X28.830 Y19.400 F400.0
G1 X28.841 Y19.600 F400.0
G1 X28.848 Y19.800 F400.0
G1 X28.850 Y20.000 F400.0
G0 Z1.000
G0 X28.850 Y20.000
G0 Z5.000
G0 X24.350 Y20.000
G0 Z1.000
G1 Z-1.000 F100.0
G1 X24.345 Y20.201 F400.0
G1 X24.331 Y20.401 F400.0
G1 X24.308 Y20.601 F400.0
G1 X24.276 Y20.799 F400.0
G1 X24.234 Y20.996 F400.0
G1 X24.184 Y21.190 F400.0
G1 X24.124 Y21.382 F400.0
G1 X24.056 Y21.571 F400.0
G1 X23.979 Y21.757 F400.0
G1 X23.894 Y21.939 F400.0
G1 X23.800 Y22.117 F400.0
G1 X23.698 Y22.290 F400.0
G1 X23.589 Y22.458 F400.0
G1 X23.471 Y22.621 F400.0
G1 X23.347 Y22.779 F400.0
G1 X23.215 Y22.931 F400.0
G1 X23.076 Y23.076 F400.0
G1 X22.931 Y23.215 F400.0
G1 X22.779 Y23.347 F400.0
G1 X22.621 Y23.471 F400.0
G1 X22.458 Y23.589 F400.0
G1 X22.290 Y23.698 F400.0
G1 X22.117 Y23.800 F400.0
G1 X21.939 Y23.894 F400.0
G1 X21.757 Y23.979 F400.0
G1 X21.571 Y24.056 F400.0
G1 X21.382 Y24.124 F400.0
G1 X21.190 Y24.184 F400.0
G1 X20.996 Y24.234 F400.0
G1 X20.799 Y24.276 F400.0
G1 X20.601 Y24.308 F400.0
G1 X20.401 Y24.331 F400.0
G1 X20.201 Y24.345 F400.0
G1 X20.000 Y24.350 F400.0
G1 X19.799 Y24.345 F400.0
G1 X19.599 Y24.331 F400.0
G1 X19.399 Y24.308 F400.0
G1 X19.201 Y24.276 F400.0
G1 X19.004 Y24.234 F400.0
G1 X18.810 Y24.184 F400.0
G1 X18.618 Y24.124 F400.0
G1 X18.429 Y24.056 F400.0
G1 X18.243 Y23.979 F400.0
G1 X18.061 Y23.894 F400.0
G1 X17.883 Y23.800 F400.0
G1 X17.710 Y23.698 F400.0
G1 X17.542 Y23.589 F400.0
G1 X17.379 Y23.471 F400.0
G1 X17.221 Y23.347 F400.0
G1 X17.069 Y23.215 F400.0
G1 X16.924 Y23.076 F400.0
G1 X16.785 Y22.931 F400.0
G1 X16.653 Y22.779 F400.0
G1 X16.529 Y22.621 F400.0
G1 X16.411 Y22.458 F400.0
G1 X16.302 Y22.290 F400.0
G1 X16.200 Y22.117 F400.0
G1 X16.106 Y21.939 F400.0
G1 X16.021 Y21.757 F400.0
G1 X15.944 Y21.571 F400.0
G1 X15.876 Y21.382 F400.0
G1 X15.816 Y21.190 F400.0
G1 X15.766 Y20.996 F400.0
G1 X15.724 Y20.799 F400.0
G1 X15.692 Y20.601 F400.0
G1 X15.669 Y20.401 F400.0
G1 X15.655 Y20.201 F400.0
G1 X15.650 Y20.000 F400.0
G1 X15.655 Y19.799 F400.0
G1 X15.669 Y19.599 F400.0
G1 X15.692 Y19.399 F400.0
G1 X15.724 Y19.201 F400.0
G1 X15.766 Y19.004 F400.0
G1 X15.816 Y18.810 F400.0
G1 X15.876 Y18.618 F400.0
G1 X15.944 Y18.429 F400.0
G1 X16.021 Y18.243 F400.0
G1 X16.106 Y18.061 F400.0
G1 X16.200 Y17.883 F400.0
G1 X16.302 Y17.710 F400.0
G1 X16.411 Y17.542 F400.0
G1 X16.529 Y17.379 F400.0
G1 X16.653 Y17.221 F400.0
G1 X16.785 Y17.069 F400.0
G1 X16.924 Y16.924 F400.0
G1 X17.069 Y16.785 F400.0
G1 X17.221 Y16.653 F400.0
G1 X17.379 Y16.529 F400.0
G1 X17.542 Y16.411 F400.0
G1 X17.710 Y16.302 F400.0
G1 X17.883 Y16.200 F400.0
G1 X18.061 Y16.106 F400.0
G1 X18.243 Y16.021 F400.0
G1 X18.429 Y15.944 F400.0
G1 X18.618 Y15.876 F400.0
G1 X18.810 Y15.816 F400.0
G1 X19.004 Y15.766 F400.0
G1 X19.201 Y15.724 F400.0
G1 X19.399 Y15.692 F400.0
G1 X19.599 Y15.669 F400.0
G1 X19.799 Y15.655 F400.0
G1 X20.000 Y15.650 F400.0
G1 X20.201 Y15.655 F400.0
G1 X20.401 Y15.669 F400.0
G1 X20.601 Y15.692 F400.0
G1 X20.799 Y15.724 F400.0
G1 X20.996 Y15.766 F400.0
G1 X21.190 Y15.816 F400.0
G1 X21.382 Y15.876 F400.0
G1 X21.571 Y15.944 F400.0
G1 X21.757 Y16.021 F400.0
G1 X21.939 Y16.106 F400.0
G1 X22.117 Y16.200 F400.0
G1 X22.290 Y16.302 F400.0
G1 X22.458 Y16.411 F400.0
G1 X22.621 Y16.529 F400.0
G1 X22.779 Y16.653 F400.0
G1 X22.931 Y16.785 F400.0
G1 X23.076 Y16.924 F400.0
G1 X23.215 Y17.069 F400.0
G1 X23.347 Y17.221 F400.0
G1 X23.471 Y17.379 F400.0
G1 X23.589 Y17.542 F400.0
G1 X23.698 Y17.710 F400.0
G1 X23.800 Y17.883 F400.0
G1 X23.894 Y18.061 F400.0
G1 X23.979 Y18.243 F400.0
G1 X24.056 Y18.429 F400.0
G1 X24.124 Y18.618 F400.0
G1 X24.184 Y18.810 F400.0
G1 X24.234 Y19.004 F400.0
G1 X24.276 Y19.201 F400.0
G1 X24.308 Y19.399 F400.0
G1 X24.331 Y19.599 F400.0
G1 X24.345 Y19.799 F400.0
G1 X24.350 Y20.000 F400.0
G1 Z-2.000 F100.0
G1 X24.345 Y20.201 F400.0
G1 X24.331 Y20.401 F400.0
G1 X24.308 Y20.601 F400.0
G1 X24.276 Y20.799 F400.0
G1 X24.234 Y20.996 F400.0
G1 X24.184 Y21.190 F400.0
G1 X24.124 Y21.382 F400.0
G1 X24.056 Y21.571 F400.0
G1 X23.979 Y21.757 F400.0
G1 X23.894 Y21.939 F400.0
G1 X23.800 Y22.117 F400.0
G1 X23.698 Y22.290 F400.0
G1 X23.589 Y22.458 F400.0
G1 X23.471 Y22.621 F400.0
G1 X23.347 Y22.779 F400.0
G1 X23.215 Y22.931 F400.0
G1 X23.076 Y23.076 F400.0
G1 X22.931 Y23.215 F400.0
G1 X22.779 Y23.347 F400.0
G1 X22.621 Y23.471 F400.0
G1 X22.458 Y23.589 F400.0
G1 X22.290 Y23.698 F400.0
G1 X22.117 Y23.800 F400.0
G1 X21.939 Y23.894 F400.0
G1 X21.757 Y23.979 F400.0
G1 X21.571 Y24.056 F400.0
G1 X21.382 Y24.124 F400.0
G1 X21.190 Y24.184 F400.0
G1 X20.996 Y24.234 F400.0
G1 X20.799 Y24.276 F400.0
G1 X20.601 Y24.308 F400.0
G1 X20.401 Y24.331 F400.0
G1 X20.201 Y24.345 F400.0
G1 X20.000 Y24.350 F400.0
G1 X19.799 Y24.345 F400.0
G1 X19.599 Y24.331 F400.0
G1 X19.399 Y24.308 F400.0
G1 X19.201 Y24.276 F400.0
G1 X19.004 Y24.234 F400.0
G1 X18.810 Y24.184 F400.0
G1 X18.618 Y24.124 F400.0
G1 X18.429 Y24.056 F400.0
G1 X18.243 Y23.979 F400.0
G1 X18.061 Y23.894 F400.0
G1 X17.883 Y23.800 F400.0
G1 X17.710 Y23.698 F400.0
G1 X17.542 Y23.589 F400.0
G1 X17.379 Y23.471 F400.0
G1 X17.221 Y23.347 F400.0
G1 X17.069 Y23.215 F400.0
G1 X16.924 Y23.076 F400.0
G1 X16.785 Y22.931 F400.0
G1 X16.653 Y22.779 F400.0
G1 X16.529 Y22.621 F400.0
G1 X16.411 Y22.458 F400.0
G1 X16.302 Y22.290 F400.0
G1 X16.200 Y22.117 F400.0
G1 X16.106 Y21.939 F400.0
G1 X16.021 Y21.757 F400.0
G1 X15.944 Y21.571 F400.0
G1 X15.876 Y21.382 F400.0
G1 X15.816 Y21.190 F400.0
G1 X15.766 Y20.996 F400.0
G1 X15.724 Y20.799 F400.0
G1 X15.692 Y20.601 F400.0
G1 X15.669 Y20.401 F400.0
G1 X15.655 Y20.201 F400.0
G1 X15.650 Y20.000 F400.0
G1 X15.655 Y19.799 F400.0
G1 X15.669 Y19.599 F400.0
G1 X15.692 Y19.399 F400.0
G1 X15.724 Y19.201 F400.0
G1 X15.766 Y19.004 F400.0
G1 X15.816 Y18.810 F400.0
G1 X15.876 Y18.618 F400.0
G1 X15.944 Y18.429 F400.0
G1 X16.021 Y18.243 F400.0
G1 X16.106 Y18.061 F400.0
G1 X16.200 Y17.883 F400.0
G1 X16.302 Y17.710 F400.0
G1 X16.411 Y17.542 F400.0
G1 X16.529 Y17.379 F400.0
G1 X16.653 Y17.221 F400.0
G1 X16.785 Y17.069 F400.0
G1 X16.924 Y16.924 F400.0
G1 X17.069 Y16.785 F400.0
G1 X17.221 Y16.653 F400.0
G1 X17.379 Y16.529 F400.0
G1 X17.542 Y16.411 F400.0
G1 X17.710 Y16.302 F400.0
G1 X17.883 Y16.200 F400.0
G1 X18.061 Y16.106 F400.0
G1 X18.243 Y16.021 F400.0
G1 X18.429 Y15.944 F400.0
G1 X18.618 Y15.876 F400.0
G1 X18.810 Y15.816 F400.0
G1 X19.004 Y15.766 F400.0
G1 X19.201 Y15.724 F400.0
G1 X19.399 Y15.692 F400.0
G1 X19.599 Y15.669 F400.0
G1 X19.799 Y15.655 F400.0
G1 X20.000 Y15.650 F400.0
G1 X20.201 Y15.655 F400.0
G1 X20.401 Y15.669 F400.0
G1 X20.601 Y15.692 F400.0
G1 X20.799 Y15.724 F400.0
G1 X20.996 Y15.766 F400.0
G1 X21.190 Y15.816 F400.0
G1 X21.382 Y15.876 F400.0
G1 X21.571 Y15.944 F400.0
G1 X21.757 Y16.021 F400.0
G1 X21.939 Y16.106 F400.0
G1 X22.117 Y16.200 F400.0
G1 X22.290 Y16.302 F400.0
G1 X22.458 Y16.411 F400.0
G1 X22.621 Y16.529 F400.0
G1 X22.779 Y16.653 F400.0
G1 X22.931 Y16.785 F400.0
G1 X23.076 Y16.924 F400.0
G1 X23.215 Y17.069 F400.0
G1 X23.347 Y17.221 F400.0
G1 X23.471 Y17.379 F400.0
G1 X23.589 Y17.542 F400.0
G1 X23.698 Y17.710 F400.0
G1 X23.800 Y17.883 F400.0
G1 X23.894 Y18.061 F400.0
G1 X23.979 Y18.243 F400.0
G1 X24.056 Y18.429 F400.0
G1 X24.124 Y18.618 F400.0
G1 X24.184 Y18.810 F400.0
G1 X24.234 Y19.004 F400.0
G1 X24.276 Y19.201 F400.0
G1 X24.308 Y19.399 F400.0
G1 X24.331 Y19.599 F400.0
G1 X24.345 Y19.799 F400.0
G1 X24.350 Y20.000 F400.0
G1 Z-3.000 F100.0
G1 X24.345 Y20.201 F400.0
G1 X24.331 Y20.401 F400.0
G1 X24.308 Y20.601 F400.0
G1 X24.276 Y20.799 F400.0
G1 X24.234 Y20.996 F400.0
G1 X24.184 Y21.190 F400.0
G1 X24.124 Y21.382 F400.0
G1 X24.056 Y21.571 F400.0
G1 X23.979 Y21.757 F400.0
G1 X23.894 Y21.939 F400.0
G1 X23.800 Y22.117 F400.0
G1 X23.698 Y22.290 F400.0
G1 X23.589 Y22.458 F400.0
G1 X23.471 Y22.621 F400.0
G1 X23.347 Y22.779 F400.0
G1 X23.215 Y22.931 F400.0
G1 X23.076 Y23.076 F400.0
G1 X22.931 Y23.215 F400.0
G1 X22.779 Y23.347 F400.0
G1 X22.621 Y23.471 F400.0
G1 X22.458 Y23.589 F400.0
G1 X22.290 Y23.698 F400.0
G1 X22.117 Y23.800 F400.0
G1 X21.939 Y23.894 F400.0
G1 X21.757 Y23.979 F400.0
G1 X21.571 Y24.056 F400.0
G1 X21.382 Y24.124 F400.0
G1 X21.190 Y24.184 F400.0
G1 X20.996 Y24.234 F400.0
G1 X20.799 Y24.276 F400.0
G1 X20.601 Y24.308 F400.0
G1 X20.401 Y24.331 F400.0
G1 X20.201 Y24.345 F400.0
G1 X20.000 Y24.350 F400.0
G1 X19.799 Y24.345 F400.0
G1 X19.599 Y24.331 F400.0
G1 X19.399 Y24.308 F400.0
G1 X19.201 Y24.276 F400.0
G1 X19.004 Y24.234 F400.0
G1 X18.810 Y24.184 F400.0
G1 X18.618 Y24.124 F400.0
G1 X18.429 Y24.056 F400.0
G1 X18.243 Y23.979 F400.0
G1 X18.061 Y23.894 F400.0
G1 X17.883 Y23.800 F400.0
G1 X17.710 Y23.698 F400.0
G1 X17.542 Y23.589 F400.0
G1 X17.379 Y23.471 F400.0
G1 X17.221 Y23.347 F400.0
G1 X17.069 Y23.215 F400.0
G1 X16.924 Y23.076 F400.0
G1 X16.785 Y22.931 F400.0
G1 X16.653 Y22.779 F400.0
G1 X16.529 Y22.621 F400.0
G1 X16.411 Y22.458 F400.0
G1 X16.302 Y22.290 F400.0
G1 X16.200 Y22.117 F400.0
G1 X16.106 Y21.939 F400.0
G1 X16.021 Y21.757 F400.0
G1 X15.944 Y21.571 F400.0
G1 X15.876 Y21.382 F400.0
G1 X15.816 Y21.190 F400.0
G1 X15.766 Y20.996 F400.0
G1 X15.724 Y20.799 F400.0
G1 X15.692 Y20.601 F400.0
G1 X15.669 Y20.401 F400.0
G1 X15.655 Y20.201 F400.0
G1 X15.650 Y20.000 F400.0
G1 X15.655 Y19.799 F400.0
G1 X15.669 Y19.599 F400.0
G1 X15.692 Y19.399 F400.0
G1 X15.724 Y19.201 F400.0
G1 X15.766 Y19.004 F400.0
G1 X15.816 Y18.810 F400.0
G1 X15.876 Y18.618 F400.0
G1 X15.944 Y18.429 F400.0
G1 X16.021 Y18.243 F400.0
G1 X16.106 Y18.061 F400.0
G1 X16.200 Y17.883 F400.0
G1 X16.302 Y17.710 F400.0
G1 X16.411 Y17.542 F400.0
G1 X16.529 Y17.379 F400.0
G1 X16.653 Y17.221 F400.0
G1 X16.785 Y17.069 F400.0
G1 X16.924 Y16.924 F400.0
G1 X17.069 Y16.785 F400.0
G1 X17.221 Y16.653 F400.0
G1 X17.379 Y16.529 F400.0
G1 X17.542 Y16.411 F400.0
G1 X17.710 Y16.302 F400.0
G1 X17.883 Y16.200 F400.0
G1 X18.061 Y16.106 F400.0
G1 X18.243 Y16.021 F400.0
G1 X18.429 Y15.944 F400.0
G1 X18.618 Y15.876 F400.0
G1 X18.810 Y15.816 F400.0
G1 X19.004 Y15.766 F400.0
G1 X19.201 Y15.724 F400.0
G1 X19.399 Y15.692 F400.0
G1 X19.599 Y15.669 F400.0
G1 X19.799 Y15.655 F400.0
G1 X20.000 Y15.650 F400.0
G1 X20.201 Y15.655 F400.0
G1 X20.401 Y15.669 F400.0
G1 X20.601 Y15.692 F400.0
G1 X20.799 Y15.724 F400.0
G1 X20.996 Y15.766 F400.0
G1 X21.190 Y15.816 F400.0
G1 X21.382 Y15.876 F400.0
G1 X21.571 Y15.944 F400.0
G1 X21.757 Y16.021 F400.0
G1 X21.939 Y16.106 F400.0
G1 X22.117 Y16.200 F400.0
G1 X22.290 Y16.302 F400.0
G1 X22.458 Y16.411 F400.0
G1 X22.621 Y16.529 F400.0
G1 X22.779 Y16.653 F400.0
G1 X22.931 Y16.785 F400.0
G1 X23.076 Y16.924 F400.0
G1 X23.215 Y17.069 F400.0
G1 X23.347 Y17.221 F400.0
G1 X23.471 Y17.379 F400.0
G1 X23.589 Y17.542 F400.0
G1 X23.698 Y17.710 F400.0
G1 X23.800 Y17.883 F400.0
G1 X23.894 Y18.061 F400.0
G1 X23.979 Y18.243 F400.0
G1 X24.056 Y18.429 F400.0
G1 X24.124 Y18.618 F400.0
G1 X24.184 Y18.810 F400.0
G1 X24.234 Y19.004 F400.0
G1 X24.276 Y19.201 F400.0
G1 X24.308 Y19.399 F400.0
G1 X24.331 Y19.599 F400.0
G1 X24.345 Y19.799 F400.0
G1 X24.350 Y20.000 F400.0
G1 Z-4.000 F100.0
G1 X24.345 Y20.201 F400.0
G1 X24.331 Y20.401 F400.0
G1 X24.308 Y20.601 F400.0
G1 X24.276 Y20.799 F400.0
G1 X24.234 Y20.996 F400.0
G1 X24.184 Y21.190 F400.0
G1 X24.124 Y21.382 F400.0
G1 X24.056 Y21.571 F400.0
G1 X23.979 Y21.757 F400.0
G1 X23.894 Y21.939 F400.0
G1 X23.800 Y22.117 F400.0
G1 X23.698 Y22.290 F400.0
G1 X23.589 Y22.458 F400.0
G1 X23.471 Y22.621 F400.0
G1 X23.347 Y22.779 F400.0
G1 X23.215 Y22.931 F400.0
G1 X23.076 Y23.076 F400.0
G1 X22.931 Y23.215 F400.0
G1 X22.779 Y23.347 F400.0
G1 X22.621 Y23.471 F400.0
G1 X22.458 Y23.589 F400.0
G1 X22.290 Y23.698 F400.0
G1 X22.117 Y23.800 F400.0
G1 X21.939 Y23.894 F400.0
G1 X21.757 Y23.979 F400.0
G1 X21.571 Y24.056 F400.0
G1 X21.382 Y24.124 F400.0
G1 X21.190 Y24.184 F400.0
G1 X20.996 Y24.234 F400.0
G1 X20.799 Y24.276 F400.0
G1 X20.601 Y24.308 F400.0
G1 X20.401 Y24.331 F400.0
G1 X20.201 Y24.345 F400.0
G1 X20.000 Y24.350 F400.0
G1 X19.799 Y24.345 F400.0
G1 X19.599 Y24.331 F400.0
G1 X19.399 Y24.308 F400.0
G1 X19.201 Y24.276 F400.0
G1 X19.004 Y24.234 F400.0
G1 X18.810 Y24.184 F400.0
G1 X18.618 Y24.124 F400.0
G1 X18.429 Y24.056 F400.0
G1 X18.243 Y23.979 F400.0
G1 X18.061 Y23.894 F400.0
G1 X17.883 Y23.800 F400.0
G1 X17.710 Y23.698 F400.0
G1 X17.542 Y23.589 F400.0
G1 X17.379 Y23.471 F400.0
G1 X17.221 Y23.347 F400.0
G1 X17.069 Y23.215 F400.0
G1 X16.924 Y23.076 F400.0
G1 X16.785 Y22.931 F400.0
G1 X16.653 Y22.779 F400.0
G1 X16.529 Y22.621 F400.0
G1 X16.411 Y22.458 F400.0
G1 X16.302 Y22.290 F400.0
G1 X16.200 Y22.117 F400.0
G1 X16.106 Y21.939 F400.0
G1 X16.021 Y21.757 F400.0
G1 X15.944 Y21.571 F400.0
G1 X15.876 Y21.382 F400.0
G1 X15.816 Y21.190 F400.0
G1 X15.766 Y20.996 F400.0
G1 X15.724 Y20.799 F400.0
G1 X15.692 Y20.601 F400.0
G1 X15.669 Y20.401 F400.0
G1 X15.655 Y20.201 F400.0
G1 X15.650 Y20.000 F400.0
G1 X15.655 Y19.799 F400.0
G1 X15.669 Y19.599 F400.0
G1 X15.692 Y19.399 F400.0
G1 X15.724 Y19.201 F400.0
G1 X15.766 Y19.004 F400.0
G1 X15.816 Y18.810 F400.0
G1 X15.876 Y18.618 F400.0
G1 X15.944 Y18.429 F400.0
G1 X16.021 Y18.243 F400.0
G1 X16.106 Y18.061 F400.0
G1 X16.200 Y17.883 F400.0
G1 X16.302 Y17.710 F400.0
G1 X16.411 Y17.542 F400.0
G1 X16.529 Y17.379 F400.0
G1 X16.653 Y17.221 F400.0
G1 X16.785 Y17.069 F400.0
G1 X16.924 Y16.924 F400.0
G1 X17.069 Y16.785 F400.0
G1 X17.221 Y16.653 F400.0
G1 X17.379 Y16.529 F400.0
G1 X17.542 Y16.411 F400.0
G1 X17.710 Y16.302 F400.0
G1 X17.883 Y16.200 F400.0
G1 X18.061 Y16.106 F400.0
G1 X18.243 Y16.021 F400.0
G1 X18.429 Y15.944 F400.0
G1 X18.618 Y15.876 F400.0
G1 X18.810 Y15.816 F400.0
G1 X19.004 Y15.766 F400.0
G1 X19.201 Y15.724 F400.0
G1 X19.399 Y15.692 F400.0
G1 X19.599 Y15.669 F400.0
G1 X19.799 Y15.655 F400.0
G1 X20.000 Y15.650 F400.0
G1 X20.201 Y15.655 F400.0
G1 X20.401 Y15.669 F400.0
G1 X20.601 Y15.692 F400.0
G1 X20.799 Y15.724 F400.0
G1 X20.996 Y15.766 F400.0
G1 X21.190 Y15.816 F400.0
G1 X21.382 Y15.876 F400.0
G1 X21.571 Y15.944 F400.0
G1 X21.757 Y16.021 F400.0
G1 X21.939 Y16.106 F400.0
G1 X22.117 Y16.200 F400.0
G1 X22.290 Y16.302 F400.0
G1 X22.458 Y16.411 F400.0
G1 X22.621 Y16.529 F400.0
G1 X22.779 Y16.653 F400.0
G1 X22.931 Y16.785 F400.0
G1 X23.076 Y16.924 F400.0
G1 X23.215 Y17.069 F400.0
G1 X23.347 Y17.221 F400.0
G1 X23.471 Y17.379 F400.0
G1 X23.589 Y17.542 F400.0
G1 X23.698 Y17.710 F400.0
G1 X23.800 Y17.883 F400.0
G1 X23.894 Y18.061 F400.0
G1 X23.979 Y18.243 F400.0
G1 X24.056 Y18.429 F400.0
G1 X24.124 Y18.618 F400.0
G1 X24.184 Y18.810 F400.0
G1 X24.234 Y19.004 F400.0
G1 X24.276 Y19.201 F400.0
G1 X24.308 Y19.399 F400.0
G1 X24.331 Y19.599 F400.0
G1 X24.345 Y19.799 F400.0
G1 X24.350 Y20.000 F400.0
G1 Z-5.000 F100.0
G1 X24.345 Y20.201 F400.0
G1 X24.331 Y20.401 F400.0
G1 X24.308 Y20.601 F400.0
G1 X24.276 Y20.799 F400.0
G1 X24.234 Y20.996 F400.0
G1 X24.184 Y21.190 F400.0
G1 X24.124 Y21.382 F400.0
G1 X24.056 Y21.571 F400.0
G1 X23.979 Y21.757 F400.0
G1 X23.894 Y21.939 F400.0
G1 X23.800 Y22.117 F400.0
G1 X23.698 Y22.290 F400.0
G1 X23.589 Y22.458 F400.0
G1 X23.471 Y22.621 F400.0
G1 X23.347 Y22.779 F400.0
G1 X23.215 Y22.931 F400.0
G1 X23.076 Y23.076 F400.0
G1 X22.931 Y23.215 F400.0
G1 X22.779 Y23.347 F400.0
G1 X22.621 Y23.471 F400.0
G1 X22.458 Y23.589 F400.0
G1 X22.290 Y23.698 F400.0
G1 X22.117 Y23.800 F400.0
G1 X21.939 Y23.894 F400.0
G1 X21.757 Y23.979 F400.0
G1 X21.571 Y24.056 F400.0
G1 X21.382 Y24.124 F400.0
G1 X21.190 Y24.184 F400.0
G1 X20.996 Y24.234 F400.0
G1 X20.799 Y24.276 F400.0
G1 X20.601 Y24.308 F400.0
G1 X20.401 Y24.331 F400.0
G1 X20.201 Y24.345 F400.0
G1 X20.000 Y24.350 F400.0
G1 X19.799 Y24.345 F400.0
G1 X19.599 Y24.331 F400.0
G1 X19.399 Y24.308 F400.0
G1 X19.201 Y24.276 F400.0
G1 X19.004 Y24.234 F400.0
G1 X18.810 Y24.184 F400.0
G1 X18.618 Y24.124 F400.0
G1 X18.429 Y24.056 F400.0
G1 X18.243 Y23.979 F400.0
G1 X18.061 Y23.894 F400.0
G1 X17.883 Y23.800 F400.0
G1 X17.710 Y23.698 F400.0
G1 X17.542 Y23.589 F400.0
G1 X17.379 Y23.471 F400.0
G1 X17.221 Y23.347 F400.0
G1 X17.069 Y23.215 F400.0
G1 X16.924 Y23.076 F400.0
G1 X16.785 Y22.931 F400.0
G1 X16.653 Y22.779 F400.0
G1 X16.529 Y22.621 F400.0
G1 X16.411 Y22.458 F400.0
G1 X16.302 Y22.290 F400.0
G1 X16.200 Y22.117 F400.0
G1 X16.106 Y21.939 F400.0
G1 X16.021 Y21.757 F400.0
G1 X15.944 Y21.571 F400.0
G1 X15.876 Y21.382 F400.0
G1 X15.816 Y21.190 F400.0
G1 X15.766 Y20.996 F400.0
G1 X15.724 Y20.799 F400.0
G1 X15.692 Y20.601 F400.0
G1 X15.669 Y20.401 F400.0
G1 X15.655 Y20.201 F400.0
G1 X15.650 Y20.000 F400.0
G1 X15.655 Y19.799 F400.0
G1 X15.669 Y19.599 F400.0
G1 X15.692 Y19.399 F400.0
G1 X15.724 Y19.201 F400.0
G1 X15.766 Y19.004 F400.0
G1 X15.816 Y18.810 F400.0
G1 X15.876 Y18.618 F400.0
G1 X15.944 Y18.429 F400.0
G1 X16.021 Y18.243 F400.0
G1 X16.106 Y18.061 F400.0
G1 X16.200 Y17.883 F400.0
G1 X16.302 Y17.710 F400.0
G1 X16.411 Y17.542 F400.0
G1 X16.529 Y17.379 F400.0
G1 X16.653 Y17.221 F400.0
G1 X16.785 Y17.069 F400.0
G1 X16.924 Y16.924 F400.0
G1 X17.069 Y16.785 F400.0
G1 X17.221 Y16.653 F400.0
G1 X17.379 Y16.529 F400.0
G1 X17.542 Y16.411 F400.0
G1 X17.710 Y16.302 F400.0
G1 X17.883 Y16.200 F400.0
G1 X18.061 Y16.106 F400.0
G1 X18.243 Y16.021 F400.0
G1 X18.429 Y15.944 F400.0
G1 X18.618 Y15.876 F400.0
G1 X18.810 Y15.816 F400.0
G1 X19.004 Y15.766 F400.0
G1 X19.201 Y15.724 F400.0
G1 X19.399 Y15.692 F400.0
G1 X19.599 Y15.669 F400.0
G1 X19.799 Y15.655 F400.0
G1 X20.000 Y15.650 F400.0
G1 X20.201 Y15.655 F400.0
G1 X20.401 Y15.669 F400.0
G1 X20.601 Y15.692 F400.0
G1 X20.799 Y15.724 F400.0
G1 X20.996 Y15.766 F400.0
G1 X21.190 Y15.816 F400.0
G1 X21.382 Y15.876 F400.0
G1 X21.571 Y15.944 F400.0
G1 X21.757 Y16.021 F400.0
G1 X21.939 Y16.106 F400.0
G1 X22.117 Y16.200 F400.0
G1 X22.290 Y16.302 F400.0
G1 X22.458 Y16.411 F400.0
G1 X22.621 Y16.529 F400.0
G1 X22.779 Y16.653 F400.0
G1 X22.931 Y16.785 F400.0
G1 X23.076 Y16.924 F400.0
G1 X23.215 Y17.069 F400.0
G1 X23.347 Y17.221 F400.0
G1 X23.471 Y17.379 F400.0
G1 X23.589 Y17.542 F400.0
G1 X23.698 Y17.710 F400.0
G1 X23.800 Y17.883 F400.0
G1 X23.894 Y18.061 F400.0
G1 X23.979 Y18.243 F400.0
G1 X24.056 Y18.429 F400.0
G1 X24.124 Y18.618 F400.0
G1 X24.184 Y18.810 F400.0
G1 X24.234 Y19.004 F400.0
G1 X24.276 Y19.201 F400.0
G1 X24.308 Y19.399 F400.0
G1 X24.331 Y19.599 F400.0
G1 X24.345 Y19.799 F400.0
G1 X24.350 Y20.000 F400.0
G1 Z-6.000 F100.0
G1 X24.345 Y20.201 F400.0
G1 X24.331 Y20.401 F400.0
G1 X24.308 Y20.601 F400.0
G1 X24.276 Y20.799 F400.0
G1 X24.234 Y20.996 F400.0
G1 X24.184 Y21.190 F400.0
G1 X24.124 Y21.382 F400.0
G1 X24.056 Y21.571 F400.0
G1 X23.979 Y21.757 F400.0
G1 X23.894 Y21.939 F400.0
G1 X23.800 Y22.117 F400.0
G1 X23.698 Y22.290 F400.0
G1 X23.589 Y22.458 F400.0
G1 X23.471 Y22.621 F400.0
G1 X23.347 Y22.779 F400.0
G1 X23.215 Y22.931 F400.0
G1 X23.076 Y23.076 F400.0
G1 X22.931 Y23.215 F400.0
G1 X22.779 Y23.347 F400.0
G1 X22.621 Y23.471 F400.0
G1 X22.458 Y23.589 F400.0
G1 X22.290 Y23.698 F400.0
G1 X22.117 Y23.800 F400.0
G1 X21.939 Y23.894 F400.0
G1 X21.757 Y23.979 F400.0
G1 X21.571 Y24.056 F400.0
G1 X21.382 Y24.124 F400.0
G1 X21.190 Y24.184 F400.0
G1 X20.996 Y24.234 F400.0
G1 X20.799 Y24.276 F400.0
G1 X20.601 Y24.308 F400.0
G1 X20.401 Y24.331 F400.0
G1 X20.201 Y24.345 F400.0
G1 X20.000 Y24.350 F400.0
G1 X19.799 Y24.345 F400.0
G1 X19.599 Y24.331 F400.0
G1 X19.399 Y24.308 F400.0
G1 X19.201 Y24.276 F400.0
G1 X19.004 Y24.234 F400.0
G1 X18.810 Y24.184 F400.0
G1 X18.618 Y24.124 F400.0
G1 X18.429 Y24.056 F400.0
G1 X18.243 Y23.979 F400.0
G1 X18.061 Y23.894 F400.0
G1 X17.883 Y23.800 F400.0
G1 X17.710 Y23.698 F400.0
G1 X17.542 Y23.589 F400.0
G1 X17.379 Y23.471 F400.0
G1 X17.221 Y23.347 F400.0
G1 X17.069 Y23.215 F400.0
G1 X16.924 Y23.076 F400.0
G1 X16.785 Y22.931 F400.0
G1 X16.653 Y22.779 F400.0
G1 X16.529 Y22.621 F400.0
G1 X16.411 Y22.458 F400.0
G1 X16.302 Y22.290 F400.0
G1 X16.200 Y22.117 F400.0
G1 X16.106 Y21.939 F400.0
G1 X16.021 Y21.757 F400.0
G1 X15.944 Y21.571 F400.0
G1 X15.876 Y21.382 F400.0
G1 X15.816 Y21.190 F400.0
G1 X15.766 Y20.996 F400.0
G1 X15.724 Y20.799 F400.0
G1 X15.692 Y20.601 F400.0
G1 X15.669 Y20.401 F400.0
G1 X15.655 Y20.201 F400.0
G1 X15.650 Y20.000 F400.0
G1 X15.655 Y19.799 F400.0
G1 X15.669 Y19.599 F400.0
G1 X15.692 Y19.399 F400.0
G1 X15.724 Y19.201 F400.0
G1 X15.766 Y19.004 F400.0
G1 X15.816 Y18.810 F400.0
G1 X15.876 Y18.618 F400.0
G1 X15.944 Y18.429 F400.0
G1 X16.021 Y18.243 F400.0
G1 X16.106 Y18.061 F400.0
G1 X16.200 Y17.883 F400.0
G1 X16.302 Y17.710 F400.0
G1 X16.411 Y17.542 F400.0
G1 X16.529 Y17.379 F400.0
G1 X16.653 Y17.221 F400.0
G1 X16.785 Y17.069 F400.0
G1 X16.924 Y16.924 F400.0
G1 X17.069 Y16.785 F400.0
G1 X17.221 Y16.653 F400.0
G1 X17.379 Y16.529 F400.0
G1 X17.542 Y16.411 F400.0
G1 X17.710 Y16.302 F400.0
G1 X17.883 Y16.200 F400.0
G1 X18.061 Y16.106 F400.0
G1 X18.243 Y16.021 F400.0
G1 X18.429 Y15.944 F400.0
G1 X18.618 Y15.876 F400.0
G1 X18.810 Y15.816 F400.0
G1 X19.004 Y15.766 F400.0
G1 X19.201 Y15.724 F400.0
G1 X19.399 Y15.692 F400.0
G1 X19.599 Y15.669 F400.0
G1 X19.799 Y15.655 F400.0
G1 X20.000 Y15.650 F400.0
G1 X20.201 Y15.655 F400.0
G1 X20.401 Y15.669 F400.0
G1 X20.601 Y15.692 F400.0
G1 X20.799 Y15.724 F400.0
G1 X20.996 Y15.766 F400.0
G1 X21.190 Y15.816 F400.0
G1 X21.382 Y15.876 F400.0
G1 X21.571 Y15.944 F400.0
G1 X21.757 Y16.021 F400.0
G1 X21.939 Y16.106 F400.0
G1 X22.117 Y16.200 F400.0
G1 X22.290 Y16.302 F400.0
G1 X22.458 Y16.411 F400.0
G1 X22.621 Y16.529 F400.0
G1 X22.779 Y16.653 F400.0
G1 X22.931 Y16.785 F400.0
G1 X23.076 Y16.924 F400.0
G1 X23.215 Y17.069 F400.0
G1 X23.347 Y17.221 F400.0
G1 X23.471 Y17.379 F400.0
G1 X23.589 Y17.542 F400.0
G1 X23.698 Y17.710 F400.0
G1 X23.800 Y17.883 F400.0
G1 X23.894 Y18.061 F400.0
G1 X23.979 Y18.243 F400.0
G1 X24.056 Y18.429 F400.0
G1 X24.124 Y18.618 F400.0
G1 X24.184 Y18.810 F400.0
G1 X24.234 Y19.004 F400.0
G1 X24.276 Y19.201 F400.0
G1 X24.308 Y19.399 F400.0
G1 X24.331 Y19.599 F400.0
G1 X24.345 Y19.799 F400.0
G1 X24.350 Y20.000 F400.0
G1 Z-7.000 F100.0
G1 X24.345 Y20.201 F400.0
G1 X24.331 Y20.401 F400.0
G1 X24.308 Y20.601 F400.0
G1 X24.276 Y20.799 F400.0
G1 X24.234 Y20.996 F400.0
G1 X24.184 Y21.190 F400.0
G1 X24.124 Y21.382 F400.0
G1 X24.056 Y21.571 F400.0
G1 X23.979 Y21.757 F400.0
G1 X23.894 Y21.939 F400.0
G1 X23.800 Y22.117 F400.0
G1 X23.698 Y22.290 F400.0
G1 X23.589 Y22.458 F400.0
G1 X23.471 Y22.621 F400.0
G1 X23.347 Y22.779 F400.0
G1 X23.215 Y22.931 F400.0
G1 X23.076 Y23.076 F400.0
G1 X22.931 Y23.215 F400.0
G1 X22.779 Y23.347 F400.0
G1 X22.621 Y23.471 F400.0
G1 X22.458 Y23.589 F400.0
G1 X22.290 Y23.698 F400.0
G1 X22.117 Y23.800 F400.0
G1 X21.939 Y23.894 F400.0
G1 X21.757 Y23.979 F400.0
G1 X21.571 Y24.056 F400.0
G1 X21.382 Y24.124 F400.0
G1 X21.190 Y24.184 F400.0
G1 X20.996 Y24.234 F400.0
G1 X20.799 Y24.276 F400.0
G1 X20.601 Y24.308 F400.0
G1 X20.401 Y24.331 F400.0
G1 X20.201 Y24.345 F400.0
G1 X20.000 Y24.350 F400.0
G1 X19.799 Y24.345 F400.0
G1 X19.599 Y24.331 F400.0
G1 X19.399 Y24.308 F400.0
G1 X19.201 Y24.276 F400.0
G1 X19.004 Y24.234 F400.0
G1 X18.810 Y24.184 F400.0
G1 X18.618 Y24.124 F400.0
G1 X18.429 Y24.056 F400.0
G1 X18.243 Y23.979 F400.0
G1 X18.061 Y23.894 F400.0
G1 X17.883 Y23.800 F400.0
G1 X17.710 Y23.698 F400.0
G1 X17.542 Y23.589 F400.0
G1 X17.379 Y23.471 F400.0
G1 X17.221 Y23.347 F400.0
G1 X17.069 Y23.215 F400.0
G1 X16.924 Y23.076 F400.0
G1 X16.785 Y22.931 F400.0
G1 X16.653 Y22.779 F400.0
G1 X16.529 Y22.621 F400.0
G1 X16.411 Y22.458 F400.0
G1 X16.302 Y22.290 F400.0
G1 X16.200 Y22.117 F400.0
G1 X16.106 Y21.939 F400.0
G1 X16.021 Y21.757 F400.0
G1 X15.944 Y21.571 F400.0
G1 X15.876 Y21.382 F400.0
G1 X15.816 Y21.190 F400.0
G1 X15.766 Y20.996 F400.0
G1 X15.724 Y20.799 F400.0
G1 X15.692 Y20.601 F400.0
G1 X15.669 Y20.401 F400.0
G1 X15.655 Y20.201 F400.0
G1 X15.650 Y20.000 F400.0
G1 X15.655 Y19.799 F400.0
G1 X15.669 Y19.599 F400.0
G1 X15.692 Y19.399 F400.0
G1 X15.724 Y19.201 F400.0
G1 X15.766 Y19.004 F400.0
G1 X15.816 Y18.810 F400.0
G1 X15.876 Y18.618 F400.0
G1 X15.944 Y18.429 F400.0
G1 X16.021 Y18.243 F400.0
G1 X16.106 Y18.061 F400.0
G1 X16.200 Y17.883 F400.0
G1 X16.302 Y17.710 F400.0
G1 X16.411 Y17.542 F400.0
G1 X16.529 Y17.379 F400.0
G1 X16.653 Y17.221 F400.0
G1 X16.785 Y17.069 F400.0
G1 X16.924 Y16.924 F400.0
G1 X17.069 Y16.785 F400.0
G1 X17.221 Y16.653 F400.0
G1 X17.379 Y16.529 F400.0
G1 X17.542 Y16.411 F400.0
G1 X17.710 Y16.302 F400.0
G1 X17.883 Y16.200 F400.0
G1 X18.061 Y16.106 F400.0
G1 X18.243 Y16.021 F400.0
G1 X18.429 Y15.944 F400.0
G1 X18.618 Y15.876 F400.0
G1 X18.810 Y15.816 F400.0
G1 X19.004 Y15.766 F400.0
G1 X19.201 Y15.724 F400.0
G1 X19.399 Y15.692 F400.0
G1 X19.599 Y15.669 F400.0
G1 X19.799 Y15.655 F400.0
G1 X20.000 Y15.650 F400.0
G1 X20.201 Y15.655 F400.0
G1 X20.401 Y15.669 F400.0
G1 X20.601 Y15.692 F400.0
G1 X20.799 Y15.724 F400.0
G1 X20.996 Y15.766 F400.0
G1 X21.190 Y15.816 F400.0
G1 X21.382 Y15.876 F400.0
G1 X21.571 Y15.944 F400.0
G1 X21.757 Y16.021 F400.0
G1 X21.939 Y16.106 F400.0
G1 X22.117 Y16.200 F400.0
G1 X22.290 Y16.302 F400.0
G1 X22.458 Y16.411 F400.0
G1 X22.621 Y16.529 F400.0
G1 X22.779 Y16.653 F400.0
G1 X22.931 Y16.785 F400.0
G1 X23.076 Y16.924 F400.0
G1 X23.215 Y17.069 F400.0
G1 X23.347 Y17.221 F400.0
G1 X23.471 Y17.379 F400.0
G1 X23.589 Y17.542 F400.0
G1 X23.698 Y17.710 F400.0
G1 X23.800 Y17.883 F400.0
G1 X23.894 Y18.061 F400.0
G1 X23.979 Y18.243 F400.0
G1 X24.056 Y18.429 F400.0
G1 X24.124 Y18.618 F400.0
G1 X24.184 Y18.810 F400.0
G1 X24.234 Y19.004 F400.0
G1 X24.276 Y19.201 F400.0
G1 X24.308 Y19.399 F400.0
G1 X24.331 Y19.599 F400.0
G1 X24.345 Y19.799 F400.0
G1 X24.350 Y20.000 F400.0
G1 Z-8.000 F100.0
G1 X24.345 Y20.201 F400.0
G1 X24.331 Y20.401 F400.0
G1 X24.308 Y20.601 F400.0
G1 X24.276 Y20.799 F400.0
G1 X24.234 Y20.996 F400.0
G1 X24.184 Y21.190 F400.0
G1 X24.124 Y21.382 F400.0
G1 X24.056 Y21.571 F400.0
G1 X23.979 Y21.757 F400.0
G1 X23.894 Y21.939 F400.0
G1 X23.800 Y22.117 F400.0
G1 X23.698 Y22.290 F400.0
G1 X23.589 Y22.458 F400.0
G1 X23.471 Y22.621 F400.0
G1 X23.347 Y22.779 F400.0
G1 X23.215 Y22.931 F400.0
G1 X23.076 Y23.076 F400.0
G1 X22.931 Y23.215 F400.0
G1 X22.779 Y23.347 F400.0
G1 X22.621 Y23.471 F400.0
G1 X22.458 Y23.589 F400.0
G1 X22.290 Y23.698 F400.0
G1 X22.117 Y23.800 F400.0
G1 X21.939 Y23.894 F400.0
G1 X21.757 Y23.979 F400.0
G1 X21.571 Y24.056 F400.0
G1 X21.382 Y24.124 F400.0
G1 X21.190 Y24.184 F400.0
G1 X20.996 Y24.234 F400.0
G1 X20.799 Y24.276 F400.0
G1 X20.601 Y24.308 F400.0
G1 X20.401 Y24.331 F400.0
G1 X20.201 Y24.345 F400.0
G1 X20.000 Y24.350 F400.0
G1 X19.799 Y24.345 F400.0
G1 X19.599 Y24.331 F400.0
G1 X19.399 Y24.308 F400.0
G1 X19.201 Y24.276 F400.0
G1 X19.004 Y24.234 F400.0
G1 X18.810 Y24.184 F400.0
G1 X18.618 Y24.124 F400.0
G1 X18.429 Y24.056 F400.0
G1 X18.243 Y23.979 F400.0
G1 X18.061 Y23.894 F400.0
G1 X17.883 Y23.800 F400.0
G1 X17.710 Y23.698 F400.0
G1 X17.542 Y23.589 F400.0
G1 X17.379 Y23.471 F400.0
G1 X17.221 Y23.347 F400.0
G1 X17.069 Y23.215 F400.0
G1 X16.924 Y23.076 F400.0
G1 X16.785 Y22.931 F400.0
G1 X16.653 Y22.779 F400.0
G1 X16.529 Y22.621 F400.0
G1 X16.411 Y22.458 F400.0
G1 X16.302 Y22.290 F400.0
G1 X16.200 Y22.117 F400.0
G1 X16.106 Y21.939 F400.0
G1 X16.021 Y21.757 F400.0
G1 X15.944 Y21.571 F400.0
G1 X15.876 Y21.382 F400.0
G1 X15.816 Y21.190 F400.0
G1 X15.766 Y20.996 F400.0
G1 X15.724 Y20.799 F400.0
G1 X15.692 Y20.601 F400.0
G1 X15.669 Y20.401 F400.0
G1 X15.655 Y20.201 F400.0
G1 X15.650 Y20.000 F400.0
G1 X15.655 Y19.799 F400.0
G1 X15.669 Y19.599 F400.0
G1 X15.692 Y19.399 F400.0
G1 X15.724 Y19.201 F400.0
G1 X15.766 Y19.004 F400.0
G1 X15.816 Y18.810 F400.0
G1 X15.876 Y18.618 F400.0
G1 X15.944 Y18.429 F400.0
G1 X16.021 Y18.243 F400.0
G1 X16.106 Y18.061 F400.0
G1 X16.200 Y17.883 F400.0
G1 X16.302 Y17.710 F400.0
G1 X16.411 Y17.542 F400.0
G1 X16.529 Y17.379 F400.0
G1 X16.653 Y17.221 F400.0
G1 X16.785 Y17.069 F400.0
G1 X16.924 Y16.924 F400.0
G1 X17.069 Y16.785 F400.0
G1 X17.221 Y16.653 F400.0
G1 X17.379 Y16.529 F400.0
G1 X17.542 Y16.411 F400.0
G1 X17.710 Y16.302 F400.0
G1 X17.883 Y16.200 F400.0
G1 X18.061 Y16.106 F400.0
G1 X18.243 Y16.021 F400.0
G1 X18.429 Y15.944 F400.0
G1 X18.618 Y15.876 F400.0
G1 X18.810 Y15.816 F400.0
G1 X19.004 Y15.766 F400.0
G1 X19.201 Y15.724 F400.0
G1 X19.399 Y15.692 F400.0
G1 X19.599 Y15.669 F400.0
G1 X19.799 Y15.655 F400.0
G1 X20.000 Y15.650 F400.0
G1 X20.201 Y15.655 F400.0
G1 X20.401 Y15.669 F400.0
G1 X20.601 Y15.692 F400.0
G1 X20.799 Y15.724 F400.0
G1 X20.996 Y15.766 F400.0
G1 X21.190 Y15.816 F400.0
G1 X21.382 Y15.876 F400.0
G1 X21.571 Y15.944 F400.0
G1 X21.757 Y16.021 F400.0
G1 X21.939 Y16.106 F400.0
G1 X22.117 Y16.200 F400.0
G1 X22.290 Y16.302 F400.0
G1 X22.458 Y16.411 F400.0
G1 X22.621 Y16.529 F400.0
G1 X22.779 Y16.653 F400.0
G1 X22.931 Y16.785 F400.0
G1 X23.076 Y16.924 F400.0
G1 X23.215 Y17.069 F400.0
G1 X23.347 Y17.221 F400.0
G1 X23.471 Y17.379 F400.0
G1 X23.589 Y17.542 F400.0
G1 X23.698 Y17.710 F400.0
G1 X23.800 Y17.883 F400.0
G1 X23.894 Y18.061 F400.0
G1 X23.979 Y18.243 F400.0
G1 X24.056 Y18.429 F400.0
G1 X24.124 Y18.618 F400.0
G1 X24.184 Y18.810 F400.0
G1 X24.234 Y19.004 F400.0
G1 X24.276 Y19.201 F400.0
G1 X24.308 Y19.399 F400.0
G1 X24.331 Y19.599 F400.0
G1 X24.345 Y19.799 F400.0
G1 X24.350 Y20.000 F400.0
G0 Z5.000
M5
G0 Z5.000
G0 X0 Y0
M2
